;FLAVOR:Marlin
;TIME:1053
;Filament used: 2.61507m
;Layer height: 0.2
;MINX:87.2
;MINY:88.7
;MINZ:0.2
;MAXX:132.8
;MAXY:132.165
;MAXZ:14.84
;TARGET_MACHINE.NAME:Creality Ender-3 V3 KE
;Generated with Cura_SteamEngine 5.10.1
M140 S60
M105
M190 S60
M220 S100 ;Reset Feedrate
M221 S100 ;Reset Flowrate

G28 ;Home

G92 E0 ;Reset Extruder
G1 Z2.0 F3000 ;Move Z Axis up
G1 X-2.0 Y20 Z0.28 F5000.0 ;Move to start position
M109 S220.0
G1 X-2.0 Y145.0 Z0.28 F1500.0 E15 ;Draw the first line
G1 X-1.7 Y145.0 Z0.28 F5000.0 ;Move to side a little
G1 X-1.7 Y20 Z0.28 F1500.0 E30 ;Draw the second line
G92 E0 ;Reset Extruder
G1 E-1 F1800 ;Retract a bit
G1 Z2.0 F3000 ;Move Z Axis up
G1 E0 F1800
M82 ;absolute extrusion mode
G92 E0
G92 E0
G1 F2400 E-0.8
;LAYER_COUNT:62
;LAYER:0
M107
M204 S500
;MESH:MotorPlate_1x.stl
G0 F18000 X90.218 Y89.183 Z0.2
;TYPE:WALL-INNER
G1 F2400 E0
G1 F4247.8 X90.757 Y89.182 E0.02532
G1 F4173.9 X90.917 Y89.193 E0.03299
G1 F2400 E-0.76701
G0 F18000 X99.809 Y106.616
G1 F2400 E0.03299
G1 F6000 X99.268 Y106.473 E0.0516
G1 X98.706 Y106.193 E0.07249
G1 X98.291 Y105.719 E0.09344
G1 X98.024 Y105.216 E0.11238
G1 X97.907 Y104.711 E0.12962
G1 X97.903 Y104.284 E0.14382
G1 X98.023 Y103.779 E0.16109
G1 X98.313 Y103.205 E0.18248
G1 X98.758 Y102.796 E0.20258
G1 X99.027 Y102.635 E0.21301
G1 X99.613 Y102.406 E0.23393
G1 X100.217 Y102.407 E0.25402
G1 X100.716 Y102.523 E0.27106
G1 X101.29 Y102.809 E0.29239
G1 X101.716 Y103.28 E0.31351
G1 X101.976 Y103.781 E0.33229
G1 X102.089 Y104.285 E0.34947
G1 X102.072 Y104.828 E0.36754
G1 X101.977 Y105.217 E0.38085
G1 X101.692 Y105.788 E0.40208
G1 X101.232 Y106.204 E0.42271
G1 X100.751 Y106.459 E0.44082
G1 X100.407 Y106.558 E0.45272
G1 X99.809 Y106.616 E0.4727
G1 F2400 E-0.3273
G0 F18000 X99.797 Y130.586
G1 F2400 E0.4727
G1 F6217.6 X99.276 Y130.477 E0.48979
G1 F6000 X98.811 Y130.245 E0.50707
G1 X98.632 Y130.108 E0.51457
G1 X98.289 Y129.723 E0.53172
G1 X98.021 Y129.221 E0.55065
G1 X97.903 Y128.713 E0.56799
G1 X97.908 Y128.281 E0.58236
G1 X98.026 Y127.771 E0.59977
G1 X98.306 Y127.215 E0.62048
G1 X98.762 Y126.798 E0.64103
G1 X99.026 Y126.636 E0.65133
G1 X99.621 Y126.403 E0.67259
G1 X100.221 Y126.408 E0.69254
G1 X100.743 Y126.533 E0.71039
G1 X101.3 Y126.819 E0.73122
G1 X101.719 Y127.291 E0.75221
G1 X101.969 Y127.773 E0.77027
G1 X102.095 Y128.289 E0.78794
G1 X102.078 Y128.811 E0.80531
G1 X101.976 Y129.218 E0.81926
G1 X101.747 Y129.683 E0.8365
G1 X101.611 Y129.862 E0.84398
G1 X101.224 Y130.212 E0.86134
G1 X100.792 Y130.439 E0.87757
G1 F6169.7 X100.454 Y130.535 E0.88893
G1 F6400 X99.797 Y130.586 E0.90948
G1 F2400 E0.10948
G0 F18000 X90.989 Y130.799
G1 F2400 E0.90948
G1 F4195.8 X90.496 Y130.83 E0.93297
G1 F4159.4 X89.981 Y130.794 E0.95774
G1 F2400 E0.15774
G0 F18000 X128.979 Y130.793
G1 F2400 E0.95774
G1 F4123.7 X129.412 Y130.824 E0.97875
G1 F4247.8 X129.867 Y130.811 E1.00014
G1 F2400 E0.20014
G0 F18000 X110 Y130.901
G1 F2400 E1.00014
G1 F6015 X128.371 Y130.899 E1.60963
G1 F5183.6 X128.819 Y130.836 E1.62705
G1 F4217.9 X128.979 Y130.793 E1.63489
G1 F4743.1 X128.332 Y130.42 E1.66631
G1 F6000 X127.92 Y130.132 E1.68303
G1 X127.585 Y129.682 E1.70169
G1 X127.398 Y129.316 E1.71536
G1 X127.256 Y128.739 E1.73512
G1 X127.256 Y128.149 E1.75474
G1 X127.471 Y127.488 E1.77786
G1 X127.769 Y127.051 E1.79545
G1 X128.19 Y126.665 E1.81445
G1 X128.526 Y126.47 E1.82737
G1 X128.953 Y126.316 E1.84247
G1 X129.596 Y126.246 E1.86398
G1 X130.158 Y126.34 E1.88293
G1 X130.627 Y126.548 E1.9
G1 X130.959 Y126.778 E1.91343
G1 X131.325 Y127.177 E1.93144
G1 X131.559 Y127.567 E1.94657
G1 F5128.2 X131.806 Y128.224 E1.97388
G1 F4477.6 X131.803 Y128.691 E1.9947
G1 F4347.8 X131.751 Y129.102 E2.01371
G1 F4633.2 X131.655 Y129.24 E2.02095
G1 F5542.7 X131.418 Y129.669 E2.0386
G1 F6000 X131.222 Y129.955 E2.05013
G1 X130.825 Y130.321 E2.06809
G1 X130.528 Y130.502 E2.07966
G1 F5405.4 X129.852 Y130.818 E2.10721
G1 X130.443 Y130.9 E2.12923
G1 F6000 X132.4 Y130.9 E2.19432
G1 X132.4 Y129.766 E2.23204
G1 F5542.7 X132.367 Y129.39 E2.24563
G1 F4633.2 X132.316 Y129.151 E2.25616
G1 F4379.6 X132.336 Y128.565 E2.28287
G1 F4494.4 X132.33 Y128.144 E2.30157
G1 F5106.4 X132.4 Y127.674 E2.32014
G1 F6000 X132.4 Y92.766 E3.48118
G1 F5542.7 X132.367 Y92.39 E3.49477
G1 F4633.2 X132.316 Y92.151 E3.5053
G1 F4379.6 X132.336 Y91.565 E3.53202
G1 F4494.4 X132.33 Y91.144 E3.55071
G1 F5106.4 X132.4 Y90.674 E3.56928
G1 F6000 X132.4 Y89.1 E3.62163
G1 X130.66 Y89.1 E3.67951
G1 F5194.8 X130.284 Y89.163 E3.69415
G1 F4159.4 X130.103 Y89.215 E3.70319
G1 F4660.2 X130.571 Y89.523 E3.72718
G1 F6000 X130.669 Y89.578 E3.73092
G1 X130.958 Y89.777 E3.74259
G1 X131.323 Y90.173 E3.7605
G1 X131.559 Y90.567 E3.77578
G1 F5128.2 X131.806 Y91.224 E3.80309
G1 F4477.6 X131.803 Y91.691 E3.8239
G1 F4347.8 X131.751 Y92.102 E3.84292
G1 F4633.2 X131.655 Y92.24 E3.85016
G1 F5542.7 X131.418 Y92.669 E3.86781
G1 F6000 X131.222 Y92.955 E3.87934
G1 X130.827 Y93.319 E3.8972
G1 X130.463 Y93.54 E3.91137
G1 X129.852 Y93.728 E3.93263
G1 X129.377 Y93.751 E3.94845
G1 X128.927 Y93.678 E3.96361
G1 X128.384 Y93.453 E3.98316
G1 X127.918 Y93.129 E4.00203
G1 X127.556 Y92.637 E4.02235
G1 X127.396 Y92.311 E4.03443
G1 X127.256 Y91.737 E4.05408
G1 X127.256 Y91.126 E4.0744
G1 X127.479 Y90.469 E4.09748
G1 X127.774 Y90.046 E4.11463
G1 X128.175 Y89.671 E4.13289
G1 X128.482 Y89.493 E4.14469
G1 X128.579 Y89.448 E4.14825
G1 F4752.5 X128.971 Y89.205 E4.16762
G1 X128.518 Y89.1 E4.18714
G1 F6000 X91.326 Y89.1 E5.42415
G1 F4868.2 X90.917 Y89.193 E5.44135
G1 F4633.2 X91.18 Y89.33 E5.45412
G1 F5647.1 X91.266 Y89.387 E5.45777
G1 F6000 X91.616 Y89.539 E5.47046
G1 X91.957 Y89.781 E5.48437
G1 X92.322 Y90.172 E5.50216
G1 X92.611 Y90.654 E5.52085
G1 X92.728 Y91.213 E5.53984
G1 X92.746 Y91.623 E5.55349
G1 X92.649 Y92.163 E5.57174
G1 X92.452 Y92.615 E5.58814
G1 X92.226 Y92.949 E5.60155
G1 X91.825 Y93.32 E5.61972
G1 X91.465 Y93.531 E5.6336
G1 X91.01 Y93.695 E5.64969
G1 X90.492 Y93.767 E5.66708
G1 X89.929 Y93.678 E5.68604
G1 X89.389 Y93.46 E5.70541
G1 X88.92 Y93.132 E5.72445
G1 X88.549 Y92.633 E5.74513
G1 X88.421 Y92.361 E5.75513
G1 F5139.2 X88.197 Y91.805 E5.7784
G1 F4461 X88.191 Y91.058 E5.81182
G1 F5084.7 X88.528 Y90.4 E5.84083
G1 F6000 X88.774 Y90.046 E5.85517
G1 X89.172 Y89.674 E5.87329
G1 X89.587 Y89.431 E5.88929
G1 F4968.9 X90.218 Y89.183 E5.91652
G1 X89.744 Y89.101 E5.93584
G1 F6000 X87.6 Y89.1 E6.00715
G1 X87.6 Y90.411 E6.05075
G1 F5042 X87.676 Y90.922 E6.0712
G1 F4444.4 X87.664 Y91.228 E6.08495
G1 F4494.4 X87.671 Y91.888 E6.11425
G1 F5106.4 X87.6 Y92.342 E6.13221
G1 F6000 X87.6 Y108.4 E6.6663
G1 X94.083 Y108.405 E6.88193
G1 X94.284 Y108.47 E6.88896
G1 X94.511 Y108.683 E6.89931
G1 X94.6 Y108.904 E6.90723
G1 X94.6 Y124.089 E7.41229
G1 X94.484 Y124.356 E7.42197
G1 X94.343 Y124.493 E7.42851
G1 X94.058 Y124.598 E7.43861
G1 X87.6 Y124.6 E7.65341
G1 X87.6 Y127.411 E7.7469
G1 F5042 X87.676 Y127.922 E7.76735
G1 F4444.4 X87.664 Y128.228 E7.7811
G1 F4494.4 X87.671 Y128.888 E7.81041
G1 F5106.4 X87.6 Y129.342 E7.82836
G1 F6000 X87.601 Y130.899 E7.88015
G1 X89.371 Y130.899 E7.93902
G1 F5183.6 X89.819 Y130.836 E7.95644
G1 F4210.5 X89.981 Y130.794 E7.96437
G1 F4733.7 X89.332 Y130.42 E7.99595
G1 F6000 X88.92 Y130.132 E8.01267
G1 X88.549 Y129.633 E8.03335
G1 X88.421 Y129.361 E8.04335
G1 F5139.2 X88.197 Y128.805 E8.06662
G1 F4461 X88.191 Y128.058 E8.10004
G1 F5084.7 X88.528 Y127.4 E8.12905
G1 F6000 X88.774 Y127.046 E8.14339
G1 X89.172 Y126.674 E8.16151
G1 X89.675 Y126.379 E8.18091
G1 X90.282 Y126.255 E8.20151
G1 X90.829 Y126.265 E8.21971
G1 X91.174 Y126.354 E8.23156
G1 X91.615 Y126.539 E8.24747
G1 X91.959 Y126.783 E8.26149
G1 X92.322 Y127.172 E8.27919
G1 X92.612 Y127.656 E8.29796
G1 X92.737 Y128.268 E8.31873
G1 X92.745 Y128.625 E8.33061
G1 X92.656 Y129.157 E8.34855
G1 X92.454 Y129.617 E8.36526
G1 X92.218 Y129.959 E8.37908
G1 X91.826 Y130.319 E8.39678
G1 X91.515 Y130.504 E8.40882
G1 X91.408 Y130.555 E8.41276
G1 F4780.9 X90.989 Y130.799 E8.433
G1 X91.467 Y130.9 E8.45339
G1 F6000 X99.274 Y130.901 E8.71305
G1 F6451.6 X99.86 Y130.927 E8.7312
G1 X100.729 Y130.902 E8.75809
G1 F6030.2 X110 Y130.901 E9.0649
G1 F2400 E8.2649
G0 F18000 X128.971 Y89.205
G1 F2400 E9.0649
G1 F4130.8 X129.58 Y89.176 E9.09435
G1 F4060.9 X130.103 Y89.215 E9.12013
G1 F2400 E8.32013
G0 F18000 X129.794 Y90.564
G0 X129.453 Y92.482
G0 X129.379 Y93.346
;TYPE:WALL-OUTER
G1 F2400 E9.12013
G1 F6000 X129.017 Y93.282 E9.13211
G1 X128.578 Y93.103 E9.14756
G1 X128.191 Y92.826 E9.16308
G1 X127.897 Y92.429 E9.17918
G1 X127.769 Y92.152 E9.18912
G1 X127.661 Y91.712 E9.20389
G1 X127.656 Y91.194 E9.22078
G1 X127.839 Y90.651 E9.23945
G1 X128.067 Y90.325 E9.25242
G1 X128.399 Y90.009 E9.26736
G1 X128.715 Y89.824 E9.27929
G1 X129.057 Y89.702 E9.29113
G1 X129.586 Y89.649 E9.30846
G1 X130.018 Y89.722 E9.32274
G1 X130.442 Y89.907 E9.33782
G1 X130.708 Y90.096 E9.34845
G1 X130.992 Y90.404 E9.36211
G1 X131.233 Y90.801 E9.37725
G1 X131.336 Y91.295 E9.3937
G1 X131.342 Y91.614 E9.4041
G1 X131.274 Y92.019 E9.41748
G1 X131.108 Y92.409 E9.4313
G1 X130.9 Y92.708 E9.44317
G1 X130.596 Y92.988 E9.45664
G1 X130.275 Y93.18 E9.46883
G1 X129.807 Y93.324 E9.48479
G1 X129.379 Y93.346 E9.49876
G1 F2400 E8.69876
G0 F18000 X99.846 Y106.208
G1 F2400 E9.49876
G1 F6000 X99.429 Y106.102 E9.51279
G1 X98.96 Y105.869 E9.52986
G1 X98.614 Y105.483 E9.54675
G1 X98.4 Y105.078 E9.56168
G1 X98.305 Y104.669 E9.57537
G1 X98.304 Y104.352 E9.5857
G1 X98.399 Y103.915 E9.60028
G1 X98.625 Y103.468 E9.6166
G1 X99.016 Y103.108 E9.63393
G1 X99.217 Y102.987 E9.64158
G1 X99.694 Y102.804 E9.65823
G1 X100.171 Y102.805 E9.67378
G1 X100.58 Y102.899 E9.68745
G1 X101.044 Y103.13 E9.70435
G1 X101.376 Y103.499 E9.72053
G1 X101.592 Y103.907 E9.73558
G1 X101.69 Y104.318 E9.74935
G1 X101.677 Y104.763 E9.76386
G1 X101.6 Y105.071 E9.77421
G1 X101.369 Y105.542 E9.79131
G1 X100.978 Y105.889 E9.80835
G1 X100.592 Y106.092 E9.82256
G1 X100.315 Y106.168 E9.83192
G1 X99.846 Y106.208 E9.84727
G1 F2400 E9.04727
G0 F18000 X90.494 Y93.363
G1 F2400 E9.84727
G1 F6000 X90.017 Y93.282 E9.86304
G1 X89.561 Y93.092 E9.87914
G1 X89.201 Y92.84 E9.89346
G1 X88.887 Y92.41 E9.91082
G1 X88.769 Y92.152 E9.92006
G1 X88.658 Y91.699 E9.93527
G1 X88.656 Y91.193 E9.95176
G1 X88.838 Y90.654 E9.9703
G1 X89.068 Y90.324 E9.98341
G1 X89.43 Y89.987 E9.99954
G1 X89.817 Y89.759 E10.01418
G1 X90.301 Y89.658 E10.03029
G1 X90.794 Y89.67 E10.04637
G1 X91.105 Y89.753 E10.05686
G1 X91.405 Y89.884 E10.06753
G1 X91.707 Y90.099 E10.07961
G1 X91.987 Y90.399 E10.09299
G1 X92.233 Y90.8 E10.10832
G1 X92.336 Y91.295 E10.1248
G1 X92.342 Y91.614 E10.1352
G1 X92.274 Y92.018 E10.14855
G1 X92.095 Y92.433 E10.16329
G1 X91.918 Y92.689 E10.17343
G1 X91.596 Y92.987 E10.18773
G1 X91.305 Y93.164 E10.19883
G1 X90.896 Y93.307 E10.21296
G1 X90.494 Y93.363 E10.22619
G1 F2400 E9.42619
G0 F18000 X90.496 Y130.36
G1 F2400 E10.22619
G1 F6000 X90.017 Y130.282 E10.242
G1 X89.561 Y130.092 E10.25811
G1 X89.201 Y129.84 E10.27243
G1 X88.887 Y129.41 E10.28978
G1 X88.769 Y129.152 E10.29903
G1 X88.658 Y128.699 E10.31423
G1 X88.656 Y128.193 E10.33073
G1 X88.838 Y127.654 E10.34927
G1 X89.067 Y127.325 E10.36234
G1 X89.43 Y126.987 E10.3785
G1 X89.817 Y126.759 E10.39314
G1 X90.301 Y126.659 E10.40925
G1 X90.794 Y126.67 E10.42533
G1 X91.105 Y126.752 E10.43581
G1 X91.405 Y126.884 E10.44649
G1 X91.707 Y127.099 E10.45858
G1 X91.987 Y127.399 E10.47195
G1 X92.231 Y127.804 E10.48736
G1 X92.339 Y128.313 E10.50432
G1 X92.342 Y128.614 E10.51414
G1 X92.274 Y129.018 E10.52749
G1 X92.108 Y129.409 E10.54133
G1 X91.9 Y129.708 E10.55321
G1 X91.6 Y129.984 E10.56649
G1 X91.275 Y130.177 E10.57881
G1 X90.935 Y130.297 E10.59057
G1 X90.496 Y130.36 E10.60502
G1 F2400 E9.80502
G0 F18000 X99.839 Y130.21
G1 F2400 E10.60502
G1 F6000 X99.429 Y130.102 E10.61884
G1 X98.955 Y129.87 E10.63604
G1 X98.634 Y129.51 E10.65176
G1 X98.399 Y129.081 E10.66771
G1 X98.304 Y128.648 E10.68216
G1 X98.305 Y128.328 E10.69259
G1 X98.4 Y127.913 E10.70647
G1 X98.642 Y127.446 E10.72361
G1 X99 Y127.119 E10.73941
G1 X99.216 Y126.988 E10.74765
G1 X99.698 Y126.806 E10.76444
G1 X100.173 Y126.805 E10.77992
G1 X100.574 Y126.897 E10.79333
G1 X101.036 Y127.128 E10.81017
G1 X101.374 Y127.496 E10.82646
G1 X101.595 Y127.916 E10.84193
G1 X101.693 Y128.333 E10.85589
G1 X101.675 Y128.773 E10.87024
G1 X101.603 Y129.061 E10.87992
G1 X101.371 Y129.539 E10.89724
G1 X101.011 Y129.865 E10.91307
G1 X100.566 Y130.101 E10.92949
G1 X100.315 Y130.168 E10.93795
G1 X99.839 Y130.21 E10.95353
G1 F2400 E10.15353
G0 F18000 X110 Y131.3
G1 F2400 E10.95353
G1 F6000 X132.8 Y131.3 E11.69669
G1 X132.8 Y88.7 E13.08524
G1 X87.2 Y88.7 E14.57157
G1 X87.2 Y108.8 E15.22672
G1 X94.028 Y108.801 E15.44928
G1 X94.149 Y108.865 E15.45374
G1 X94.196 Y108.956 E15.45708
G1 X94.199 Y124.023 E15.94819
G1 X94.171 Y124.106 E15.95105
G1 X94.02 Y124.2 E15.95684
G1 X87.2 Y124.2 E16.17914
G1 X87.201 Y131.299 E16.41053
G1 X110 Y131.3 E17.15366
G1 F2400 E16.35366
G0 F18000 X129.379 Y130.346
G1 F2400 E17.15366
G1 F6000 X129.017 Y130.282 E17.16565
G1 X128.561 Y130.092 E17.18175
G1 X128.201 Y129.84 E17.19607
G1 X127.887 Y129.41 E17.21343
G1 X127.769 Y129.152 E17.22267
G1 X127.661 Y128.712 E17.23744
G1 X127.656 Y128.193 E17.25436
G1 X127.842 Y127.65 E17.27307
G1 X128.077 Y127.312 E17.28649
G1 X128.42 Y126.992 E17.30178
G1 X128.698 Y126.831 E17.31225
G1 X129.045 Y126.705 E17.32428
G1 X129.586 Y126.649 E17.34201
G1 X130.018 Y126.722 E17.35629
G1 X130.442 Y126.907 E17.37137
G1 X130.708 Y127.096 E17.382
G1 X131.012 Y127.433 E17.3968
G1 X131.233 Y127.801 E17.41079
G1 X131.336 Y128.295 E17.42724
G1 X131.342 Y128.614 E17.43764
G1 X131.274 Y129.019 E17.45102
G1 X131.108 Y129.409 E17.46484
G1 X130.9 Y129.708 E17.47671
G1 X130.596 Y129.988 E17.49018
G1 X130.275 Y130.18 E17.50237
G1 X129.783 Y130.33 E17.51914
G1 X129.379 Y130.346 E17.53232
G1 F2400 E16.73232
G0 F18000 X99.786 Y106.976
;TYPE:SKIN
G1 F2400 E17.53232
G1 F6000 X100.451 Y106.916 E17.55453
G1 X100.842 Y106.811 E17.56799
G1 X101.401 Y106.526 E17.58886
G1 X101.991 Y106 E17.61515
G1 X102.317 Y105.332 E17.63987
G1 X102.429 Y104.874 E17.65555
G1 X102.45 Y104.259 E17.67602
G1 X102.302 Y103.62 E17.69784
G1 X102.026 Y103.089 E17.71774
G1 X101.51 Y102.516 E17.74339
G1 X100.832 Y102.183 E17.76851
G1 X100.267 Y102.05 E17.78782
G1 X99.545 Y102.044 E17.81183
G1 X98.855 Y102.318 E17.83652
G1 X98.536 Y102.513 E17.84896
G1 X97.997 Y103.016 E17.87348
G1 X97.692 Y103.635 E17.89643
G1 X97.544 Y104.221 E17.91653
G1 X97.552 Y104.772 E17.93486
G1 X97.678 Y105.342 E17.95428
G1 X98.004 Y105.938 E17.97687
G1 X98.483 Y106.484 E18.00103
G1 X99.119 Y106.8 E18.02465
G1 X99.786 Y106.976 E18.0476
G1 F2400 E17.2476
G0 F18000 X110 Y130.538
G1 F2400 E18.0476
G1 F6000 X101.39 Y130.54 E18.33397
G1 X101.876 Y130.101 E18.35575
G1 X102.068 Y129.841 E18.3665
G1 X102.308 Y129.357 E18.38447
G1 X102.431 Y128.881 E18.40082
G1 X102.457 Y128.251 E18.42179
G1 X102.295 Y127.624 E18.44333
G1 X101.998 Y127.052 E18.46477
G1 X101.592 Y126.608 E18.48478
G1 X101.363 Y126.437 E18.49428
G1 X100.793 Y126.168 E18.51525
G1 X100.261 Y126.049 E18.53338
G1 X99.554 Y126.042 E18.55689
G1 X98.873 Y126.31 E18.58123
G1 X98.549 Y126.502 E18.59376
G1 X98.019 Y126.984 E18.61759
G1 X97.68 Y127.64 E18.64215
G1 X97.549 Y128.236 E18.66244
G1 X97.54 Y128.724 E18.67868
G1 X97.679 Y129.357 E18.70023
G1 X98.005 Y129.945 E18.72259
G1 X98.357 Y130.345 E18.74032
G1 X98.61 Y130.54 E18.75094
G1 X92.114 Y130.54 E18.967
G1 X92.472 Y130.212 E18.98315
G1 X92.776 Y129.777 E19.0008
G1 X92.996 Y129.277 E19.01897
G1 X93.102 Y128.669 E19.03949
G1 X93.093 Y128.204 E19.05496
G1 X92.953 Y127.528 E19.07792
G1 X92.596 Y126.94 E19.1008
G1 X92.18 Y126.496 E19.12104
G1 X91.812 Y126.236 E19.13603
G1 X91.361 Y126.033 E19.15248
G1 X90.894 Y125.91 E19.16854
G1 X90.229 Y125.898 E19.19066
G1 X89.7 Y126.003 E19.2086
G1 X89.428 Y126.105 E19.21826
G1 X88.973 Y126.372 E19.23581
G1 X88.487 Y126.821 E19.25781
G1 X88.231 Y127.189 E19.27272
G1 X88.012 Y127.559 E19.28702
G1 X87.961 Y127.387 E19.29299
G1 X87.96 Y124.96 E19.37371
G1 X94.101 Y124.954 E19.57796
G1 X94.378 Y124.881 E19.58749
G1 X94.659 Y124.705 E19.59852
G1 X94.813 Y124.508 E19.60684
G1 X94.959 Y124.161 E19.61936
G1 X94.96 Y108.948 E20.12534
