;FLAVOR:Marlin
;TIME:1309
;Filament used: 4.39354m
;Layer height: 0.2
;MINX:63.837
;MINY:81.837
;MINZ:0.2
;MAXX:156.165
;MAXY:138.165
;MAXZ:4.76
;TARGET_MACHINE.NAME:Creality Ender-3 V3 KE
;Generated with Cura_SteamEngine 5.10.1
M140 S60
M105
M190 S60
M220 S100 ;Reset Feedrate
M221 S100 ;Reset Flowrate

G28 ;Home

G92 E0 ;Reset Extruder
G1 Z2.0 F3000 ;Move Z Axis up
G1 X-2.0 Y20 Z0.28 F5000.0 ;Move to start position
M109 S220.0
G1 X-2.0 Y145.0 Z0.28 F1500.0 E15 ;Draw the first line
G1 X-1.7 Y145.0 Z0.28 F5000.0 ;Move to side a little
G1 X-1.7 Y20 Z0.28 F1500.0 E30 ;Draw the second line
G92 E0 ;Reset Extruder
G1 E-1 F1800 ;Retract a bit
G1 Z2.0 F3000 ;Move Z Axis up
G1 E0 F1800
M82 ;absolute extrusion mode
G92 E0
G92 E0
G1 F2400 E-0.8
;LAYER_COUNT:20
;LAYER:0
M107
M204 S500
;MESH:LidarPlate_1x.stl
G0 F18000 X70.561 Y90.6 Z0.2
;TYPE:WALL-INNER
G1 F2400 E0
G1 F6000 X69.918 Y90.549 E0.02145
G1 X69.313 Y90.244 E0.04399
G1 X69.138 Y90.111 E0.0513
G1 X68.791 Y89.727 E0.06851
G1 X68.46 Y89.11 E0.0918
G1 X68.383 Y88.391 E0.11585
G1 X68.518 Y87.78 E0.13666
G1 X68.751 Y87.315 E0.15396
G1 X68.885 Y87.138 E0.16135
G1 X69.217 Y86.838 E0.17623
G1 X69.543 Y86.626 E0.18916
G1 X70.113 Y86.404 E0.20951
G1 X70.711 Y86.404 E0.2294
G1 X71.212 Y86.517 E0.24648
G1 X71.683 Y86.75 E0.26396
G1 X71.862 Y86.885 E0.27141
G1 X72.162 Y87.217 E0.2863
G1 X72.378 Y87.548 E0.29944
G1 X72.592 Y88.135 E0.32022
G1 X72.591 Y88.722 E0.33975
G1 X72.477 Y89.213 E0.35651
G1 X72.189 Y89.787 E0.37787
G1 X71.613 Y90.308 E0.4037
G1 X71.028 Y90.532 E0.42454
G1 X70.561 Y90.6 E0.44024
G1 F2400 E-0.35976
G0 F18000 X84.059 Y90.604
G1 F2400 E0.44024
G1 F6000 X83.425 Y90.548 E0.4614
G1 X82.722 Y90.197 E0.48754
G1 X82.295 Y89.732 E0.50854
G1 X81.966 Y89.121 E0.53162
G1 X81.88 Y88.415 E0.55527
G1 X82.018 Y87.782 E0.57682
G1 X82.251 Y87.315 E0.59418
G1 X82.385 Y87.138 E0.60156
G1 X82.717 Y86.838 E0.61645
G1 X83.043 Y86.626 E0.62938
G1 X83.613 Y86.404 E0.64972
G1 X84.211 Y86.404 E0.66961
G1 X84.712 Y86.517 E0.6867
G1 X85.183 Y86.75 E0.70417
G1 X85.362 Y86.885 E0.71163
G1 X85.662 Y87.217 E0.72651
G1 X85.876 Y87.545 E0.73954
G1 X86.092 Y88.116 E0.75984
G1 X86.089 Y88.713 E0.7797
G1 X85.967 Y89.239 E0.79766
G1 X85.687 Y89.787 E0.81813
G1 X85.116 Y90.309 E0.84386
G1 X84.531 Y90.534 E0.86471
G1 X84.059 Y90.604 E0.88058
G1 F2400 E0.08058
G0 F18000 X84.04 Y133.6
G1 F2400 E0.88058
G1 F6000 X83.531 Y133.558 E0.89756
G1 X83.313 Y133.496 E0.9051
G1 X82.813 Y133.244 E0.92372
G1 X82.638 Y133.111 E0.93104
G1 X82.291 Y132.727 E0.94825
G1 X81.959 Y132.108 E0.97161
G1 X81.88 Y131.404 E0.99517
G1 X82.017 Y130.797 E1.01587
G1 X82.303 Y130.21 E1.03759
G1 X82.787 Y129.784 E1.05903
G1 X83.03 Y129.636 E1.0685
G1 X83.611 Y129.404 E1.0893
G1 X84.21 Y129.407 E1.10923
G1 X84.714 Y129.518 E1.12639
G1 X85.292 Y129.807 E1.14789
G1 X85.711 Y130.279 E1.16888
G1 X85.882 Y130.565 E1.17996
G1 X86.089 Y131.106 E1.19923
G1 X86.092 Y131.712 E1.21938
G1 X85.983 Y132.209 E1.23631
G1 X85.744 Y132.683 E1.25396
G1 X85.613 Y132.856 E1.26118
G1 X85.197 Y133.236 E1.27992
G1 X85.006 Y133.353 E1.28737
G1 X84.519 Y133.538 E1.3047
G1 X84.04 Y133.6 E1.32076
G1 F2400 E0.52076
G0 F18000 X70.54 Y133.6
G1 F2400 E1.32076
G1 F6000 X70.031 Y133.558 E1.33775
G1 X69.814 Y133.496 E1.34525
G1 X69.314 Y133.244 E1.36388
G1 X69.138 Y133.111 E1.37121
G1 X68.791 Y132.727 E1.38843
G1 X68.46 Y132.11 E1.41172
G1 X68.383 Y131.391 E1.43577
G1 X68.518 Y130.78 E1.45658
G1 X68.751 Y130.315 E1.47388
G1 X68.885 Y130.138 E1.48126
G1 X69.217 Y129.838 E1.49614
G1 X69.543 Y129.626 E1.50908
G1 X70.116 Y129.403 E1.52953
G1 X70.716 Y129.408 E1.54949
G1 X71.197 Y129.516 E1.56588
G1 X71.789 Y129.803 E1.58776
G1 X72.195 Y130.257 E1.60802
G1 X72.39 Y130.583 E1.62066
G1 X72.59 Y131.119 E1.63968
G1 X72.591 Y131.689 E1.65864
G1 X72.485 Y132.206 E1.6762
G1 X72.244 Y132.683 E1.69397
G1 X72.113 Y132.855 E1.70116
G1 X71.697 Y133.236 E1.71992
G1 X71.506 Y133.353 E1.72737
G1 X71.019 Y133.538 E1.7447
G1 X70.54 Y133.6 E1.76077
G1 F2400 E0.96077
G0 F18000 X110 Y136.898
G1 F2400 E1.76077
G1 F6000 X153.48 Y136.9 E3.20692
G1 X153.809 Y136.869 E3.21791
G1 X154.177 Y136.732 E3.23097
G1 X154.388 Y136.574 E3.23973
G1 X154.598 Y136.36 E3.24971
G1 X154.797 Y136.021 E3.26278
G1 X154.896 Y135.665 E3.27507
G1 X154.896 Y84.442 E4.97875
G1 X154.85 Y84.141 E4.98888
G1 X154.774 Y83.901 E4.99726
G1 X154.569 Y83.6 E5.00937
G1 X154.378 Y83.414 E5.01824
G1 X154.067 Y83.224 E5.03036
G1 X153.837 Y83.141 E5.03849
G1 X153.556 Y83.1 E5.04793
G1 X66.31 Y83.1 E7.94975
G1 X65.919 Y83.218 E7.96333
G1 X65.552 Y83.456 E7.97788
G1 X65.307 Y83.768 E7.99108
G1 X65.17 Y84.064 E8.00192
G1 X65.1 Y84.348 E8.01165
G1 X65.1 Y135.55 E9.71464
G1 X65.144 Y135.839 E9.72436
G1 X65.259 Y136.141 E9.73511
G1 X65.396 Y136.372 E9.74404
G1 X65.621 Y136.582 E9.75428
G1 X66.025 Y136.834 E9.77011
G1 X66.441 Y136.896 E9.7841
G1 X110 Y136.898 E11.23288
G1 F2400 E10.43288
G0 F18000 X127.04 Y133.6
G1 F2400 E11.23288
G1 F6000 X126.531 Y133.558 E11.24987
G1 X126.314 Y133.496 E11.25738
G1 X125.813 Y133.244 E11.27603
G1 X125.638 Y133.111 E11.28334
G1 X125.291 Y132.727 E11.30055
G1 X124.96 Y132.109 E11.32387
G1 X124.881 Y131.415 E11.3471
G1 X125.022 Y130.772 E11.369
G1 X125.305 Y130.21 E11.38992
G1 X125.757 Y129.805 E11.41011
G1 X126.033 Y129.634 E11.42091
G1 X126.619 Y129.404 E11.44185
G1 X127.203 Y129.406 E11.46127
G1 X127.727 Y129.527 E11.47916
G1 X128.288 Y129.802 E11.49994
G1 X128.695 Y130.257 E11.52024
G1 X128.89 Y130.583 E11.53288
G1 X129.09 Y131.119 E11.5519
G1 X129.091 Y131.689 E11.57086
G1 X128.985 Y132.206 E11.58842
G1 X128.744 Y132.683 E11.60619
G1 X128.613 Y132.855 E11.61338
G1 X128.197 Y133.236 E11.63214
G1 X128.006 Y133.353 E11.63959
G1 X127.519 Y133.538 E11.65692
G1 X127.04 Y133.6 E11.67299
G1 F2400 E10.87299
G0 F18000 X140.54 Y133.6
G1 F2400 E11.67299
G1 F6000 X140.031 Y133.558 E11.68997
G1 X139.814 Y133.496 E11.69748
G1 X139.313 Y133.244 E11.71613
G1 X139.138 Y133.111 E11.72344
G1 X138.791 Y132.727 E11.74066
G1 X138.459 Y132.108 E11.76402
G1 X138.38 Y131.404 E11.78758
G1 X138.517 Y130.797 E11.80828
G1 X138.803 Y130.211 E11.82997
G1 X139.285 Y129.785 E11.85136
G1 X139.574 Y129.614 E11.86253
G1 X140.128 Y129.404 E11.88224
G1 X140.702 Y129.406 E11.90133
G1 X141.232 Y129.529 E11.91942
G1 X141.788 Y129.802 E11.94002
G1 X142.197 Y130.259 E11.96042
G1 X142.375 Y130.551 E11.9718
G1 X142.591 Y131.111 E11.99176
G1 X142.592 Y131.713 E12.01178
G1 X142.483 Y132.209 E12.02867
G1 X142.244 Y132.683 E12.04633
G1 X142.113 Y132.855 E12.05352
G1 X141.697 Y133.236 E12.07228
G1 X141.506 Y133.353 E12.07973
G1 X141.019 Y133.538 E12.09706
G1 X140.54 Y133.6 E12.11312
G1 F2400 E11.31312
G0 F18000 X144.611 Y117.338
G1 F2400 E12.11312
G1 F6000 X144.073 Y117.29 E12.13109
G1 X143.709 Y117.236 E12.14333
G1 X143.345 Y117.159 E12.1557
G1 X142.978 Y117.069 E12.16827
G1 X142.629 Y116.957 E12.18046
G1 X142.139 Y116.769 E12.19792
G1 X141.816 Y116.624 E12.20969
G1 X141.493 Y116.46 E12.22174
G1 X141.153 Y116.261 E12.23485
G1 X140.71 Y115.968 E12.25251
G1 X140.28 Y115.636 E12.27058
G1 X139.871 Y115.269 E12.28886
G1 X139.62 Y115.01 E12.30085
G1 X139.36 Y114.716 E12.31391
G1 X139.135 Y114.436 E12.32585
G1 X138.82 Y113.983 E12.3442
G1 X138.633 Y113.676 E12.35616
G1 X138.45 Y113.34 E12.36889
G1 X138.301 Y113.027 E12.38042
G1 X138.155 Y112.688 E12.39269
G1 X138.026 Y112.329 E12.40538
G1 X137.922 Y111.988 E12.41724
G1 X137.829 Y111.621 E12.42983
G1 X137.728 Y111.08 E12.44813
G1 X137.685 Y110.736 E12.45966
G1 X137.656 Y110.363 E12.47211
G1 X137.648 Y110.023 E12.48342
G1 X137.658 Y109.62 E12.49683
G1 X137.706 Y109.069 E12.51522
G1 X137.759 Y108.727 E12.52673
G1 X137.834 Y108.35 E12.53952
G1 X137.922 Y108.01 E12.5512
G1 X138.026 Y107.674 E12.5629
G1 X138.154 Y107.317 E12.57551
G1 X138.309 Y106.946 E12.58889
G1 X138.468 Y106.626 E12.60077
G1 X138.723 Y106.172 E12.61809
G1 X139.033 Y105.705 E12.63673
G1 X139.371 Y105.268 E12.65511
G1 X139.599 Y105.012 E12.66651
G1 X139.851 Y104.748 E12.67865
G1 X140.26 Y104.377 E12.69701
G1 X140.861 Y103.921 E12.72211
G1 X141.31 Y103.639 E12.73974
G1 X141.652 Y103.45 E12.75274
G1 X141.944 Y103.31 E12.76351
G1 X142.312 Y103.155 E12.77679
G1 X142.667 Y103.027 E12.78934
G1 X143.008 Y102.921 E12.80122
G1 X143.348 Y102.837 E12.81287
G1 X143.91 Y102.728 E12.83191
G1 X144.259 Y102.685 E12.8436
G1 X144.62 Y102.656 E12.85565
G1 X145.003 Y102.648 E12.86839
G1 X145.358 Y102.656 E12.8802
G1 X145.927 Y102.706 E12.8992
G1 X146.269 Y102.759 E12.91071
G1 X146.613 Y102.827 E12.92237
G1 X146.997 Y102.926 E12.93556
G1 X147.309 Y103.022 E12.94642
G1 X147.817 Y103.209 E12.96442
G1 X148.173 Y103.369 E12.9774
G1 X148.511 Y103.543 E12.99005
G1 X148.811 Y103.715 E13.00155
G1 X149.307 Y104.044 E13.02135
G1 X149.728 Y104.371 E13.03908
G1 X150.136 Y104.743 E13.05744
G1 X150.404 Y105.016 E13.07016
G1 X150.834 Y105.525 E13.09233
G1 X151.084 Y105.877 E13.10669
G1 X151.28 Y106.183 E13.11877
G1 X151.543 Y106.654 E13.13671
G1 X151.691 Y106.954 E13.14784
G1 X151.841 Y107.312 E13.16075
G1 X151.961 Y107.644 E13.17249
G1 X152.074 Y108.003 E13.18501
G1 X152.162 Y108.347 E13.19682
G1 X152.263 Y108.882 E13.21493
G1 X152.311 Y109.269 E13.2279
G1 X152.339 Y109.601 E13.23898
G1 X152.348 Y110.007 E13.25249
G1 X152.339 Y110.372 E13.26463
G1 X152.295 Y110.888 E13.28186
G1 X152.237 Y111.27 E13.29471
G1 X152.164 Y111.635 E13.30709
G1 X152.073 Y111.999 E13.31957
G1 X151.978 Y112.307 E13.33029
G1 X151.776 Y112.847 E13.34946
G1 X151.62 Y113.192 E13.36206
G1 X151.468 Y113.492 E13.37324
G1 X151.261 Y113.847 E13.38691
G1 X150.962 Y114.297 E13.40488
G1 X150.625 Y114.727 E13.42305
G1 X150.401 Y114.979 E13.43426
G1 X149.995 Y115.389 E13.45346
G1 X149.722 Y115.631 E13.46559
G1 X149.47 Y115.835 E13.47637
G1 X149.127 Y116.078 E13.49035
G1 X148.672 Y116.367 E13.50828
G1 X148.372 Y116.531 E13.51965
G1 X148.029 Y116.696 E13.53231
G1 X147.689 Y116.841 E13.54461
G1 X147.331 Y116.969 E13.55725
G1 X146.995 Y117.073 E13.56895
G1 X146.615 Y117.17 E13.582
G1 X146.083 Y117.268 E13.59999
G1 X145.377 Y117.34 E13.62359
G1 X144.985 Y117.348 E13.63663
G1 X144.611 Y117.338 E13.64908
G1 F2400 E12.84908
G0 F18000 X140.551 Y90.604
G1 F2400 E13.64908
G1 F6000 X139.921 Y90.545 E13.67012
G1 X139.212 Y90.192 E13.69646
G1 X138.794 Y89.73 E13.71719
G1 X138.466 Y89.121 E13.74019
G1 X138.38 Y88.415 E13.76385
G1 X138.518 Y87.782 E13.7854
G1 X138.751 Y87.315 E13.80275
G1 X138.885 Y87.138 E13.81014
G1 X139.217 Y86.838 E13.82502
G1 X139.543 Y86.626 E13.83795
G1 X140.113 Y86.404 E13.8583
G1 X140.711 Y86.404 E13.87819
G1 X141.212 Y86.517 E13.89527
G1 X141.683 Y86.75 E13.91275
G1 X141.862 Y86.885 E13.92021
G1 X142.162 Y87.217 E13.93509
G1 X142.376 Y87.545 E13.94811
G1 X142.592 Y88.116 E13.96842
G1 X142.59 Y88.7 E13.98784
G1 X142.478 Y89.21 E14.00521
G1 X142.186 Y89.789 E14.02678
G1 X141.604 Y90.313 E14.05283
G1 X141.021 Y90.537 E14.0736
G1 X140.551 Y90.604 E14.08939
G1 F2400 E13.28939
G0 F18000 X127.075 Y90.6
G1 F2400 E14.08939
G1 F6000 X126.417 Y90.547 E14.11134
G1 X125.698 Y90.178 E14.13822
G1 X125.289 Y89.717 E14.15872
G1 X124.965 Y89.117 E14.1814
G1 X124.88 Y88.407 E14.20518
G1 X125.018 Y87.781 E14.22651
G1 X125.251 Y87.315 E14.24383
G1 X125.385 Y87.138 E14.25122
G1 X125.717 Y86.838 E14.2661
G1 X126.043 Y86.626 E14.27903
G1 X126.613 Y86.404 E14.29938
G1 X127.211 Y86.404 E14.31927
G1 X127.712 Y86.517 E14.33635
G1 X128.183 Y86.75 E14.35383
G1 X128.362 Y86.885 E14.36129
G1 X128.662 Y87.217 E14.37617
G1 X128.878 Y87.548 E14.38931
G1 X129.092 Y88.135 E14.4101
G1 X129.091 Y88.722 E14.42962
G1 X128.977 Y89.213 E14.44638
G1 X128.69 Y89.786 E14.4677
G1 X128.121 Y90.305 E14.49331
G1 X127.504 Y90.538 E14.51525
G1 X127.075 Y90.6 E14.52967
G0 F18000 X127.022 Y90.2
;TYPE:WALL-OUTER
G1 F6000 X126.532 Y90.154 E14.54571
G1 X125.956 Y89.863 E14.56674
G1 X125.624 Y89.498 E14.58283
G1 X125.349 Y88.989 E14.60168
G1 X125.285 Y88.424 E14.62022
G1 X125.392 Y87.94 E14.63637
G1 X125.626 Y87.46 E14.65378
G1 X125.985 Y87.135 E14.66956
G1 X126.243 Y86.977 E14.67943
G1 X126.693 Y86.806 E14.69512
G1 X127.189 Y86.809 E14.71128
G1 X127.557 Y86.892 E14.72358
G1 X128.039 Y87.125 E14.74103
G1 X128.365 Y87.485 E14.75686
G1 X128.524 Y87.745 E14.76679
G1 X128.688 Y88.185 E14.7821
G1 X128.692 Y88.659 E14.79755
G1 X128.601 Y89.077 E14.81149
G1 X128.358 Y89.546 E14.82871
G1 X127.9 Y89.965 E14.84894
G1 X127.416 Y90.148 E14.86581
G1 X127.022 Y90.2 E14.87876
G1 F2400 E14.07876
G0 F18000 X140.556 Y90.2
G1 F2400 E14.87876
G1 F6000 X140.033 Y90.157 E14.89587
G1 X139.471 Y89.874 E14.91638
G1 X139.128 Y89.503 E14.93285
G1 X138.851 Y88.994 E14.95174
G1 X138.788 Y88.419 E14.97059
G1 X138.892 Y87.94 E14.98657
G1 X139.126 Y87.46 E15.00397
G1 X139.485 Y87.135 E15.01976
G1 X139.743 Y86.977 E15.02962
G1 X140.193 Y86.806 E15.04531
G1 X140.689 Y86.809 E15.06148
G1 X141.057 Y86.892 E15.07377
G1 X141.539 Y87.125 E15.09122
G1 X141.865 Y87.485 E15.10705
G1 X142.024 Y87.745 E15.11699
G1 X142.19 Y88.194 E15.13259
G1 X142.192 Y88.663 E15.14788
G1 X142.101 Y89.076 E15.16166
G1 X141.862 Y89.541 E15.1787
G1 X141.391 Y89.967 E15.1994
G1 X140.925 Y90.146 E15.21567
G1 X140.556 Y90.2 E15.22783
G1 F2400 E14.42783
G0 F18000 X144.646 Y116.94
G1 F2400 E15.22783
G1 F6000 X144.131 Y116.894 E15.24468
G1 X143.791 Y116.844 E15.25589
G1 X143.44 Y116.771 E15.26757
G1 X143.099 Y116.687 E15.27902
G1 X142.772 Y116.583 E15.2902
G1 X142.302 Y116.403 E15.30661
G1 X141.997 Y116.267 E15.31749
G1 X141.679 Y116.105 E15.32913
G1 X141.373 Y115.927 E15.34066
G1 X140.937 Y115.639 E15.3577
G1 X140.538 Y115.329 E15.37417
G1 X140.144 Y114.976 E15.39141
G1 X139.902 Y114.725 E15.40277
G1 X139.672 Y114.466 E15.41406
G1 X139.451 Y114.191 E15.42556
G1 X139.161 Y113.773 E15.44214
G1 X138.984 Y113.484 E15.45319
G1 X138.811 Y113.167 E15.46496
G1 X138.668 Y112.868 E15.47577
G1 X138.531 Y112.552 E15.48699
G1 X138.408 Y112.211 E15.49881
G1 X138.31 Y111.89 E15.50975
G1 X138.219 Y111.53 E15.52185
G1 X138.125 Y111.03 E15.53843
G1 X138.084 Y110.704 E15.54914
G1 X138.056 Y110.337 E15.56114
G1 X138.048 Y110.013 E15.5717
G1 X138.056 Y109.654 E15.58341
G1 X138.102 Y109.129 E15.60059
G1 X138.151 Y108.805 E15.61127
G1 X138.222 Y108.45 E15.62307
G1 X138.304 Y108.128 E15.6339
G1 X138.408 Y107.792 E15.64536
G1 X138.523 Y107.471 E15.65648
G1 X138.668 Y107.123 E15.66877
G1 X138.817 Y106.822 E15.67971
G1 X139.069 Y106.373 E15.6965
G1 X139.349 Y105.949 E15.71306
G1 X139.67 Y105.534 E15.73016
G1 X140.133 Y105.031 E15.75244
G1 X140.524 Y104.678 E15.76961
G1 X141.089 Y104.25 E15.79272
G1 X141.519 Y103.981 E15.80925
G1 X141.825 Y103.811 E15.82066
G1 X142.126 Y103.667 E15.83153
G1 X142.448 Y103.531 E15.84293
G1 X142.787 Y103.409 E15.85467
G1 X143.104 Y103.309 E15.86551
G1 X143.453 Y103.223 E15.87722
G1 X143.959 Y103.125 E15.89402
G1 X144.291 Y103.084 E15.90492
G1 X144.647 Y103.056 E15.91656
G1 X144.993 Y103.048 E15.92784
G1 X145.342 Y103.056 E15.93922
G1 X145.867 Y103.102 E15.9564
G1 X146.191 Y103.151 E15.96708
G1 X146.547 Y103.222 E15.97891
G1 X146.879 Y103.308 E15.99009
G1 X147.202 Y103.408 E16.00111
G1 X147.678 Y103.584 E16.01766
G1 X148.016 Y103.738 E16.02976
G1 X148.312 Y103.89 E16.04061
G1 X148.623 Y104.069 E16.0523
G1 X149.063 Y104.361 E16.06952
G1 X149.459 Y104.667 E16.08583
G1 X149.851 Y105.023 E16.10309
G1 X150.103 Y105.28 E16.11482
G1 X150.332 Y105.541 E16.12614
G1 X150.532 Y105.788 E16.1365
G1 X150.748 Y106.095 E16.14873
G1 X150.931 Y106.378 E16.15972
G1 X151.184 Y106.831 E16.17663
G1 X151.337 Y107.142 E16.18793
G1 X151.465 Y107.448 E16.19874
G1 X151.587 Y107.787 E16.21048
G1 X151.686 Y108.102 E16.22125
G1 X151.777 Y108.459 E16.23325
G1 X151.871 Y108.967 E16.25009
G1 X151.912 Y109.303 E16.26113
G1 X151.94 Y109.647 E16.27238
G1 X151.948 Y109.997 E16.28379
G1 X151.94 Y110.338 E16.29491
G1 X151.894 Y110.867 E16.31221
G1 X151.845 Y111.192 E16.32293
G1 X151.775 Y111.54 E16.3345
G1 X151.695 Y111.868 E16.3455
G1 X151.592 Y112.198 E16.35677
G1 X151.411 Y112.683 E16.37364
G1 X151.263 Y113.011 E16.38537
G1 X151.105 Y113.321 E16.39671
G1 X150.927 Y113.627 E16.40825
G1 X150.646 Y114.051 E16.42483
G1 X150.326 Y114.461 E16.44178
G1 X150.095 Y114.721 E16.45312
G1 X149.729 Y115.09 E16.47006
G1 X149.47 Y115.32 E16.48135
