;FLAVOR:Marlin
;TIME:1515
;Filament used: 1.1888m
;Layer height: 0.1
;MINX:88.499
;MINY:88.511
;MINZ:0.2
;MAXX:131.489
;MAXY:131.489
;MAXZ:14.68
;TARGET_MACHINE.NAME:Creality Ender-3 V3 KE
;Generated with Cura_SteamEngine 5.10.1
M140 S60
M105
M190 S60
M220 S100 ;Reset Feedrate
M221 S100 ;Reset Flowrate

G28 ;Home

G92 E0 ;Reset Extruder
G1 Z2.0 F3000 ;Move Z Axis up
G1 X-2.0 Y20 Z0.28 F5000.0 ;Move to start position
M109 S220.0
G1 X-2.0 Y145.0 Z0.28 F1500.0 E15 ;Draw the first line
G1 X-1.7 Y145.0 Z0.28 F5000.0 ;Move to side a little
G1 X-1.7 Y20 Z0.28 F1500.0 E30 ;Draw the second line
G92 E0 ;Reset Extruder
G1 E-1 F1800 ;Retract a bit
G1 Z2.0 F3000 ;Move Z Axis up
G1 E0 F1800
M82 ;absolute extrusion mode
G92 E0
G92 E0
G1 F2400 E-0.8
;LAYER_COUNT:107
;LAYER:0
M107
M204 S500
G0 F18000 X93.815 Y95.796 Z0.2
;TYPE:SKIRT
G1 F2400 E0
G1 F6000 X95.799 Y93.818 E0.09318
G1 X96.928 Y93.107 E0.13756
G1 X97.674 Y92.295 E0.17423
G1 X100.48 Y90.689 E0.28176
G1 X102.018 Y90.207 E0.33537
G1 X102.104 Y90.188 E0.3383
G1 X103.061 Y89.566 E0.37626
G1 X105.814 Y88.957 E0.47004
G1 X107.042 Y88.838 E0.51108
G1 X107.305 Y88.848 E0.51983
G1 X108.374 Y88.511 E0.55711
G1 X111.267 Y88.511 E0.65333
G1 X112.886 Y88.865 E0.70845
G1 X114.116 Y88.86 E0.74936
G1 X116.941 Y89.611 E0.84659
G1 X118.404 Y90.374 E0.90147
G1 X119.472 Y90.631 E0.938
G1 X121.92 Y92.087 E1.03274
G1 X122.959 Y93.031 E1.07943
G1 X124.016 Y93.604 E1.11942
G1 X126.149 Y95.774 E1.22062
G1 X126.898 Y96.915 E1.26602
G1 X127.88 Y97.989 E1.31442
G1 X129.331 Y100.512 E1.41122
G1 X129.817 Y102.092 E1.4662
G1 X130.425 Y103.042 E1.50372
G1 X131.001 Y105.523 E1.58843
G1 X131.169 Y107.198 E1.64442
G1 X131.489 Y108.14 E1.67751
G1 X131.488 Y111.323 E1.78338
G1 X131.15 Y112.834 E1.83487
G1 X131.189 Y114.019 E1.87431
G1 X130.359 Y116.866 E1.97294
G1 X129.908 Y117.917 E2.01098
G1 X129.748 Y118.189 E2.02148
G1 X129.467 Y119.313 E2.06001
G1 X127.895 Y121.857 E2.15948
G1 X127.111 Y122.825 E2.20091
G1 X126.978 Y122.949 E2.20696
G1 X126.429 Y123.985 E2.24595
G1 X124.272 Y126.099 E2.3464
G1 X123.112 Y126.85 E2.39237
G1 X122.35 Y127.689 E2.43006
G1 X119.42 Y129.361 E2.54227
G1 X117.911 Y129.809 E2.59462
G1 X116.953 Y130.421 E2.63243
G1 X114.147 Y131.104 E2.72848
G1 X112.665 Y131.172 E2.77783
G1 X111.58 Y131.489 E2.81542
G1 X108.689 Y131.488 E2.91158
G1 X107.213 Y131.179 E2.96173
G1 X107.055 Y131.13 E2.96724
G1 X105.813 Y131.135 E3.00855
G1 X103.039 Y130.32 E3.10471
G1 X101.893 Y129.808 E3.14646
G1 X101.774 Y129.74 E3.15101
G1 X100.971 Y129.618 E3.17803
G1 X98.192 Y127.94 E3.286
G1 X97.366 Y127.286 E3.32104
G1 X97.161 Y127.079 E3.33073
G1 X97.072 Y127.029 E3.33413
G1 X95.741 Y126.151 E3.38716
G1 X93.858 Y124.168 E3.47811
G1 X93.171 Y123.238 E3.51657
G1 X93.039 Y123 E3.52562
G1 X92.285 Y122.32 E3.55939
G1 X90.664 Y119.472 E3.66839
G1 X90.182 Y117.896 E3.7232
G1 X89.571 Y116.935 E3.76108
G1 X88.972 Y114.361 E3.84898
G1 X88.814 Y112.762 E3.90242
G1 X88.82 Y112.609 E3.90751
G1 X88.499 Y111.534 E3.94483
G1 X88.569 Y108.651 E4.04074
G1 X88.765 Y107.324 E4.08536
G1 X88.874 Y107.029 E4.09582
G1 X88.836 Y105.99 E4.1304
G1 X89.646 Y102.975 E4.23423
G1 X90.323 Y101.733 E4.28128
G1 X90.379 Y101.502 E4.28919
G1 X90.892 Y100.072 E4.33972
G1 X92.105 Y98.142 E4.41553
G1 X92.901 Y97.165 E4.45745
G1 X93.024 Y97.043 E4.46321
G1 X93.815 Y95.796 E4.51233
G0 F18000 X94.13 Y96.046
G1 F6000 X96.05 Y94.132 E4.6025
G1 X97.187 Y93.416 E4.64719
G1 X97.926 Y92.612 E4.68351
G1 X100.639 Y91.059 E4.78748
G1 X102.138 Y90.589 E4.83973
G1 X102.257 Y90.565 E4.84377
G1 X103.216 Y89.942 E4.88181
G1 X105.9 Y89.348 E4.97324
G1 X107.08 Y89.236 E5.01266
G1 X107.358 Y89.251 E5.02192
G1 X108.437 Y88.911 E5.05955
G1 X111.223 Y88.911 E5.15221
G1 X112.843 Y89.265 E5.20736
G1 X114.063 Y89.26 E5.24794
G1 X116.796 Y89.987 E5.342
G1 X118.262 Y90.751 E5.39698
G1 X119.32 Y91.006 E5.43318
G1 X121.681 Y92.41 E5.52454
G1 X122.727 Y93.361 E5.57156
G1 X123.775 Y93.929 E5.61121
G1 X125.837 Y96.027 E5.70905
G1 X126.583 Y97.164 E5.75428
G1 X127.555 Y98.226 E5.80216
G1 X128.962 Y100.672 E5.89602
G1 X129.419 Y102.145 E5.94731
G1 X129.441 Y102.248 E5.95082
G1 X130.05 Y103.199 E5.98838
G1 X130.611 Y105.614 E6.07084
G1 X130.769 Y107.168 E6.12279
G1 X130.769 Y107.265 E6.12602
G1 X131.089 Y108.207 E6.15911
G1 X131.088 Y111.281 E6.26135
G1 X130.748 Y112.799 E6.31309
G1 X130.787 Y113.969 E6.35202
G1 X129.991 Y116.708 E6.44689
G1 X129.54 Y117.759 E6.48493
G1 X129.374 Y118.034 E6.49561
G1 X129.094 Y119.157 E6.53411
G1 X127.584 Y121.606 E6.6298
G1 X126.837 Y122.533 E6.6694
G1 X126.657 Y122.702 E6.67761
G1 X126.105 Y123.742 E6.71677
G1 X124.02 Y125.786 E6.81388
G1 X122.851 Y126.543 E6.86021
G1 X122.096 Y127.374 E6.89755
G1 X119.263 Y128.99 E7.00603
G1 X117.866 Y129.41 E7.05455
G1 X117.759 Y129.432 E7.05818
G1 X116.796 Y130.047 E7.09618
G1 X114.09 Y130.706 E7.18882
G1 X112.707 Y130.773 E7.23487
G1 X112.618 Y130.769 E7.23783
G1 X111.523 Y131.089 E7.27577
G1 X108.733 Y131.088 E7.36857
G1 X107.295 Y130.787 E7.41743
G1 X107.116 Y130.73 E7.42368
G1 X105.87 Y130.735 E7.46513
G1 X103.202 Y129.955 E7.55758
G1 X102.056 Y129.443 E7.59933
G1 X101.912 Y129.357 E7.6049
G1 X101.111 Y129.235 E7.63185
G1 X98.44 Y127.626 E7.73556
G1 X97.614 Y126.972 E7.77061
G1 X97.406 Y126.757 E7.78056
G1 X97.292 Y126.695 E7.78487
G1 X96.001 Y125.843 E7.83632
G1 X94.18 Y123.93 E7.92416
G1 X93.493 Y123 E7.96262
G1 X93.358 Y122.749 E7.9721
G1 X92.602 Y122.067 E8.00596
G1 X91.033 Y119.31 E8.11147
G1 X90.581 Y117.846 E8.16243
G1 X90.558 Y117.74 E8.16604
G1 X89.946 Y116.777 E8.20399
G1 X89.362 Y114.27 E8.2896
G1 X89.214 Y112.777 E8.33951
G1 X89.222 Y112.56 E8.34673
G1 X88.9 Y111.482 E8.38415
G1 X88.965 Y108.709 E8.4764
G1 X89.161 Y107.382 E8.52102
G1 X89.277 Y107.1 E8.53116
G1 X89.238 Y106.034 E8.56664
G1 X90.02 Y103.124 E8.66686
G1 X90.7 Y101.876 E8.71413
G1 X90.768 Y101.597 E8.72368
G1 X91.253 Y100.25 E8.7713
G1 X92.444 Y98.355 E8.84574
G1 X93.211 Y97.418 E8.88602
G1 X93.337 Y97.296 E8.89185
G1 X94.13 Y96.046 E8.94108
G0 F18000 X94.445 Y96.296
G1 F6000 X96.301 Y94.446 E9.02824
G1 X97.446 Y93.725 E9.07325
G1 X98.178 Y92.929 E9.10922
G1 X100.799 Y91.429 E9.20966
G1 X102.258 Y90.971 E9.26052
G1 X102.406 Y90.945 E9.26552
G1 X103.371 Y90.318 E9.30379
G1 X105.986 Y89.739 E9.39287
G1 X107.117 Y89.634 E9.43065
G1 X107.405 Y89.656 E9.44026
G1 X108.5 Y89.311 E9.47844
G1 X111.18 Y89.311 E9.56758
G1 X112.677 Y89.632 E9.6185
G1 X112.784 Y89.665 E9.62223
G1 X114.01 Y89.66 E9.66301
G1 X116.653 Y90.363 E9.75397
G1 X118.007 Y91.063 E9.80467
G1 X118.101 Y91.124 E9.80839
G1 X119.168 Y91.381 E9.8449
G1 X121.442 Y92.733 E9.93289
G1 X122.495 Y93.691 E9.98024
G1 X123.534 Y94.254 E10.01954
G1 X125.525 Y96.28 E10.11402
G1 X126.268 Y97.413 E10.15908
G1 X127.23 Y98.463 E10.20645
G1 X128.594 Y100.834 E10.29742
G1 X129.037 Y102.263 E10.34718
G1 X129.061 Y102.397 E10.35171
G1 X129.676 Y103.357 E10.38963
G1 X130.221 Y105.704 E10.46977
G1 X130.371 Y107.208 E10.52004
G1 X130.366 Y107.323 E10.52387
G1 X130.689 Y108.274 E10.55728
G1 X130.688 Y111.235 E10.65576
G1 X130.379 Y112.638 E10.70354
G1 X130.346 Y112.743 E10.7072
G1 X130.385 Y113.92 E10.74637
G1 X129.623 Y116.55 E10.83744
G1 X129.172 Y117.601 E10.87548
G1 X129.001 Y117.878 E10.88631
G1 X128.721 Y118.998 E10.92471
G1 X127.243 Y121.396 E11.0184
G1 X126.526 Y122.281 E11.05628
G1 X126.337 Y122.452 E11.06476
G1 X125.781 Y123.499 E11.10419
G1 X123.768 Y125.473 E11.19796
G1 X122.59 Y126.236 E11.24464
G1 X121.842 Y127.059 E11.28163
G1 X119.106 Y128.62 E11.3864
G1 X117.751 Y129.027 E11.43345
G1 X117.612 Y129.052 E11.43815
G1 X116.639 Y129.673 E11.47654
G1 X114.033 Y130.308 E11.56576
G1 X112.688 Y130.373 E11.61054
G1 X112.569 Y130.367 E11.61451
G1 X111.466 Y130.689 E11.65272
G1 X108.777 Y130.688 E11.74216
G1 X107.377 Y130.395 E11.78973
G1 X107.181 Y130.33 E11.7966
G1 X105.926 Y130.335 E11.83834
G1 X103.365 Y129.59 E11.92705
G1 X102.219 Y129.078 E11.9688
G1 X102.056 Y128.975 E11.97521
G1 X101.251 Y128.852 E12.0023
G1 X98.688 Y127.312 E12.10175
G1 X97.862 Y126.658 E12.13679
G1 X97.651 Y126.434 E12.14702
G1 X97.512 Y126.361 E12.15225
G1 X96.258 Y125.533 E12.20223
G1 X94.502 Y123.692 E12.28685
G1 X93.815 Y122.762 E12.3253
G1 X93.681 Y122.501 E12.33506
G1 X92.919 Y121.814 E12.36918
G1 X91.401 Y119.148 E12.47122
G1 X90.963 Y117.728 E12.52065
G1 X90.935 Y117.586 E12.52546
G1 X90.32 Y116.619 E12.56358
G1 X89.752 Y114.179 E12.6469
G1 X89.614 Y112.791 E12.69329
G1 X89.624 Y112.51 E12.70265
G1 X89.301 Y111.429 E12.74017
G1 X89.361 Y108.767 E12.82873
G1 X89.55 Y107.488 E12.87173
G1 X89.68 Y107.171 E12.88313
G1 X89.64 Y106.078 E12.91951
G1 X90.393 Y103.275 E13.01604
G1 X91.078 Y102.019 E13.06362
G1 X91.144 Y101.733 E13.07339
G1 X91.614 Y100.428 E13.11952
G1 X92.783 Y98.568 E13.19259
G1 X93.52 Y97.672 E13.23118
G1 X93.648 Y97.553 E13.23699
G1 X94.445 Y96.296 E13.28649
G0 F18000 X94.759 Y96.547
G1 F6000 X96.552 Y94.76 E13.37069
G1 X97.708 Y94.032 E13.41613
G1 X98.432 Y93.244 E13.45172
G1 X100.961 Y91.797 E13.54863
G1 X102.328 Y91.365 E13.59631
G1 X102.557 Y91.324 E13.60405
G1 X103.529 Y90.693 E13.64259
G1 X106.072 Y90.13 E13.72922
G1 X107.153 Y90.032 E13.76532
G1 X107.444 Y90.063 E13.77506
G1 X108.56 Y89.711 E13.81398
G1 X111.138 Y89.711 E13.89972
G1 X112.593 Y90.023 E13.94922
G1 X112.721 Y90.065 E13.9537
G1 X113.957 Y90.06 E13.99481
G1 X116.511 Y90.74 E14.08271
G1 X117.823 Y91.418 E14.13183
G1 X117.936 Y91.496 E14.1364
G1 X119.014 Y91.755 E14.17327
G1 X121.204 Y93.058 E14.25803
G1 X122.187 Y93.947 E14.30211
G1 X122.247 Y94.012 E14.30505
G1 X123.293 Y94.579 E14.34463
G1 X125.21 Y96.529 E14.43558
G1 X125.95 Y97.658 E14.48047
G1 X126.905 Y98.7 E14.52748
G1 X128.225 Y100.995 E14.61554
G1 X128.643 Y102.334 E14.6622
G1 X128.681 Y102.546 E14.66936
G1 X129.301 Y103.514 E14.70759
G1 X129.831 Y105.795 E14.78548
G1 X129.971 Y107.189 E14.83208
G1 X129.962 Y107.38 E14.83844
G1 X130.289 Y108.341 E14.8722
G1 X130.288 Y111.19 E14.96696
G1 X129.988 Y112.552 E15.01335
G1 X129.943 Y112.681 E15.01789
G1 X129.983 Y113.871 E15.05749
G1 X129.255 Y116.392 E15.14477
G1 X128.804 Y117.443 E15.18281
G1 X128.629 Y117.716 E15.19359
G1 X128.348 Y118.839 E15.23209
G1 X126.902 Y121.186 E15.32378
G1 X126.216 Y122.028 E15.35991
G1 X126.019 Y122.198 E15.36856
G1 X125.457 Y123.256 E15.40841
G1 X123.516 Y125.159 E15.49881
G1 X122.44 Y125.863 E15.54158
G1 X122.341 Y125.915 E15.5453
G1 X121.588 Y126.744 E15.58255
G1 X118.949 Y128.25 E15.68361
G1 X117.679 Y128.633 E15.72773
G1 X117.465 Y128.672 E15.73497
G1 X116.482 Y129.299 E15.77374
G1 X113.976 Y129.91 E15.85954
G1 X112.669 Y129.973 E15.90306
G1 X112.525 Y129.963 E15.90786
G1 X111.409 Y130.289 E15.94653
G1 X108.821 Y130.288 E16.03261
G1 X107.459 Y130.003 E16.07889
G1 X107.248 Y129.93 E16.08631
G1 X105.981 Y129.935 E16.12845
G1 X103.527 Y129.224 E16.21343
G1 X102.432 Y128.739 E16.25326
G1 X102.2 Y128.593 E16.26238
G1 X101.39 Y128.469 E16.28963
G1 X98.936 Y126.998 E16.3848
G1 X98.11 Y126.344 E16.41984
G1 X97.896 Y126.108 E16.43043
G1 X97.732 Y126.027 E16.43652
G1 X96.515 Y125.223 E16.48503
G1 X94.824 Y123.454 E16.56642
G1 X94.137 Y122.524 E16.60488
G1 X94.007 Y122.257 E16.61476
G1 X93.236 Y121.561 E16.6493
G1 X91.769 Y118.986 E16.74787
G1 X91.345 Y117.61 E16.79576
G1 X91.317 Y117.441 E16.80146
G1 X90.695 Y116.464 E16.83998
G1 X90.142 Y114.088 E16.92112
G1 X90.012 Y112.752 E16.96577
G1 X90.027 Y112.461 E16.97546
G1 X89.702 Y111.376 E17.01313
G1 X89.757 Y108.825 E17.098
G1 X89.946 Y107.546 E17.141
G1 X90.084 Y107.252 E17.1518
G1 X90.042 Y106.122 E17.18941
G1 X90.767 Y103.424 E17.28233
G1 X91.457 Y102.158 E17.33028
G1 X91.52 Y101.869 E17.34012
G1 X91.975 Y100.606 E17.38477
G1 X93.122 Y98.781 E17.45646
G1 X93.793 Y97.965 E17.4916
G1 X93.97 Y97.8 E17.49965
G1 X94.025 Y97.696 E17.50356
G1 X94.759 Y96.547 E17.54891
G0 F18000 X95.073 Y96.798
G1 F6000 X96.799 Y95.078 E17.62996
G1 X97.864 Y94.401 E17.67193
G1 X97.955 Y94.355 E17.67532
G1 X98.686 Y93.559 E17.71127
G1 X101.123 Y92.165 E17.80464
G1 X102.449 Y91.746 E17.8509
G1 X102.703 Y91.706 E17.85945
G1 X103.686 Y91.067 E17.89844
G1 X106.108 Y90.528 E17.98097
G1 X107.146 Y90.434 E18.01564
G1 X107.482 Y90.47 E18.02688
G1 X108.62 Y90.111 E18.06656
G1 X111.096 Y90.111 E18.14892
G1 X112.509 Y90.414 E18.19698
G1 X112.653 Y90.465 E18.20206
G1 X113.904 Y90.46 E18.24367
G1 X116.367 Y91.116 E18.32845
G1 X117.596 Y91.748 E18.37441
G1 X117.769 Y91.867 E18.3814
G1 X118.861 Y92.13 E18.41875
G1 X120.967 Y93.383 E18.50026
G1 X121.893 Y94.218 E18.54173
G1 X121.999 Y94.333 E18.54693
G1 X123.052 Y94.904 E18.58677
G1 X124.895 Y96.778 E18.6742
G1 X125.632 Y97.903 E18.71893
G1 X126.58 Y98.937 E18.76558
G1 X127.856 Y101.156 E18.85072
G1 X128.261 Y102.453 E18.89591
G1 X128.299 Y102.692 E18.90396
G1 X128.927 Y103.672 E18.94268
G1 X129.441 Y105.885 E19.01824
G1 X129.571 Y107.17 E19.0612
G1 X129.558 Y107.437 E19.07009
G1 X129.889 Y108.408 E19.10421
G1 X129.888 Y111.146 E19.19528
G1 X129.61 Y112.421 E19.23868
G1 X129.541 Y112.62 E19.24568
G1 X129.581 Y113.823 E19.28572
G1 X128.887 Y116.234 E19.36916
G1 X128.436 Y117.285 E19.4072
G1 X128.258 Y117.553 E19.4179
G1 X127.975 Y118.682 E19.45662
G1 X126.59 Y120.935 E19.54458
G1 X125.954 Y121.725 E19.57831
G1 X125.702 Y121.943 E19.58939
G1 X125.133 Y123.013 E19.6297
G1 X123.264 Y124.846 E19.71677
G1 X122.221 Y125.528 E19.75822
G1 X122.094 Y125.592 E19.76295
G1 X121.334 Y126.429 E19.80055
G1 X118.793 Y127.879 E19.89786
G1 X117.563 Y128.25 E19.94059
G1 X117.32 Y128.29 E19.94878
G1 X116.325 Y128.925 E19.98804
G1 X113.914 Y129.513 E20.07058
G1 X112.697 Y129.574 E20.11111
G1 X112.481 Y129.559 E20.11831
G1 X111.352 Y129.889 E20.15743
G1 X108.865 Y129.888 E20.24015
G1 X107.541 Y129.611 E20.28514
G1 X107.32 Y129.53 E20.29297
G1 X106.036 Y129.535 E20.33567
G1 X103.689 Y128.858 E20.41692
G1 X102.594 Y128.373 E20.45675
G1 X102.348 Y128.211 E20.46655
G1 X101.528 Y128.086 E20.49413
G1 X99.184 Y126.684 E20.58498
G1 X98.358 Y126.03 E20.62002
G1 X98.141 Y125.782 E20.63098
G1 X97.952 Y125.693 E20.63793
G1 X96.774 Y124.915 E20.68488
G1 X95.146 Y123.216 E20.76314
G1 X94.459 Y122.286 E20.8016
G1 X94.338 Y122.017 E20.81141
G1 X93.553 Y121.308 E20.84659
G1 X92.137 Y118.824 E20.94169
G1 X91.74 Y117.544 E20.98627
G1 X91.699 Y117.297 E20.99459
G1 X91.07 Y116.309 E21.03355
G1 X90.532 Y113.997 E21.1125
G1 X90.41 Y112.714 E21.15537
G1 X90.431 Y112.416 E21.1653
G1 X90.103 Y111.322 E21.20329
G1 X90.153 Y108.884 E21.28439
G1 X90.334 Y107.661 E21.32551
G1 X90.488 Y107.333 E21.33757
G1 X90.444 Y106.166 E21.37641
G1 X91.14 Y103.575 E21.46564
G1 X91.837 Y102.297 E21.51406
G1 X91.896 Y102.005 E21.52397
G1 X92.336 Y100.784 E21.56713
G1 X93.461 Y98.994 E21.63745
G1 X94.101 Y98.22 E21.67086
G1 X94.294 Y98.047 E21.67948
G1 X94.362 Y97.911 E21.68453
G1 X95.073 Y96.798 E21.72846
G0 F18000 X95.387 Y97.049
G1 F6000 X97.047 Y95.395 E21.8064
G1 X98.079 Y94.739 E21.84707
G1 X98.196 Y94.683 E21.85139
G1 X98.938 Y93.876 E21.88785
G1 X101.285 Y92.533 E21.97779
G1 X102.57 Y92.127 E22.02261
G1 X102.846 Y92.09 E22.03187
G1 X103.843 Y91.442 E22.07142
G1 X106.144 Y90.926 E22.14985
G1 X107.182 Y90.832 E22.18452
G1 X107.515 Y90.879 E22.1957
G1 X108.68 Y90.511 E22.23634
G1 X111.054 Y90.511 E22.3153
G1 X112.425 Y90.805 E22.36193
G1 X112.576 Y90.865 E22.36734
G1 X113.851 Y90.86 E22.40975
G1 X116.223 Y91.492 E22.49139
G1 X117.413 Y92.104 E22.5359
G1 X117.6 Y92.238 E22.54355
G1 X118.707 Y92.504 E22.58142
G1 X120.73 Y93.708 E22.65972
G1 X121.625 Y94.515 E22.6998
G1 X121.746 Y94.652 E22.70588
G1 X122.809 Y95.228 E22.74609
G1 X124.582 Y97.03 E22.83017
G1 X125.22 Y98.004 E22.8689
G1 X125.371 Y98.21 E22.87739
G1 X126.253 Y99.173 E22.92083
G1 X127.488 Y101.319 E23.00318
G1 X127.879 Y102.572 E23.04684
G1 X127.915 Y102.835 E23.05566
G1 X128.553 Y103.83 E23.09498
G1 X129.051 Y105.975 E23.16822
G1 X129.173 Y107.209 E23.20946
G1 X129.153 Y107.491 E23.21886
G1 X129.489 Y108.475 E23.25345
G1 X129.488 Y111.102 E23.34082
G1 X129.219 Y112.336 E23.38283
G1 X129.139 Y112.557 E23.39065
G1 X129.179 Y113.772 E23.43108
G1 X128.519 Y116.076 E23.51079
G1 X128.068 Y117.127 E23.54883
G1 X127.888 Y117.382 E23.55921
G1 X127.602 Y118.525 E23.5984
G1 X126.278 Y120.684 E23.68264
G1 X125.642 Y121.474 E23.71637
