;FLAVOR:Marlin
;TIME:767
;Filament used: 1.03462m
;Layer height: 0.2
;MINX:87.198
;MINY:66.2
;MINZ:0.2
;MAXX:132.802
;MAXY:134.1
;MAXZ:9.8
;TARGET_MACHINE.NAME:Creality Ender-3 V3 KE
;Generated with Cura_SteamEngine 5.10.1
M140 S60
M105
M190 S60
M220 S100 ;Reset Feedrate
M221 S100 ;Reset Flowrate

G28 ;Home

G92 E0 ;Reset Extruder
G1 Z2.0 F3000 ;Move Z Axis up
G1 X-2.0 Y20 Z0.28 F5000.0 ;Move to start position
M109 S220.0
G1 X-2.0 Y145.0 Z0.28 F1500.0 E15 ;Draw the first line
G1 X-1.7 Y145.0 Z0.28 F5000.0 ;Move to side a little
G1 X-1.7 Y20 Z0.28 F1500.0 E30 ;Draw the second line
G92 E0 ;Reset Extruder
G1 E-1 F1800 ;Retract a bit
G1 Z2.0 F3000 ;Move Z Axis up
G1 E0 F1800
M82 ;absolute extrusion mode
G92 E0
G92 E0
G1 F2400 E-0.8
;LAYER_COUNT:44
;LAYER:0
M107
M204 S500
G0 F18000 X95.719 Y69.223 Z0.2
;TYPE:SKIRT
G1 F2400 E0
G1 F6000 X97.28 Y67.764 E0.07107
G1 X99.303 Y66.557 E0.14942
G1 X101.021 Y66.275 E0.20732
G1 X118.849 Y66.2 E0.80029
G1 X120.75 Y66.667 E0.8654
G1 X122.777 Y67.719 E0.94135
G1 X124.251 Y69.295 E1.01313
G1 X125.273 Y71.019 E1.07978
G1 X125.476 Y71.501 E1.09718
G1 X125.752 Y73.343 E1.15913
G1 X125.77 Y75.18 E1.22023
G1 X127.749 Y75.666 E1.28801
G1 X129.777 Y76.719 E1.36401
G1 X131.254 Y78.298 E1.43592
G1 X132.197 Y79.892 E1.49752
G1 X132.501 Y80.64 E1.52438
G1 X132.751 Y82.299 E1.58018
G1 X132.802 Y86.879 E1.73252
G1 X132.355 Y88.704 E1.79501
G1 X131.285 Y90.777 E1.8726
G1 X129.708 Y92.248 E1.94433
G1 X127.964 Y93.287 E2.01185
G1 X127.529 Y93.47 E2.02755
G1 X125.664 Y93.751 E2.09028
G1 X125.054 Y93.759 E2.11057
G1 X125.1 Y103.17 E2.42358
G1 X124.901 Y103.999 E2.45194
G1 X125.03 Y104.774 E2.47807
G1 X125.1 Y115.17 E2.82385
G1 X124.901 Y115.999 E2.85221
G1 X125.03 Y116.774 E2.87834
G1 X125.1 Y127.142 E3.22319
G1 X124.632 Y129.051 E3.28856
G1 X123.581 Y131.077 E3.36447
G1 X122.02 Y132.536 E3.43554
G1 X119.997 Y133.743 E3.51389
G1 X118.279 Y134.025 E3.5718
G1 X101.852 Y134.1 E4.11817
G1 X99.95 Y133.633 E4.18331
G1 X97.923 Y132.581 E4.25926
G1 X96.464 Y131.02 E4.33033
G1 X95.296 Y129.061 E4.40619
G1 X95.245 Y128.92 E4.41118
G1 X94.965 Y127.155 E4.47061
G1 X94.9 Y116.83 E4.81403
G1 X95.099 Y116 E4.84242
G1 X94.97 Y115.226 E4.86852
G1 X94.9 Y104.83 E5.2143
G1 X95.099 Y104 E5.24269
G1 X94.97 Y103.226 E5.26878
G1 X94.905 Y93.798 E5.58237
G1 X94.147 Y93.8 E5.60758
G1 X92.251 Y93.334 E5.67252
G1 X90.223 Y92.281 E5.74852
G1 X88.746 Y90.702 E5.82043
G1 X87.803 Y89.108 E5.88203
G1 X87.499 Y88.36 E5.90889
G1 X87.249 Y86.701 E5.96469
G1 X87.198 Y82.121 E6.11703
G1 X87.645 Y80.296 E6.17952
G1 X88.716 Y78.223 E6.25713
G1 X90.288 Y76.756 E6.32864
G1 X91.953 Y75.775 E6.39292
G1 X92.573 Y75.509 E6.41536
G1 X94.2 Y75.264 E6.47008
G1 X94.2 Y73.147 E6.5405
G1 X94.666 Y71.251 E6.60543
G1 X95.719 Y69.223 E6.68144
G0 F18000 X96.042 Y69.468
G1 F6000 X97.519 Y68.088 E6.74867
G1 X99.443 Y66.94 E6.82318
G1 X101.086 Y66.67 E6.87856
G1 X118.804 Y66.6 E7.46787
G1 X120.607 Y67.043 E7.52962
G1 X122.532 Y68.042 E7.60176
G1 X123.927 Y69.534 E7.66969
G1 X124.904 Y71.174 E7.73319
G1 X125.087 Y71.609 E7.74888
G1 X125.356 Y73.402 E7.80918
G1 X125.373 Y75.6 E7.88229
G1 X125.807 Y75.6 E7.89673
G1 X127.606 Y76.042 E7.95834
G1 X129.532 Y77.042 E8.03052
G1 X130.93 Y78.537 E8.0986
G1 X131.826 Y80.043 E8.15688
G1 X132.112 Y80.747 E8.18216
G1 X132.355 Y82.359 E8.23638
G1 X132.401 Y86.831 E8.38512
G1 X131.977 Y88.565 E8.4445
G1 X130.961 Y90.532 E8.51813
G1 X129.469 Y91.924 E8.586
G1 X127.759 Y92.943 E8.65221
G1 X127.422 Y93.081 E8.66432
G1 X125.604 Y93.355 E8.72547
G1 X124.652 Y93.362 E8.75713
G1 X124.7 Y103.124 E9.08182
G1 X124.493 Y103.986 E9.11131
G1 X124.635 Y104.84 E9.1401
G1 X124.7 Y115.124 E9.48216
G1 X124.493 Y115.986 E9.51164
G1 X124.635 Y116.84 E9.54044
G1 X124.7 Y127.097 E9.88159
G1 X124.256 Y128.908 E9.94361
G1 X123.258 Y130.832 E10.0157
G1 X121.781 Y132.212 E10.08293
G1 X119.857 Y133.36 E10.15745
G1 X118.214 Y133.63 E10.21283
G1 X101.897 Y133.7 E10.75554
G1 X100.093 Y133.257 E10.81732
G1 X98.168 Y132.258 E10.88946
G1 X96.788 Y130.781 E10.95669
G1 X95.64 Y128.856 E11.03123
G1 X95.365 Y127.152 E11.08864
G1 X95.3 Y116.876 E11.43043
G1 X95.507 Y116.013 E11.45995
G1 X95.365 Y115.16 E11.48871
G1 X95.3 Y104.876 E11.83076
G1 X95.507 Y104.013 E11.86028
G1 X95.365 Y103.16 E11.88904
G1 X95.302 Y93.397 E12.21377
G1 X94.193 Y93.4 E12.25065
G1 X92.394 Y92.958 E12.31227
G1 X90.468 Y91.958 E12.38445
G1 X89.07 Y90.463 E12.45252
G1 X88.174 Y88.957 E12.51081
G1 X87.888 Y88.253 E12.53608
G1 X87.645 Y86.641 E12.5903
G1 X87.599 Y82.169 E12.73905
G1 X88.023 Y80.435 E12.79842
G1 X89.04 Y78.468 E12.87207
G1 X90.527 Y77.08 E12.93973
G1 X92.156 Y76.12 E13.00262
G1 X92.68 Y75.898 E13.02155
G1 X94.354 Y75.646 E13.07785
G1 X94.6 Y75.638 E13.08604
G1 X94.6 Y73.193 E13.16736
G1 X95.042 Y71.394 E13.22897
G1 X96.042 Y69.468 E13.30115
G0 F18000 X96.365 Y69.713
G1 F6000 X97.761 Y68.409 E13.36469
G1 X99.581 Y67.323 E13.43518
G1 X101.151 Y67.065 E13.4881
G1 X118.759 Y67 E14.07375
G1 X120.464 Y67.419 E14.13214
G1 X122.287 Y68.365 E14.20045
G1 X123.603 Y69.773 E14.26455
G1 X124.56 Y71.379 E14.32673
G1 X124.698 Y71.716 E14.33885
G1 X124.96 Y73.461 E14.39754
G1 X124.976 Y76 E14.48198
G1 X125.76 Y76 E14.50806
G1 X127.464 Y76.419 E14.56642
G1 X129.287 Y77.365 E14.63473
G1 X130.606 Y78.776 E14.69898
G1 X131.482 Y80.248 E14.75595
G1 X131.722 Y80.849 E14.77747
G1 X131.959 Y82.419 E14.83028
G1 X132 Y86.783 E14.97544
G1 X131.599 Y88.426 E15.03169
G1 X130.637 Y90.287 E15.10137
G1 X129.23 Y91.6 E15.16537
G1 X127.554 Y92.599 E15.23027
G1 X127.311 Y92.694 E15.23895
G1 X125.601 Y92.955 E15.29648
G1 X124.25 Y92.965 E15.34142
G1 X124.3 Y103.078 E15.67778
G1 X124.085 Y103.973 E15.70839
G1 X124.24 Y104.906 E15.73985
G1 X124.3 Y115.078 E16.07818
G1 X124.085 Y115.973 E16.10879
G1 X124.24 Y116.906 E16.14025
G1 X124.3 Y127.052 E16.47771
G1 X123.88 Y128.765 E16.53638
G1 X122.935 Y130.587 E16.60464
G1 X121.539 Y131.891 E16.66818
G1 X119.719 Y132.977 E16.73867
G1 X118.149 Y133.235 E16.79159
G1 X101.942 Y133.3 E17.33064
G1 X100.236 Y132.881 E17.38907
G1 X98.413 Y131.935 E17.45738
G1 X97.109 Y130.539 E17.52092
G1 X96.023 Y128.719 E17.59141
G1 X95.765 Y127.149 E17.64433
G1 X95.7 Y116.922 E17.98448
G1 X95.915 Y116.026 E18.01513
G1 X95.76 Y115.094 E18.04656
G1 X95.7 Y104.922 E18.38488
G1 X95.915 Y104.026 E18.41553
G1 X95.76 Y103.094 E18.44695
G1 X95.7 Y92.996 E18.78282
G1 X94.24 Y93 E18.83138
G1 X92.536 Y92.581 E18.88975
G1 X90.713 Y91.635 E18.95806
G1 X89.394 Y90.224 E19.0223
G1 X88.518 Y88.752 E19.07927
G1 X88.278 Y88.151 E19.10079
G1 X88.041 Y86.581 E19.1536
G1 X88 Y82.217 E19.29876
G1 X88.401 Y80.574 E19.35501
G1 X89.364 Y78.713 E19.4247
G1 X90.766 Y77.404 E19.4885
G1 X92.359 Y76.465 E19.55
G1 X92.787 Y76.287 E19.56542
G1 X94.414 Y76.042 E19.62014
G1 X95 Y76.031 E19.63964
G1 X95 Y73.24 E19.73247
G1 X95.419 Y71.536 E19.79083
G1 X96.365 Y69.713 E19.85914
G0 F18000 X96.688 Y69.958
G1 F6000 X98.003 Y68.73 E19.91898
G1 X99.719 Y67.706 E19.98545
G1 X101.216 Y67.46 E20.0359
G1 X118.714 Y67.4 E20.61789
G1 X120.321 Y67.795 E20.67293
G1 X122.042 Y68.688 E20.73742
G1 X123.279 Y70.012 E20.79769
G1 X124.216 Y71.584 E20.85856
G1 X124.311 Y71.827 E20.86723
G1 X124.56 Y73.464 E20.92231
G1 X124.579 Y76.4 E21.01996
G1 X125.714 Y76.4 E21.05771
G1 X127.321 Y76.795 E21.11275
G1 X129.042 Y77.688 E21.17724
G1 X130.282 Y79.015 E21.23765
G1 X131.138 Y80.453 E21.29331
G1 X131.333 Y80.953 E21.31116
G1 X131.563 Y82.479 E21.36248
G1 X131.6 Y86.735 E21.50404
G1 X131.221 Y88.287 E21.55718
G1 X130.313 Y90.042 E21.6229
G1 X128.991 Y91.276 E21.68305
G1 X127.349 Y92.255 E21.74663
G1 X127.206 Y92.306 E21.75168
G1 X125.598 Y92.555 E21.8058
G1 X123.78 Y92.568 E21.86627
G1 X123.85 Y93.042 E21.88221
G1 X123.9 Y103.032 E22.21448
G1 X123.677 Y103.96 E22.24623
G1 X123.845 Y104.972 E22.28035
G1 X123.9 Y115.032 E22.61495
G1 X123.677 Y115.96 E22.64669
G1 X123.845 Y116.972 E22.68081
G1 X123.9 Y127.007 E23.01458
G1 X123.504 Y128.622 E23.06989
G1 X122.612 Y130.342 E23.13433
G1 X121.297 Y131.57 E23.19417
G1 X119.581 Y132.594 E23.26064
G1 X118.084 Y132.84 E23.3111
G1 X101.987 Y132.9 E23.84649
G1 X100.379 Y132.505 E23.90156
G1 X98.658 Y131.612 E23.96605
G1 X97.43 Y130.297 E24.02589
G1 X96.406 Y128.581 E24.09235
G1 X96.16 Y127.084 E24.14281
G1 X96.1 Y116.968 E24.47928
G1 X96.323 Y116.039 E24.51105
G1 X96.155 Y115.028 E24.54514
G1 X96.1 Y104.968 E24.87974
G1 X96.323 Y104.039 E24.91152
G1 X96.155 Y103.028 E24.94561
G1 X96.1 Y92.985 E25.27964
G1 X96.195 Y92.595 E25.29299
G1 X94.286 Y92.6 E25.35649
G1 X92.679 Y92.205 E25.41153
G1 X90.958 Y91.312 E25.47602
G1 X89.718 Y89.985 E25.53642
G1 X88.862 Y88.547 E25.59208
G1 X88.667 Y88.047 E25.60993
G1 X88.437 Y86.521 E25.66126
G1 X88.4 Y82.265 E25.80282
G1 X88.779 Y80.713 E25.85596
G1 X89.688 Y78.958 E25.92169
G1 X91.005 Y77.728 E25.98163
G1 X92.562 Y76.81 E26.04175
G1 X92.894 Y76.676 E26.05366
G1 X94.474 Y76.438 E26.1068
G1 X95.4 Y76.425 E26.1376
G1 X95.4 Y73.286 E26.24201
G1 X95.795 Y71.679 E26.29705
G1 X96.688 Y69.958 E26.36153
G0 F18000 X97.011 Y70.203
G1 F6000 X98.245 Y69.051 E26.41768
G1 X99.857 Y68.089 E26.48012
G1 X101.281 Y67.855 E26.52812
G1 X118.668 Y67.8 E27.10641
G1 X120.178 Y68.171 E27.15813
G1 X121.797 Y69.011 E27.21879
G1 X122.955 Y70.251 E27.27522
G1 X123.872 Y71.789 E27.33478
G1 X123.923 Y71.932 E27.33983
G1 X124.16 Y73.467 E27.39149
G1 X124.182 Y76.8 E27.50235
G1 X125.668 Y76.8 E27.55177
G1 X127.178 Y77.171 E27.60349
G1 X128.797 Y78.011 E27.66415
G1 X129.958 Y79.254 E27.72072
G1 X130.794 Y80.658 E27.77507
G1 X130.943 Y81.053 E27.78911
G1 X131.167 Y82.539 E27.8391
G1 X131.2 Y86.687 E27.97706
G1 X130.843 Y88.148 E28.02709
G1 X129.989 Y89.797 E28.08885
G1 X128.752 Y90.952 E28.14514
G1 X127.144 Y91.911 E28.20741
G1 X125.595 Y92.155 E28.25957
G1 X123.312 Y92.171 E28.3355
G1 X123.45 Y93.044 E28.3649
G1 X123.5 Y102.985 E28.69554
G1 X123.269 Y103.945 E28.72838
G1 X123.445 Y104.974 E28.76311
G1 X123.5 Y114.985 E29.09608
G1 X123.269 Y115.945 E29.12892
G1 X123.445 Y116.974 E29.16364
G1 X123.5 Y126.962 E29.49585
G1 X123.128 Y128.479 E29.5478
G1 X122.289 Y130.097 E29.60842
G1 X121.055 Y131.249 E29.66457
G1 X119.443 Y132.211 E29.727
G1 X118.019 Y132.445 E29.775
G1 X102.032 Y132.5 E30.30673
G1 X100.522 Y132.129 E30.35845
G1 X98.903 Y131.289 E30.41911
G1 X97.751 Y130.055 E30.47526
G1 X96.789 Y128.443 E30.5377
G1 X96.555 Y127.019 E30.5857
G1 X96.5 Y117.015 E30.91844
G1 X96.731 Y116.055 E30.95128
G1 X96.555 Y115.026 E30.986
G1 X96.5 Y105.015 E31.31897
G1 X96.731 Y104.055 E31.35181
G1 X96.555 Y103.026 E31.38653
G1 X96.5 Y93.034 E31.71887
G1 X96.705 Y92.194 E31.74763
G1 X94.332 Y92.2 E31.82656
G1 X92.822 Y91.829 E31.87828
G1 X91.203 Y90.989 E31.93894
G1 X90.042 Y89.746 E31.99551
G1 X89.206 Y88.342 E32.04986
G1 X89.057 Y87.947 E32.0639
G1 X88.833 Y86.461 E32.11389
G1 X88.8 Y82.313 E32.25185
G1 X89.157 Y80.852 E32.30188
G1 X90.011 Y79.203 E32.36364
G1 X91.245 Y78.051 E32.41979
G1 X92.712 Y77.181 E32.47652
G1 X92.999 Y77.065 E32.48681
G1 X94.534 Y76.834 E32.53844
G1 X95.8 Y76.821 E32.58055
G1 X95.8 Y73.332 E32.6966
G1 X96.171 Y71.822 E32.74831
G1 X97.011 Y70.203 E32.80898
G0 F18000 X97.334 Y70.448
G1 F6000 X98.487 Y69.372 E32.86143
G1 X99.995 Y68.472 E32.91984
G1 X101.346 Y68.25 E32.96538
G1 X118.621 Y68.2 E33.53995
G1 X120.036 Y68.548 E33.58841
G1 X121.552 Y69.334 E33.64521
G1 X122.631 Y70.49 E33.69781
G1 X123.528 Y71.994 E33.75605
G1 X123.76 Y73.47 E33.80574
G1 X123.785 Y77.2 E33.92981
G1 X125.621 Y77.2 E33.99087
G1 X127.036 Y77.548 E34.03934
G1 X128.552 Y78.334 E34.09613
G1 X129.634 Y79.493 E34.14887
G1 X130.45 Y80.863 E34.20191
G1 X130.553 Y81.152 E34.21211
G1 X130.771 Y82.599 E34.26078
G1 X130.8 Y86.639 E34.39516
G1 X130.465 Y88.009 E34.44207
G1 X129.666 Y89.552 E34.49986
G1 X128.513 Y90.628 E34.55231
G1 X127.004 Y91.528 E34.61075
G1 X125.592 Y91.755 E34.65832
G1 X122.841 Y91.774 E34.74982
G1 X123.05 Y93.046 E34.79269
G1 X123.1 Y102.938 E35.12171
G1 X122.855 Y103.953 E35.15643
G1 X122.888 Y104.067 E35.16038
G1 X123.05 Y105.04 E35.19319
G1 X123.1 Y114.938 E35.5224
G1 X122.855 Y115.953 E35.55713
G1 X122.888 Y116.067 E35.56108
G1 X123.05 Y117.04 E35.59389
G1 X123.1 Y126.917 E35.9224
G1 X122.752 Y128.336 E35.97099
G1 X121.966 Y129.852 E36.02779
G1 X120.813 Y130.928 E36.08025
G1 X119.305 Y131.828 E36.13866
G1 X117.954 Y132.05 E36.18419
G1 X102.079 Y132.1 E36.7122
G1 X100.664 Y131.752 E36.76067
G1 X99.148 Y130.966 E36.81746
G1 X98.072 Y129.813 E36.86992
G1 X97.172 Y128.305 E36.92833
G1 X96.95 Y126.954 E36.97386
G1 X96.9 Y117.062 E37.30288
G1 X97.145 Y116.047 E37.3376
G1 X97.112 Y115.933 E37.34155
G1 X96.95 Y114.96 E37.37436
G1 X96.9 Y105.062 E37.70357
G1 X97.145 Y104.047 E37.7383
G1 X97.112 Y103.933 E37.74225
G1 X96.95 Y102.96 E37.77506
G1 X96.9 Y93.083 E38.10357
G1 X97.216 Y91.793 E38.14774
G1 X94.379 Y91.8 E38.2421
G1 X92.964 Y91.452 E38.29057
G1 X91.448 Y90.666 E38.34737
G1 X90.366 Y89.507 E38.4001
G1 X89.55 Y88.137 E38.45314
G1 X89.447 Y87.848 E38.46334
G1 X89.229 Y86.401 E38.51201
G1 X89.2 Y82.361 E38.64639
G1 X89.535 Y80.991 E38.6933
G1 X90.334 Y79.448 E38.75109
G1 X91.487 Y78.372 E38.80354
G1 X92.861 Y77.552 E38.85676
G1 X93.102 Y77.455 E38.8654
G1 X94.594 Y77.23 E38.91559
G1 X96.2 Y77.218 E38.96901
G1 X96.2 Y73.379 E39.09669
G1 X96.548 Y71.964 E39.14516
G1 X97.334 Y70.448 E39.20195
G0 F18000 X97.657 Y70.693
G1 F6000 X98.729 Y69.693 E39.25071
G1 X100.133 Y68.855 E39.3051
G1 X101.411 Y68.645 E39.34817
G1 X118.575 Y68.6 E39.91905
G1 X119.893 Y68.924 E39.96419
G1 X121.307 Y69.657 E40.01717
G1 X122.307 Y70.729 E40.06593
G1 X123.145 Y72.134 E40.12034
G1 X123.36 Y73.473 E40.16544
G1 X123.388 Y77.6 E40.30271
G1 X125.575 Y77.6 E40.37545
G1 X126.893 Y77.924 E40.42059
G1 X128.307 Y78.657 E40.47357
G1 X129.31 Y79.732 E40.52247
G1 X130.106 Y81.068 E40.57419
G1 X130.157 Y81.212 E40.57927
G1 X130.375 Y82.659 E40.62794
G1 X130.4 Y86.59 E40.75869
G1 X130.087 Y87.87 E40.80252
G1 X129.343 Y89.307 E40.85634
G1 X128.271 Y90.307 E40.9051
G1 X126.867 Y91.145 E40.95948
G1 X125.589 Y91.355 E41.00256
G1 X122.175 Y91.378 E41.11611
G1 X122.445 Y91.831 E41.13365
G1 X122.655 Y93.111 E41.17679
G1 X122.7 Y102.891 E41.50208
G1 X122.439 Y103.968 E41.53894
G1 X122.493 Y104.133 E41.54471
G1 X122.655 Y105.106 E41.57752
G1 X122.7 Y114.891 E41.90297
G1 X122.439 Y115.968 E41.93983
G1 X122.493 Y116.133 E41.94561
G1 X122.655 Y117.106 E41.97841
G1 X122.7 Y126.872 E42.30324
G1 X122.376 Y128.193 E42.34848
G1 X121.643 Y129.607 E42.40145
G1 X120.571 Y130.607 E42.45021
G1 X119.167 Y131.445 E42.50459
G1 X117.889 Y131.655 E42.54767
G1 X102.125 Y131.7 E43.07198
G1 X100.807 Y131.376 E43.11712
G1 X99.393 Y130.643 E43.1701
G1 X98.393 Y129.571 E43.21886
G1 X97.555 Y128.167 E43.27324
G1 X97.345 Y126.889 E43.31632
G1 X97.3 Y117.109 E43.6416
G1 X97.561 Y116.032 E43.67846
G1 X97.507 Y115.867 E43.68424
G1 X97.345 Y114.894 E43.71704
G1 X97.3 Y105.109 E44.0425
G1 X97.561 Y104.032 E44.07936
G1 X97.507 Y103.867 E44.08513
G1 X97.345 Y102.894 E44.11794
G1 X97.3 Y93.128 E44.44276
G1 X97.624 Y91.807 E44.488
G1 X97.839 Y91.392 E44.50354
G1 X94.425 Y91.4 E44.61709
G1 X93.107 Y91.076 E44.66224
G1 X91.693 Y90.343 E44.71521
G1 X90.69 Y89.268 E44.76411
G1 X89.894 Y87.932 E44.81584
G1 X89.843 Y87.788 E44.82092
G1 X89.625 Y86.341 E44.86959
G1 X89.6 Y82.41 E45.00033
G1 X89.913 Y81.13 E45.04416
G1 X90.657 Y79.693 E45.09798
G1 X91.729 Y78.693 E45.14674
G1 X93.066 Y77.895 E45.19853
G1 X93.209 Y77.843 E45.20359
G1 X94.597 Y77.63 E45.2503
G1 X96.6 Y77.615 E45.31692
G1 X96.6 Y73.425 E45.45628
G1 X96.924 Y72.107 E45.50142
G1 X97.657 Y70.693 E45.55439
G0 F18000 X97.979 Y70.94
G1 F6000 X98.974 Y70.012 E45.59965
G1 X100.271 Y69.238 E45.64988
G1 X101.476 Y69.04 E45.6905
G1 X118.529 Y69 E46.25769
G1 X119.75 Y69.3 E46.2995
G1 X121.06 Y69.979 E46.34858
G1 X121.988 Y70.974 E46.39383
G1 X122.762 Y72.271 E46.44407
G1 X122.96 Y73.476 E46.48469
G1 X122.991 Y78 E46.63516
G1 X125.529 Y78 E46.71957
G1 X126.75 Y78.3 E46.76139
G1 X128.06 Y78.979 E46.81047
G1 X128.988 Y79.974 E46.85572
G1 X129.762 Y81.273 E46.90601
G1 X129.975 Y82.662 E46.95275
G1 X130 Y86.541 E47.08177
G1 X129.709 Y87.731 E47.12252
G1 X129.021 Y89.06 E47.17229
G1 X128.026 Y89.988 E47.21754
G1 X126.729 Y90.762 E47.26778
