;FLAVOR:Marlin
;TIME:1519
;Filament used: 1.1915m
;Layer height: 0.1
;MINX:88.487
;MINY:88.511
;MINZ:0.2
;MAXX:131.489
;MAXY:131.489
;MAXZ:14.68
;TARGET_MACHINE.NAME:Creality Ender-3 V3 KE
;Generated with Cura_SteamEngine 5.10.1
M140 S60
M105
M190 S60
M220 S100 ;Reset Feedrate
M221 S100 ;Reset Flowrate

G28 ;Home

G92 E0 ;Reset Extruder
G1 Z2.0 F3000 ;Move Z Axis up
G1 X-2.0 Y20 Z0.28 F5000.0 ;Move to start position
M109 S220.0
G1 X-2.0 Y145.0 Z0.28 F1500.0 E15 ;Draw the first line
G1 X-1.7 Y145.0 Z0.28 F5000.0 ;Move to side a little
G1 X-1.7 Y20 Z0.28 F1500.0 E30 ;Draw the second line
G92 E0 ;Reset Extruder
G1 E-1 F1800 ;Retract a bit
G1 Z2.0 F3000 ;Move Z Axis up
G1 E0 F1800
M82 ;absolute extrusion mode
G92 E0
G92 E0
G1 F2400 E-0.8
;LAYER_COUNT:107
;LAYER:0
M107
M204 S500
G0 F18000 X93.79 Y95.821 Z0.2
;TYPE:SKIRT
G1 F2400 E0
G1 F6000 X95.801 Y93.817 E0.09443
G1 X96.931 Y93.103 E0.13888
G1 X97.672 Y92.297 E0.1753
G1 X100.48 Y90.689 E0.28292
G1 X102.018 Y90.207 E0.33653
G1 X102.104 Y90.188 E0.33946
G1 X103.061 Y89.566 E0.37742
G1 X105.814 Y88.957 E0.4712
G1 X107.042 Y88.838 E0.51224
G1 X107.305 Y88.848 E0.52099
G1 X108.374 Y88.511 E0.55827
G1 X111.267 Y88.511 E0.65449
G1 X112.886 Y88.865 E0.70961
G1 X114.116 Y88.86 E0.75052
G1 X116.941 Y89.611 E0.84775
G1 X118.404 Y90.374 E0.90263
G1 X119.472 Y90.631 E0.93916
G1 X121.92 Y92.087 E1.03389
G1 X122.959 Y93.031 E1.08059
G1 X124.016 Y93.604 E1.12057
G1 X126.149 Y95.774 E1.22178
G1 X126.9 Y96.918 E1.26729
G1 X127.878 Y97.988 E1.31551
G1 X129.366 Y100.577 E1.41483
G1 X129.793 Y102.053 E1.46593
G1 X130.389 Y102.982 E1.50264
G1 X131.096 Y105.868 E1.60147
G1 X131.154 Y107.148 E1.64409
G1 X131.489 Y108.238 E1.68201
G1 X131.488 Y111.299 E1.78382
G1 X131.175 Y112.719 E1.83219
G1 X131.176 Y112.895 E1.83804
G1 X131.072 Y114.383 E1.88765
G1 X130.208 Y117.571 E1.99751
G1 X129.727 Y118.198 E2.0238
G1 X129.43 Y119.38 E2.06433
G1 X127.995 Y121.712 E2.1554
G1 X127.101 Y122.831 E2.20304
G1 X126.979 Y122.947 E2.20864
G1 X126.428 Y123.986 E2.24775
G1 X124.272 Y126.099 E2.34816
G1 X123.112 Y126.85 E2.39412
G1 X122.35 Y127.689 E2.43182
G1 X119.42 Y129.361 E2.54402
G1 X117.911 Y129.809 E2.59638
G1 X116.954 Y130.421 E2.63416
G1 X114.278 Y131.054 E2.72562
G1 X112.661 Y131.165 E2.77953
G1 X111.672 Y131.489 E2.81414
G1 X108.689 Y131.488 E2.91336
G1 X107.213 Y131.179 E2.96351
G1 X107.055 Y131.13 E2.96901
G1 X105.813 Y131.135 E3.01032
G1 X103.039 Y130.32 E3.10649
G1 X101.893 Y129.808 E3.14823
G1 X101.774 Y129.74 E3.15279
G1 X100.971 Y129.618 E3.17981
G1 X98.192 Y127.94 E3.28778
G1 X97.366 Y127.286 E3.32282
G1 X97.161 Y127.079 E3.33251
G1 X97.072 Y127.029 E3.33591
G1 X95.741 Y126.151 E3.38894
G1 X93.858 Y124.168 E3.47989
G1 X93.171 Y123.238 E3.51835
G1 X93.039 Y123 E3.5274
G1 X92.283 Y122.318 E3.56126
G1 X90.664 Y119.473 E3.67014
G1 X90.192 Y117.916 E3.72425
G1 X89.605 Y117.002 E3.76038
G1 X88.788 Y113.71 E3.8732
G1 X88.853 Y112.73 E3.90586
G1 X88.487 Y111.459 E3.94985
G1 X88.608 Y108.293 E4.05523
G1 X88.805 Y107.229 E4.09122
G1 X88.871 Y107.03 E4.0982
G1 X88.836 Y105.97 E4.13347
G1 X89.611 Y103.096 E4.23247
G1 X90.267 Y101.783 E4.28129
G1 X90.368 Y101.621 E4.28764
G1 X90.704 Y100.397 E4.32986
G1 X92.029 Y98.238 E4.41411
G1 X92.891 Y97.169 E4.45979
G1 X93.037 Y97.005 E4.46709
G1 X93.79 Y95.821 E4.51376
G0 F18000 X94.107 Y96.069
G1 F6000 X96.05 Y94.133 E4.60499
G1 X97.191 Y93.412 E4.64988
G1 X97.926 Y92.612 E4.68601
G1 X100.639 Y91.059 E4.78998
G1 X102.138 Y90.589 E4.84223
G1 X102.257 Y90.565 E4.84627
G1 X103.216 Y89.942 E4.88431
G1 X105.9 Y89.348 E4.97574
G1 X107.08 Y89.236 E5.01516
G1 X107.358 Y89.251 E5.02442
G1 X108.437 Y88.911 E5.06205
G1 X111.223 Y88.911 E5.15471
G1 X112.843 Y89.265 E5.20986
G1 X114.063 Y89.26 E5.25044
G1 X116.796 Y89.987 E5.3445
G1 X118.262 Y90.751 E5.39949
G1 X119.32 Y91.006 E5.43568
G1 X121.681 Y92.41 E5.52705
G1 X122.727 Y93.361 E5.57407
G1 X123.775 Y93.929 E5.61371
G1 X125.837 Y96.027 E5.71155
G1 X126.585 Y97.167 E5.7569
G1 X127.553 Y98.225 E5.8046
G1 X128.996 Y100.736 E5.90092
G1 X129.426 Y102.222 E5.95237
G1 X130.016 Y103.142 E5.98873
G1 X130.698 Y105.925 E6.08403
G1 X130.756 Y107.215 E6.12698
G1 X131.089 Y108.297 E6.16463
G1 X131.088 Y111.254 E6.26298
G1 X130.774 Y112.677 E6.31145
G1 X130.777 Y112.867 E6.31777
G1 X130.676 Y114.316 E6.36608
G1 X129.842 Y117.392 E6.47208
G1 X129.359 Y118.022 E6.49848
G1 X129.057 Y119.222 E6.53964
G1 X127.654 Y121.502 E6.62868
G1 X126.825 Y122.541 E6.67289
G1 X126.657 Y122.701 E6.68061
G1 X126.104 Y123.743 E6.71984
G1 X124.02 Y125.786 E6.81691
G1 X122.851 Y126.543 E6.86323
G1 X122.096 Y127.374 E6.90057
G1 X119.263 Y128.99 E7.00905
G1 X117.866 Y129.41 E7.05757
G1 X117.759 Y129.432 E7.0612
G1 X116.796 Y130.047 E7.09921
G1 X114.251 Y130.655 E7.18623
G1 X112.583 Y130.769 E7.24184
G1 X111.608 Y131.089 E7.27597
G1 X108.733 Y131.088 E7.3716
G1 X107.295 Y130.787 E7.42046
G1 X107.116 Y130.73 E7.42671
G1 X105.87 Y130.735 E7.46815
G1 X103.202 Y129.955 E7.5606
G1 X102.056 Y129.443 E7.60235
G1 X101.912 Y129.357 E7.60793
G1 X101.111 Y129.235 E7.63488
G1 X98.44 Y127.626 E7.73859
G1 X97.614 Y126.972 E7.77363
G1 X97.406 Y126.757 E7.78358
G1 X97.292 Y126.695 E7.7879
G1 X96.001 Y125.843 E7.83934
G1 X94.18 Y123.93 E7.92719
G1 X93.493 Y123 E7.96564
G1 X93.358 Y122.749 E7.97512
G1 X92.6 Y122.065 E8.00908
G1 X91.034 Y119.313 E8.1144
G1 X90.56 Y117.749 E8.16875
G1 X89.977 Y116.842 E8.20461
G1 X89.191 Y113.675 E8.31314
G1 X89.257 Y112.687 E8.34608
G1 X88.889 Y111.412 E8.39021
G1 X89.002 Y108.364 E8.49166
G1 X89.185 Y107.355 E8.52577
G1 X89.273 Y107.089 E8.53509
G1 X89.238 Y106.015 E8.57083
G1 X89.986 Y103.241 E8.66639
G1 X90.625 Y101.962 E8.71394
G1 X90.739 Y101.783 E8.721
G1 X91.075 Y100.557 E8.76328
G1 X92.341 Y98.489 E8.84393
G1 X93.19 Y97.435 E8.88894
G1 X93.359 Y97.245 E8.8974
G1 X94.107 Y96.069 E8.94375
G0 F18000 X94.424 Y96.317
G1 F6000 X96.299 Y94.449 E9.03178
G1 X97.449 Y93.722 E9.07703
G1 X98.178 Y92.929 E9.11286
G1 X100.799 Y91.429 E9.2133
G1 X102.258 Y90.971 E9.26416
G1 X102.406 Y90.945 E9.26916
G1 X103.371 Y90.318 E9.30744
G1 X105.986 Y89.739 E9.39652
G1 X107.117 Y89.634 E9.4343
G1 X107.405 Y89.656 E9.44391
G1 X108.5 Y89.311 E9.48209
G1 X111.18 Y89.311 E9.57123
G1 X112.677 Y89.632 E9.62215
G1 X112.784 Y89.665 E9.62587
G1 X114.01 Y89.66 E9.66665
G1 X116.653 Y90.363 E9.75761
G1 X118.007 Y91.063 E9.80831
G1 X118.101 Y91.124 E9.81204
G1 X119.168 Y91.381 E9.84854
G1 X121.442 Y92.733 E9.93653
G1 X122.495 Y93.691 E9.98388
G1 X123.534 Y94.254 E10.02319
G1 X125.525 Y96.28 E10.11766
G1 X126.27 Y97.416 E10.16285
G1 X127.228 Y98.462 E10.21002
G1 X128.625 Y100.894 E10.30331
G1 X129.03 Y102.282 E10.3514
G1 X129.049 Y102.376 E10.35459
G1 X129.644 Y103.304 E10.39125
G1 X130.3 Y105.977 E10.48279
G1 X130.358 Y107.282 E10.52624
G1 X130.689 Y108.356 E10.56362
G1 X130.688 Y111.209 E10.65851
G1 X130.372 Y112.639 E10.70722
G1 X130.378 Y112.839 E10.71388
G1 X130.28 Y114.249 E10.76089
G1 X129.477 Y117.211 E10.86296
G1 X128.991 Y117.844 E10.8895
G1 X128.685 Y119.063 E10.93131
G1 X127.313 Y121.292 E11.01836
G1 X126.513 Y122.291 E11.06093
G1 X126.337 Y122.451 E11.06884
G1 X125.781 Y123.499 E11.1083
G1 X123.768 Y125.473 E11.20207
G1 X122.59 Y126.236 E11.24875
G1 X121.842 Y127.059 E11.28574
G1 X119.106 Y128.62 E11.39051
G1 X117.751 Y129.027 E11.43757
G1 X117.612 Y129.052 E11.44226
G1 X116.639 Y129.673 E11.48066
G1 X114.223 Y130.256 E11.56332
G1 X112.603 Y130.37 E11.61733
G1 X112.528 Y130.366 E11.61983
G1 X111.544 Y130.689 E11.65428
G1 X108.777 Y130.688 E11.74631
G1 X107.377 Y130.395 E11.79388
G1 X107.181 Y130.33 E11.80075
G1 X105.926 Y130.335 E11.84249
G1 X103.365 Y129.59 E11.9312
G1 X102.219 Y129.078 E11.97295
G1 X102.056 Y128.975 E11.97936
G1 X101.251 Y128.852 E12.00645
G1 X98.688 Y127.312 E12.1059
G1 X97.862 Y126.658 E12.14094
G1 X97.651 Y126.434 E12.15117
G1 X97.512 Y126.361 E12.1564
G1 X96.258 Y125.533 E12.20638
G1 X94.502 Y123.692 E12.291
G1 X93.815 Y122.762 E12.32945
G1 X93.681 Y122.501 E12.33921
G1 X92.917 Y121.812 E12.37343
G1 X91.403 Y119.152 E12.47523
G1 X90.963 Y117.724 E12.52493
G1 X90.939 Y117.6 E12.52913
G1 X90.349 Y116.682 E12.56542
G1 X89.594 Y113.64 E12.66967
G1 X89.661 Y112.644 E12.70287
G1 X89.291 Y111.364 E12.74719
G1 X89.396 Y108.435 E12.84467
G1 X89.579 Y107.426 E12.87877
G1 X89.675 Y107.151 E12.88846
G1 X89.64 Y106.06 E12.92477
G1 X90.361 Y103.386 E13.01688
G1 X90.983 Y102.141 E13.06317
G1 X91.109 Y101.947 E13.07086
G1 X91.447 Y100.715 E13.11336
G1 X92.653 Y98.74 E13.19032
G1 X93.489 Y97.701 E13.23468
G1 X93.681 Y97.485 E13.24429
G1 X94.424 Y96.317 E13.29033
G0 F18000 X94.741 Y96.565
G1 F6000 X96.548 Y94.765 E13.37516
G1 X97.709 Y94.031 E13.42085
G1 X98.432 Y93.244 E13.45639
G1 X100.961 Y91.797 E13.5533
G1 X102.328 Y91.365 E13.60099
G1 X102.557 Y91.324 E13.60872
G1 X103.529 Y90.693 E13.64727
G1 X106.072 Y90.13 E13.7339
G1 X107.153 Y90.032 E13.77
G1 X107.444 Y90.063 E13.77973
G1 X108.56 Y89.711 E13.81865
G1 X111.138 Y89.711 E13.9044
G1 X112.593 Y90.023 E13.95389
G1 X112.721 Y90.065 E13.95837
G1 X113.957 Y90.06 E13.99948
G1 X116.511 Y90.74 E14.08739
G1 X117.823 Y91.418 E14.13651
G1 X117.936 Y91.496 E14.14107
G1 X119.014 Y91.755 E14.17795
G1 X121.204 Y93.058 E14.2627
G1 X122.187 Y93.947 E14.30679
G1 X122.247 Y94.012 E14.30973
G1 X123.293 Y94.579 E14.3493
G1 X125.21 Y96.529 E14.44025
G1 X125.952 Y97.661 E14.48527
G1 X126.903 Y98.699 E14.53209
G1 X128.254 Y101.052 E14.62233
G1 X128.646 Y102.394 E14.66884
G1 X128.667 Y102.523 E14.67318
G1 X129.272 Y103.466 E14.71045
G1 X129.902 Y106.029 E14.79823
G1 X129.96 Y107.349 E14.84218
G1 X130.289 Y108.416 E14.87931
G1 X130.288 Y111.164 E14.97071
G1 X129.97 Y112.604 E15.01976
G1 X129.979 Y112.811 E15.02665
G1 X129.884 Y114.182 E15.07236
G1 X129.111 Y117.032 E15.17058
G1 X128.623 Y117.668 E15.19724
G1 X128.312 Y118.905 E15.23966
G1 X126.972 Y121.082 E15.32469
G1 X126.201 Y122.04 E15.36559
G1 X126.019 Y122.197 E15.37358
G1 X125.457 Y123.256 E15.41346
G1 X123.516 Y125.159 E15.50387
G1 X122.44 Y125.863 E15.54663
G1 X122.341 Y125.915 E15.55035
G1 X121.588 Y126.744 E15.5876
G1 X118.949 Y128.25 E15.68866
G1 X117.679 Y128.633 E15.73278
G1 X117.465 Y128.672 E15.74002
G1 X116.482 Y129.299 E15.7788
G1 X114.194 Y129.857 E15.85713
G1 X112.622 Y129.97 E15.90955
G1 X112.475 Y129.963 E15.91444
G1 X111.48 Y130.289 E15.94927
G1 X108.821 Y130.288 E16.0377
G1 X107.459 Y130.003 E16.08399
G1 X107.248 Y129.93 E16.09141
G1 X105.981 Y129.935 E16.13355
G1 X103.527 Y129.224 E16.21853
G1 X102.432 Y128.739 E16.25836
G1 X102.2 Y128.593 E16.26748
G1 X101.39 Y128.469 E16.29473
G1 X98.936 Y126.998 E16.38989
G1 X98.11 Y126.344 E16.42494
G1 X97.896 Y126.108 E16.43553
G1 X97.732 Y126.027 E16.44162
G1 X96.515 Y125.223 E16.49013
G1 X94.824 Y123.454 E16.57152
G1 X94.137 Y122.524 E16.60998
G1 X94.007 Y122.257 E16.61986
G1 X93.234 Y121.559 E16.6545
G1 X91.771 Y118.99 E16.75283
G1 X91.345 Y117.606 E16.80099
G1 X91.319 Y117.451 E16.80622
G1 X90.721 Y116.52 E16.84302
G1 X89.997 Y113.605 E16.94292
G1 X90.065 Y112.601 E16.97639
G1 X89.693 Y111.316 E17.02088
G1 X89.79 Y108.506 E17.1144
G1 X89.973 Y107.497 E17.14851
G1 X90.078 Y107.217 E17.15845
G1 X90.042 Y106.105 E17.19546
G1 X90.736 Y103.531 E17.28413
G1 X91.341 Y102.32 E17.32915
G1 X91.478 Y102.117 E17.3373
G1 X91.818 Y100.875 E17.38013
G1 X92.965 Y98.991 E17.45349
G1 X93.801 Y97.952 E17.49784
G1 X93.966 Y97.804 E17.50521
G1 X94.019 Y97.7 E17.5091
G1 X94.741 Y96.565 E17.55384
G0 F18000 X95.058 Y96.813
G1 F6000 X96.797 Y95.081 E17.63547
G1 X97.906 Y94.378 E17.67914
G1 X97.955 Y94.355 E17.68094
G1 X98.686 Y93.559 E17.71689
G1 X101.123 Y92.165 E17.81027
G1 X102.449 Y91.746 E17.85652
G1 X102.703 Y91.706 E17.86507
G1 X103.686 Y91.067 E17.90407
G1 X106.108 Y90.528 E17.98659
G1 X107.146 Y90.434 E18.02126
G1 X107.482 Y90.47 E18.0325
G1 X108.62 Y90.111 E18.07219
G1 X111.096 Y90.111 E18.15454
G1 X112.509 Y90.414 E18.2026
G1 X112.653 Y90.465 E18.20768
G1 X113.904 Y90.46 E18.24929
G1 X116.367 Y91.116 E18.33407
G1 X117.596 Y91.748 E18.38003
G1 X117.769 Y91.867 E18.38702
G1 X118.861 Y92.13 E18.42438
G1 X120.967 Y93.383 E18.50588
G1 X121.893 Y94.218 E18.54735
G1 X121.999 Y94.333 E18.55256
G1 X123.052 Y94.904 E18.5924
G1 X124.895 Y96.778 E18.67982
G1 X125.634 Y97.906 E18.72467
G1 X126.578 Y98.936 E18.77114
G1 X127.883 Y101.209 E18.85831
G1 X128.251 Y102.459 E18.90165
G1 X128.286 Y102.67 E18.90877
G1 X128.9 Y103.628 E18.94661
G1 X129.504 Y106.083 E19.0307
G1 X129.562 Y107.416 E19.07508
G1 X129.889 Y108.476 E19.11197
G1 X129.888 Y111.12 E19.19991
G1 X129.599 Y112.449 E19.24515
G1 X129.566 Y112.551 E19.24871
G1 X129.58 Y112.783 E19.25645
G1 X129.488 Y114.115 E19.30085
G1 X128.745 Y116.853 E19.39521
G1 X128.255 Y117.492 E19.422
G1 X127.939 Y118.747 E19.46504
G1 X126.631 Y120.872 E19.54803
G1 X125.939 Y121.737 E19.58488
G1 X125.702 Y121.942 E19.5953
G1 X125.133 Y123.013 E19.63564
G1 X123.264 Y124.846 E19.72271
G1 X122.221 Y125.528 E19.76415
G1 X122.094 Y125.592 E19.76888
G1 X121.334 Y126.429 E19.80649
G1 X118.793 Y127.879 E19.90379
G1 X117.563 Y128.25 E19.94652
G1 X117.32 Y128.29 E19.95471
G1 X116.325 Y128.925 E19.99397
G1 X114.099 Y129.468 E20.07018
G1 X112.595 Y129.571 E20.12032
G1 X112.428 Y129.558 E20.12589
G1 X111.417 Y129.889 E20.16128
G1 X108.865 Y129.888 E20.24615
G1 X107.541 Y129.611 E20.29114
G1 X107.32 Y129.53 E20.29897
G1 X106.036 Y129.535 E20.34168
G1 X103.689 Y128.858 E20.42292
G1 X102.594 Y128.373 E20.46276
G1 X102.348 Y128.211 E20.47255
G1 X101.528 Y128.086 E20.50014
G1 X99.184 Y126.684 E20.59098
G1 X98.358 Y126.03 E20.62603
G1 X98.141 Y125.782 E20.63699
G1 X97.952 Y125.693 E20.64393
G1 X96.774 Y124.915 E20.69089
G1 X95.146 Y123.216 E20.76915
G1 X94.459 Y122.286 E20.80761
G1 X94.338 Y122.017 E20.81742
G1 X93.551 Y121.306 E20.8527
G1 X92.14 Y118.829 E20.94751
G1 X91.74 Y117.54 E20.9924
G1 X91.701 Y117.306 E21.00029
G1 X91.093 Y116.36 E21.03769
G1 X90.4 Y113.57 E21.13331
G1 X90.469 Y112.558 E21.16704
G1 X90.095 Y111.268 E21.21172
G1 X90.184 Y108.577 E21.30127
G1 X90.367 Y107.568 E21.33538
G1 X90.481 Y107.288 E21.34543
G1 X90.444 Y106.15 E21.3833
G1 X91.111 Y103.676 E21.46852
G1 X91.699 Y102.499 E21.51229
G1 X91.846 Y102.288 E21.52084
G1 X92.189 Y101.035 E21.56405
G1 X93.307 Y99.199 E21.63554
G1 X94.068 Y98.25 E21.676
G1 X94.292 Y98.049 E21.68601
G1 X94.357 Y97.915 E21.69097
G1 X95.058 Y96.813 E21.7344
G0 F18000 X95.375 Y97.061
G1 F6000 X97.047 Y95.396 E21.81289
G1 X98.079 Y94.739 E21.85358
G1 X98.196 Y94.683 E21.85789
G1 X98.938 Y93.876 E21.89435
G1 X101.285 Y92.533 E21.98429
G1 X102.57 Y92.127 E22.02911
G1 X102.846 Y92.09 E22.03837
G1 X103.843 Y91.442 E22.07792
G1 X106.144 Y90.926 E22.15636
G1 X107.182 Y90.832 E22.19102
G1 X107.515 Y90.879 E22.20221
G1 X108.68 Y90.511 E22.24284
G1 X111.054 Y90.511 E22.3218
G1 X112.425 Y90.805 E22.36844
G1 X112.576 Y90.865 E22.37384
G1 X113.851 Y90.86 E22.41625
G1 X116.223 Y91.492 E22.49789
G1 X117.413 Y92.104 E22.5424
G1 X117.6 Y92.238 E22.55005
G1 X118.707 Y92.504 E22.58792
G1 X120.73 Y93.708 E22.66622
G1 X121.625 Y94.515 E22.7063
G1 X121.746 Y94.652 E22.71238
G1 X122.809 Y95.228 E22.75259
G1 X124.582 Y97.03 E22.83668
G1 X125.22 Y98.004 E22.8754
G1 X125.371 Y98.21 E22.8839
G1 X126.253 Y99.173 E22.92733
G1 X127.512 Y101.366 E23.01144
G1 X127.867 Y102.572 E23.05325
G1 X127.904 Y102.816 E23.06146
G1 X128.529 Y103.79 E23.09995
G1 X129.105 Y106.135 E23.18026
G1 X129.164 Y107.369 E23.22135
G1 X129.158 Y107.464 E23.22452
G1 X129.489 Y108.536 E23.26183
G1 X129.488 Y111.076 E23.34631
G1 X129.208 Y112.364 E23.39015
G1 X129.159 Y112.495 E23.39481
G1 X129.181 Y112.756 E23.40352
G1 X129.092 Y114.048 E23.44659
G1 X128.379 Y116.674 E23.53709
G1 X127.887 Y117.316 E23.564
G1 X127.566 Y118.589 E23.60766
G1 X126.29 Y120.662 E23.68863
G1 X125.627 Y121.486 E23.7238
G1 X125.386 Y121.684 E23.73418
G1 X124.809 Y122.77 E23.77508
G1 X123.012 Y124.533 E23.85881
G1 X122.002 Y125.193 E23.89894
G1 X121.851 Y125.265 E23.9045
G1 X121.08 Y126.114 E23.94264
G1 X118.637 Y127.508 E24.0362
G1 X117.447 Y127.867 E24.07754
G1 X117.178 Y127.906 E24.08658
G1 X116.168 Y128.551 E24.12644
G1 X114.004 Y129.079 E24.20052
G1 X112.569 Y129.172 E24.24835
G1 X112.385 Y129.151 E24.25451
