;FLAVOR:Marlin
;TIME:855
;Filament used: 1.10606m
;Layer height: 0.2
;MINX:85.468
;MINY:66.2
;MINZ:0.2
;MAXX:134.55
;MAXY:134.1
;MAXZ:9.8
;TARGET_MACHINE.NAME:Creality Ender-3 V3 KE
;Generated with Cura_SteamEngine 5.10.1
M140 S60
M105
M190 S60
M220 S100 ;Reset Feedrate
M221 S100 ;Reset Flowrate

G28 ;Home

G92 E0 ;Reset Extruder
G1 Z2.0 F3000 ;Move Z Axis up
G1 X-2.0 Y20 Z0.28 F5000.0 ;Move to start position
M109 S220.0
G1 X-2.0 Y145.0 Z0.28 F1500.0 E15 ;Draw the first line
G1 X-1.7 Y145.0 Z0.28 F5000.0 ;Move to side a little
G1 X-1.7 Y20 Z0.28 F1500.0 E30 ;Draw the second line
G92 E0 ;Reset Extruder
G1 E-1 F1800 ;Retract a bit
G1 Z2.0 F3000 ;Move Z Axis up
G1 E0 F1800
M82 ;absolute extrusion mode
G92 E0
G92 E0
G1 F2400 E-0.8
;LAYER_COUNT:44
;LAYER:0
M107
M204 S500
G0 F18000 X88.495 Y72.628 Z0.2
;TYPE:SKIRT
G1 F2400 E0
G1 F6000 X90.977 Y70.011 E0.11996
G1 X92.769 Y68.748 E0.19288
G1 X96.448 Y67.722 E0.31991
G1 X97.478 Y67.645 E0.35427
G1 X99.301 Y66.557 E0.42488
G1 X101.021 Y66.275 E0.48285
G1 X118.849 Y66.2 E1.07582
G1 X120.751 Y66.667 E1.14096
G1 X122.528 Y67.594 E1.20762
G1 X122.99 Y67.56 E1.22303
G1 X126.715 Y68.603 E1.35169
G1 X128.67 Y69.62 E1.42498
G1 X131.093 Y72.215 E1.54307
G1 X132.255 Y73.873 E1.61041
G1 X133.277 Y77.361 E1.73129
G1 X133.46 Y79.612 E1.80641
G1 X132.73 Y82.194 E1.89565
G1 X132.769 Y82.542 E1.9073
G1 X132.794 Y86.075 E2.02481
G1 X133.357 Y86.955 E2.05956
G1 X134.367 Y90.401 E2.17899
G1 X134.55 Y92.64 E2.25371
G1 X133.464 Y96.494 E2.38689
G1 X132.501 Y98.318 E2.45549
G1 X129.887 Y100.932 E2.57845
G1 X128.089 Y102.076 E2.64933
G1 X125.1 Y102.922 E2.75265
G1 X125.089 Y103.243 E2.76333
G1 X124.902 Y104.006 E2.78946
G1 X125.03 Y104.774 E2.81535
G1 X125.1 Y115.17 E3.16113
G1 X124.901 Y115.999 E3.18949
G1 X125.03 Y116.774 E3.21562
G1 X125.1 Y127.142 E3.56047
G1 X124.632 Y129.051 E3.62584
G1 X123.581 Y131.077 E3.70176
G1 X122.02 Y132.536 E3.77282
G1 X119.997 Y133.743 E3.85117
G1 X118.279 Y134.025 E3.90908
G1 X101.852 Y134.1 E4.45545
G1 X99.95 Y133.633 E4.52059
G1 X97.923 Y132.581 E4.59655
G1 X96.464 Y131.02 E4.66761
G1 X95.296 Y129.061 E4.74347
G1 X95.245 Y128.92 E4.74846
G1 X94.965 Y127.155 E4.8079
G1 X94.9 Y116.83 E5.15131
G1 X95.099 Y116 E5.1797
G1 X94.97 Y115.226 E5.2058
G1 X94.9 Y104.828 E5.55165
G1 X95.102 Y103.987 E5.58041
G1 X94.946 Y102.943 E5.61552
G1 X92.236 Y102.149 E5.70945
G1 X90.414 Y101.164 E5.77834
G1 X87.779 Y98.529 E5.90228
G1 X86.637 Y96.751 E5.97256
G1 X85.631 Y93.319 E6.09151
G1 X85.468 Y90.957 E6.17026
G1 X86.535 Y87.318 E6.29639
G1 X87.222 Y85.996 E6.34594
G1 X87.2 Y82.336 E6.46768
G1 X87.24 Y82.056 E6.47709
G1 X86.721 Y80.298 E6.53805
G1 X86.558 Y77.917 E6.61743
G1 X87.617 Y74.309 E6.74249
G1 X88.495 Y72.628 E6.80557
G0 F18000 X88.825 Y72.861
G1 F6000 X91.239 Y70.315 E6.92226
G1 X92.943 Y69.115 E6.99158
G1 X96.516 Y68.118 E7.11496
G1 X97.601 Y68.037 E7.15115
G1 X99.439 Y66.94 E7.22234
G1 X101.086 Y66.67 E7.27785
G1 X118.804 Y66.6 E7.86716
G1 X120.607 Y67.043 E7.92891
G1 X122.288 Y67.914 E7.99188
G1 X122.415 Y68.004 E7.99706
G1 X122.95 Y67.964 E8.0149
G1 X126.565 Y68.976 E8.13976
G1 X128.426 Y69.944 E8.20953
G1 X130.765 Y72.445 E8.32342
G1 X131.89 Y74.05 E8.38861
G1 X132.881 Y77.433 E8.50586
G1 X133.055 Y79.573 E8.57727
G1 X132.323 Y82.162 E8.66676
G1 X132.369 Y82.545 E8.67959
G1 X132.395 Y86.193 E8.80092
G1 X132.988 Y87.121 E8.83755
G1 X133.971 Y90.474 E8.95377
G1 X134.145 Y92.602 E9.02478
G1 X133.091 Y96.343 E9.15405
G1 X132.175 Y98.078 E9.21931
G1 X129.636 Y100.617 E9.33873
G1 X127.922 Y101.707 E9.40629
G1 X124.699 Y102.62 E9.51771
G1 X124.7 Y103.148 E9.53527
G1 X124.494 Y103.991 E9.56413
G1 X124.635 Y104.84 E9.59276
G1 X124.7 Y115.124 E9.93481
G1 X124.493 Y115.986 E9.9643
G1 X124.635 Y116.84 E9.99309
G1 X124.7 Y127.097 E10.33425
G1 X124.256 Y128.908 E10.39627
G1 X123.258 Y130.832 E10.46835
G1 X121.781 Y132.212 E10.53559
G1 X119.857 Y133.36 E10.6101
G1 X118.214 Y133.63 E10.66548
G1 X101.897 Y133.7 E11.20819
G1 X100.093 Y133.257 E11.26998
G1 X98.168 Y132.258 E11.34211
G1 X96.788 Y130.781 E11.40934
G1 X95.64 Y128.856 E11.48389
G1 X95.365 Y127.152 E11.5413
G1 X95.3 Y116.876 E11.88309
G1 X95.507 Y116.013 E11.9126
G1 X95.365 Y115.16 E11.94136
G1 X95.3 Y104.874 E12.28349
G1 X95.509 Y104.003 E12.31328
G1 X95.344 Y102.908 E12.35011
G1 X95.338 Y102.641 E12.35899
G1 X92.388 Y101.776 E12.46124
G1 X90.656 Y100.84 E12.52672
G1 X88.093 Y98.277 E12.64728
G1 X87.004 Y96.582 E12.71428
G1 X86.027 Y93.248 E12.82984
G1 X85.872 Y91.002 E12.90472
G1 X86.909 Y87.466 E13.02728
G1 X87.623 Y86.092 E13.07878
G1 X87.6 Y82.334 E13.20377
G1 X87.649 Y82.029 E13.21405
G1 X87.117 Y80.225 E13.2766
G1 X86.962 Y77.962 E13.35205
G1 X87.99 Y74.46 E13.47344
G1 X88.825 Y72.861 E13.53344
G0 F18000 X89.155 Y73.094
G1 F6000 X91.501 Y70.619 E13.64686
G1 X93.117 Y69.481 E13.7126
G1 X96.583 Y68.514 E13.83228
G1 X97.764 Y68.426 E13.87167
G1 X97.888 Y68.331 E13.87686
G1 X99.577 Y67.323 E13.94229
G1 X101.151 Y67.065 E13.99534
G1 X118.759 Y67 E14.58098
G1 X120.464 Y67.419 E14.63938
G1 X122.104 Y68.269 E14.70082
G1 X122.29 Y68.415 E14.70868
G1 X122.911 Y68.368 E14.7294
G1 X126.415 Y69.349 E14.85042
G1 X128.182 Y70.268 E14.91666
G1 X130.437 Y72.675 E15.02637
G1 X131.525 Y74.227 E15.08941
G1 X132.485 Y77.505 E15.20301
G1 X132.65 Y79.534 E15.27072
G1 X131.915 Y82.133 E15.36055
G1 X131.969 Y82.548 E15.37447
G1 X131.996 Y86.311 E15.49963
G1 X132.62 Y87.287 E15.53816
G1 X133.575 Y90.546 E15.65112
G1 X133.74 Y92.564 E15.71846
G1 X132.718 Y96.192 E15.84382
G1 X131.849 Y97.838 E15.90573
G1 X129.383 Y100.304 E16.02172
G1 X127.758 Y101.338 E16.08578
G1 X124.299 Y102.318 E16.20536
G1 X124.3 Y103.098 E16.2313
G1 X124.085 Y103.976 E16.26137
G1 X124.24 Y104.906 E16.29273
G1 X124.3 Y115.078 E16.63105
G1 X124.085 Y115.973 E16.66167
G1 X124.24 Y116.906 E16.69313
G1 X124.3 Y127.052 E17.03059
G1 X123.88 Y128.765 E17.08925
G1 X122.935 Y130.587 E17.15752
G1 X121.539 Y131.891 E17.22105
G1 X119.719 Y132.977 E17.29155
G1 X118.149 Y133.235 E17.34446
G1 X101.942 Y133.3 E17.88352
G1 X100.236 Y132.881 E17.94194
G1 X98.413 Y131.935 E18.01025
G1 X97.109 Y130.539 E18.07379
G1 X96.023 Y128.719 E18.14428
G1 X95.765 Y127.149 E18.1972
G1 X95.7 Y116.922 E18.53736
G1 X95.915 Y116.026 E18.56801
G1 X95.76 Y115.094 E18.59943
G1 X95.7 Y104.921 E18.93779
G1 X95.917 Y104.02 E18.96862
G1 X95.74 Y102.848 E19.00804
G1 X95.735 Y102.293 E19.0265
G1 X95.472 Y102.263 E19.0353
G1 X92.541 Y101.404 E19.13689
G1 X90.898 Y100.516 E19.19901
G1 X88.407 Y98.025 E19.31618
G1 X87.372 Y96.414 E19.37986
G1 X86.423 Y93.176 E19.49209
G1 X86.276 Y91.047 E19.56307
G1 X87.282 Y87.616 E19.68199
G1 X88.024 Y86.189 E19.73548
G1 X88 Y82.332 E19.86377
G1 X88.06 Y82.006 E19.87479
G1 X87.513 Y80.152 E19.93909
G1 X87.366 Y78.007 E20.0106
G1 X88.363 Y74.611 E20.12832
G1 X89.155 Y73.094 E20.18523
G0 F18000 X89.485 Y73.327
G1 F6000 X91.763 Y70.923 E20.29539
G1 X93.291 Y69.847 E20.35755
G1 X96.65 Y68.91 E20.47353
G1 X97.919 Y68.816 E20.51585
G1 X98.093 Y68.674 E20.52332
G1 X99.715 Y67.706 E20.58615
G1 X101.216 Y67.46 E20.63674
G1 X118.714 Y67.4 E21.21873
G1 X120.321 Y67.795 E21.27377
G1 X121.92 Y68.624 E21.33367
G1 X122.155 Y68.826 E21.34398
G1 X122.872 Y68.772 E21.36789
G1 X126.267 Y69.723 E21.48516
G1 X127.935 Y70.59 E21.54768
G1 X130.109 Y72.905 E21.65331
G1 X131.16 Y74.404 E21.7142
G1 X132.089 Y77.577 E21.82417
G1 X132.245 Y79.495 E21.88817
G1 X131.507 Y82.104 E21.97835
G1 X131.572 Y82.6 E21.99499
G1 X131.597 Y86.43 E22.12238
G1 X132.253 Y87.455 E22.16285
G1 X133.179 Y90.618 E22.27247
G1 X133.335 Y92.526 E22.33614
G1 X132.345 Y96.041 E22.4576
G1 X131.523 Y97.598 E22.51616
G1 X129.129 Y99.992 E22.62877
G1 X127.594 Y100.969 E22.68929
G1 X123.899 Y102.016 E22.81702
G1 X123.9 Y103.048 E22.85134
G1 X123.677 Y103.961 E22.8826
G1 X123.845 Y104.972 E22.91669
G1 X123.9 Y115.032 E23.25129
G1 X123.677 Y115.96 E23.28304
G1 X123.845 Y116.972 E23.31716
G1 X123.9 Y127.007 E23.65093
G1 X123.504 Y128.622 E23.70623
G1 X122.612 Y130.342 E23.77068
G1 X121.297 Y131.57 E23.83052
G1 X119.581 Y132.594 E23.89698
G1 X118.084 Y132.84 E23.94744
G1 X101.987 Y132.9 E24.48283
G1 X100.379 Y132.505 E24.53791
G1 X98.658 Y131.612 E24.60239
G1 X97.43 Y130.297 E24.66224
G1 X96.406 Y128.581 E24.7287
G1 X96.16 Y127.084 E24.77916
G1 X96.1 Y116.968 E25.11562
G1 X96.323 Y116.039 E25.1474
G1 X96.155 Y115.028 E25.18149
G1 X96.1 Y104.968 E25.51609
G1 X96.324 Y104.038 E25.5479
G1 X96.14 Y102.844 E25.58809
G1 X96.131 Y101.923 E25.61872
G1 X95.584 Y101.879 E25.63697
G1 X92.694 Y101.032 E25.73714
G1 X91.14 Y100.192 E25.79589
G1 X88.721 Y97.773 E25.90967
G1 X87.74 Y96.246 E25.97004
G1 X86.819 Y93.104 E26.07894
G1 X86.68 Y91.092 E26.14602
G1 X87.656 Y87.764 E26.26137
G1 X88.334 Y86.459 E26.31028
G1 X88.425 Y86.332 E26.31548
G1 X88.4 Y82.33 E26.44859
G1 X88.472 Y81.989 E26.46018
G1 X87.909 Y80.079 E26.52641
G1 X87.77 Y78.052 E26.59399
G1 X88.736 Y74.762 E26.70803
G1 X89.485 Y73.327 E26.76187
G0 F18000 X89.815 Y73.56
G1 F6000 X92.025 Y71.227 E26.86875
G1 X93.465 Y70.213 E26.92733
G1 X96.716 Y69.306 E27.03959
G1 X98.08 Y69.205 E27.08508
G1 X98.298 Y69.017 E27.09466
G1 X99.853 Y68.089 E27.15488
G1 X101.281 Y67.855 E27.20301
G1 X118.668 Y67.8 E27.78131
G1 X120.178 Y68.171 E27.83303
G1 X121.736 Y68.979 E27.8914
G1 X122.009 Y69.238 E27.90392
G1 X122.833 Y69.176 E27.9314
G1 X126.119 Y70.097 E28.04491
G1 X127.689 Y70.913 E28.10376
G1 X129.817 Y73.179 E28.20715
G1 X130.795 Y74.58 E28.26397
G1 X131.693 Y77.649 E28.37033
G1 X131.84 Y79.456 E28.43063
G1 X131.099 Y82.075 E28.52116
G1 X131.175 Y82.652 E28.54051
G1 X131.198 Y86.549 E28.67013
G1 X131.885 Y87.623 E28.71254
G1 X132.783 Y90.69 E28.81883
G1 X132.93 Y92.488 E28.87883
G1 X131.972 Y95.89 E28.99638
G1 X131.197 Y97.358 E29.05159
G1 X128.875 Y99.68 E29.16081
G1 X127.43 Y100.6 E29.21779
G1 X123.865 Y101.61 E29.34103
G1 X123.499 Y101.606 E29.3532
G1 X123.5 Y102.998 E29.3995
G1 X123.269 Y103.946 E29.43195
G1 X123.445 Y104.974 E29.46664
G1 X123.5 Y114.985 E29.79961
G1 X123.269 Y115.945 E29.83245
G1 X123.445 Y116.974 E29.86718
G1 X123.5 Y126.962 E30.19938
G1 X123.128 Y128.479 E30.25133
G1 X122.289 Y130.097 E30.31195
G1 X121.055 Y131.249 E30.3681
G1 X119.443 Y132.211 E30.43054
G1 X118.019 Y132.445 E30.47854
G1 X102.032 Y132.5 E31.01027
G1 X100.522 Y132.129 E31.06198
G1 X98.903 Y131.289 E31.12265
G1 X97.751 Y130.055 E31.1788
G1 X96.789 Y128.443 E31.24123
G1 X96.555 Y127.019 E31.28923
G1 X96.5 Y117.015 E31.62197
G1 X96.731 Y116.055 E31.65481
G1 X96.555 Y115.026 E31.68953
G1 X96.5 Y105.015 E32.02251
G1 X96.731 Y104.055 E32.05535
G1 X96.54 Y102.84 E32.09625
G1 X96.528 Y101.553 E32.13906
G1 X95.657 Y101.483 E32.16813
G1 X92.846 Y100.659 E32.26555
G1 X91.382 Y99.868 E32.3209
G1 X89.035 Y97.521 E32.4313
G1 X88.108 Y96.078 E32.48834
G1 X87.215 Y93.032 E32.59391
G1 X87.084 Y91.136 E32.65713
G1 X88.028 Y87.915 E32.76876
G1 X88.689 Y86.644 E32.81641
G1 X88.826 Y86.469 E32.8238
G1 X88.8 Y82.327 E32.96157
G1 X88.886 Y81.979 E32.97349
G1 X88.305 Y80.006 E33.0419
G1 X88.174 Y78.097 E33.10554
G1 X89.109 Y74.913 E33.21592
G1 X89.815 Y73.56 E33.26667
G0 F18000 X90.145 Y73.793
G1 F6000 X92.287 Y71.531 E33.37029
G1 X93.639 Y70.579 E33.42529
G1 X96.783 Y69.702 E33.53385
G1 X98.25 Y69.594 E33.58277
G1 X98.503 Y69.36 E33.59423
G1 X99.991 Y68.472 E33.65187
G1 X101.346 Y68.25 E33.69754
G1 X118.621 Y68.2 E34.27211
G1 X120.036 Y68.548 E34.32057
G1 X121.552 Y69.334 E34.37737
G1 X121.848 Y69.651 E34.3918
G1 X122.794 Y69.58 E34.42335
G1 X125.971 Y70.471 E34.53309
G1 X127.443 Y71.236 E34.58827
G1 X129.525 Y73.453 E34.68942
G1 X130.429 Y74.754 E34.74212
G1 X131.297 Y77.721 E34.84493
G1 X131.435 Y79.417 E34.90153
G1 X130.692 Y82.045 E34.99236
G1 X130.775 Y82.655 E35.01284
G1 X130.8 Y86.53 E35.14173
G1 X130.781 Y86.669 E35.14639
G1 X130.89 Y86.803 E35.15214
G1 X131.517 Y87.79 E35.19103
G1 X132.387 Y90.762 E35.29403
G1 X132.525 Y92.45 E35.35036
G1 X131.599 Y95.739 E35.464
G1 X130.871 Y97.118 E35.51587
G1 X128.621 Y99.368 E35.6217
G1 X127.266 Y100.231 E35.67513
G1 X123.756 Y101.225 E35.79647
G1 X123.099 Y101.171 E35.81839
G1 X123.1 Y102.948 E35.87749
G1 X122.855 Y103.953 E35.9119
G1 X122.888 Y104.067 E35.91585
G1 X123.05 Y105.04 E35.94865
G1 X123.1 Y114.938 E36.27787
G1 X122.855 Y115.953 E36.3126
G1 X122.888 Y116.067 E36.31654
G1 X123.05 Y117.04 E36.34935
G1 X123.1 Y126.917 E36.67787
G1 X122.752 Y128.336 E36.72646
G1 X121.966 Y129.852 E36.78326
G1 X120.813 Y130.928 E36.83571
G1 X119.305 Y131.828 E36.89412
G1 X117.954 Y132.05 E36.93966
G1 X102.079 Y132.1 E37.46767
G1 X100.664 Y131.752 E37.51613
G1 X99.148 Y130.966 E37.57293
G1 X98.072 Y129.813 E37.62538
G1 X97.172 Y128.305 E37.68379
G1 X96.95 Y126.954 E37.72933
G1 X96.9 Y117.062 E38.05834
G1 X97.145 Y116.047 E38.09307
G1 X97.112 Y115.933 E38.09702
G1 X96.95 Y114.96 E38.12982
G1 X96.9 Y105.062 E38.45904
G1 X97.145 Y104.047 E38.49377
G1 X97.112 Y103.931 E38.49778
G1 X96.94 Y102.836 E38.53464
G1 X96.925 Y101.183 E38.58963
G1 X95.729 Y101.087 E38.62953
G1 X92.999 Y100.287 E38.72415
G1 X91.624 Y99.544 E38.77613
G1 X89.349 Y97.269 E38.88314
G1 X88.475 Y95.909 E38.93691
G1 X87.611 Y92.961 E39.03909
G1 X87.488 Y91.181 E39.09843
G1 X88.402 Y88.063 E39.2065
G1 X89.044 Y86.828 E39.25279
G1 X89.253 Y86.584 E39.26348
G1 X89.225 Y86.345 E39.27148
G1 X89.2 Y82.373 E39.4036
G1 X89.3 Y81.969 E39.41744
G1 X88.701 Y79.933 E39.48803
G1 X88.578 Y78.142 E39.54774
G1 X89.482 Y75.064 E39.65443
G1 X90.145 Y73.793 E39.70211
G0 F18000 X90.475 Y74.026
G1 F6000 X92.549 Y71.835 E39.80246
G1 X93.813 Y70.945 E39.85387
G1 X96.85 Y70.098 E39.95874
G1 X98.199 Y69.999 E40.00373
G1 X98.383 Y70.018 E40.00988
G1 X98.744 Y69.682 E40.02628
G1 X100.131 Y68.855 E40.07999
G1 X101.411 Y68.645 E40.12314
G1 X118.575 Y68.6 E40.69401
G1 X119.893 Y68.924 E40.73916
G1 X121.307 Y69.657 E40.79213
G1 X121.687 Y70.064 E40.81065
G1 X122.755 Y69.984 E40.84627
G1 X125.823 Y70.845 E40.95226
G1 X127.197 Y71.559 E41.00376
G1 X129.233 Y73.727 E41.10268
G1 X130.063 Y74.928 E41.15123
G1 X130.901 Y77.793 E41.25052
G1 X131.03 Y79.378 E41.30341
G1 X130.284 Y82.017 E41.39462
G1 X130.375 Y82.658 E41.41615
G1 X130.4 Y86.533 E41.54504
G1 X130.352 Y86.782 E41.55347
G1 X130.552 Y87.017 E41.56374
G1 X131.149 Y87.957 E41.60078
G1 X131.991 Y90.834 E41.70048
G1 X132.12 Y92.412 E41.75314
G1 X131.226 Y95.588 E41.86288
G1 X130.545 Y96.878 E41.91139
G1 X128.367 Y99.056 E42.01384
G1 X127.102 Y99.862 E42.06373
G1 X123.717 Y100.82 E42.18074
G1 X122.699 Y100.737 E42.21471
G1 X122.7 Y102.898 E42.28658
G1 X122.439 Y103.968 E42.32322
G1 X122.493 Y104.133 E42.32899
G1 X122.655 Y105.106 E42.3618
G1 X122.7 Y114.891 E42.68725
G1 X122.439 Y115.968 E42.72411
G1 X122.493 Y116.133 E42.72988
G1 X122.655 Y117.106 E42.76269
G1 X122.7 Y126.872 E43.08751
G1 X122.376 Y128.193 E43.13275
G1 X121.643 Y129.607 E43.18573
G1 X120.571 Y130.607 E43.23449
G1 X119.167 Y131.445 E43.28887
G1 X117.889 Y131.655 E43.33194
G1 X102.125 Y131.7 E43.85626
G1 X100.807 Y131.376 E43.9014
G1 X99.393 Y130.643 E43.95437
G1 X98.393 Y129.571 E44.00313
G1 X97.555 Y128.167 E44.05752
G1 X97.345 Y126.889 E44.10059
G1 X97.3 Y117.109 E44.42588
G1 X97.561 Y116.032 E44.46274
G1 X97.507 Y115.867 E44.46851
G1 X97.345 Y114.894 E44.50132
G1 X97.3 Y105.109 E44.82677
G1 X97.561 Y104.032 E44.86363
G1 X97.507 Y103.867 E44.86941
G1 X97.34 Y102.832 E44.90428
G1 X97.322 Y100.814 E44.9714
G1 X95.802 Y100.691 E45.02212
G1 X93.151 Y99.914 E45.114
G1 X91.866 Y99.22 E45.16257
G1 X89.66 Y97.014 E45.26634
G1 X88.843 Y95.743 E45.31659
G1 X88.007 Y92.89 E45.41547
G1 X87.892 Y91.226 E45.47095
G1 X88.776 Y88.211 E45.57545
G1 X89.399 Y87.012 E45.62039
G1 X89.674 Y86.721 E45.63371
G1 X89.625 Y86.342 E45.64642
G1 X89.6 Y82.419 E45.7769
G1 X89.714 Y81.959 E45.79266
G1 X89.097 Y79.86 E45.86543
G1 X88.982 Y78.187 E45.92121
G1 X89.855 Y75.215 E46.02423
G1 X90.475 Y74.026 E46.06883
G0 F18000 X90.805 Y74.258
G1 F6000 X92.811 Y72.139 E46.16588
G1 X93.987 Y71.311 E46.21372
G1 X96.917 Y70.494 E46.31489
G1 X98.228 Y70.398 E46.35861
G1 X98.513 Y70.443 E46.36821
G1 X98.983 Y70.006 E46.38955
G1 X100.271 Y69.238 E46.43943
G1 X101.476 Y69.04 E46.48004
G1 X118.529 Y69 E47.04723
G1 X119.75 Y69.3 E47.08905
G1 X121.06 Y69.979 E47.13812
