;FLAVOR:Marlin
;TIME:1732
;Filament used: 2.66984m
;Layer height: 0.2
;MINX:71.336
;MINY:86.06
;MINZ:0.2
;MAXX:147.807
;MAXY:133.54
;MAXZ:38.8
;TARGET_MACHINE.NAME:Creality Ender-3 V3 KE
;Generated with Cura_SteamEngine 5.10.1
M140 S60
M105
M190 S60
M220 S100 ;Reset Feedrate
M221 S100 ;Reset Flowrate

G28 ;Home

G92 E0 ;Reset Extruder
G1 Z2.0 F3000 ;Move Z Axis up
G1 X-2.0 Y20 Z0.28 F5000.0 ;Move to start position
M109 S220.0
G1 X-2.0 Y145.0 Z0.28 F1500.0 E15 ;Draw the first line
G1 X-1.7 Y145.0 Z0.28 F5000.0 ;Move to side a little
G1 X-1.7 Y20 Z0.28 F1500.0 E30 ;Draw the second line
G92 E0 ;Reset Extruder
G1 E-1 F1800 ;Retract a bit
G1 Z2.0 F3000 ;Move Z Axis up
G1 E0 F1800
M82 ;absolute extrusion mode
G92 E0
G92 E0
G1 F2400 E-0.8
;LAYER_COUNT:166
;LAYER:0
M107
M204 S500
G0 F18000 X103.388 Y86.325 Z0.2
;TYPE:SKIRT
G1 F2400 E0
G1 F6000 X116.612 Y86.325 E0.43983
G1 X121.812 Y105.691 E1.10676
G1 X121.741 Y105.714 E1.10925
G1 X121.669 Y105.816 E1.1134
G1 X121.668 Y105.875 E1.11536
G1 X121.652 Y105.875 E1.11589
G1 X116.5 Y86.673 E1.77714
G1 X116.432 Y86.569 E1.78128
G1 X116.307 Y86.525 E1.78568
G1 X103.693 Y86.525 E2.20523
G1 X103.574 Y86.564 E2.20939
G1 X103.5 Y86.673 E2.21377
G1 X98.348 Y105.875 E2.87502
G1 X98.33 Y105.875 E2.87562
G1 X98.326 Y105.802 E2.87805
G1 X98.247 Y105.706 E2.88219
G1 X98.189 Y105.689 E2.8842
G1 X103.388 Y86.325 E3.55106
G1 F2400 E2.75106
G0 F18000 X106.25 Y91.725
G1 F2400 E3.55106
G1 F6000 X113.75 Y91.725 E3.80051
G1 X113.75 Y110.925 E4.4391
G1 X106.25 Y110.925 E4.68855
G1 X106.25 Y91.725 E5.32715
G0 F18000 X106.65 Y92.125
G1 F6000 X107.044 Y92.125 E5.34025
G1 X106.839 Y92.299 E5.3492
G1 X106.755 Y92.386 E5.35322
G1 X106.65 Y92.52 E5.35888
G1 X106.65 Y92.125 E5.37202
G0 F18000 X107.098 Y92.604
G1 F6000 X107.07 Y92.633 E5.37336
G1 X106.825 Y92.946 E5.38658
G1 X106.803 Y92.979 E5.3879
G1 X106.622 Y93.34 E5.40133
G1 X106.608 Y93.377 E5.40265
G1 X106.5 Y93.769 E5.41617
G1 X106.494 Y93.801 E5.41725
G1 X106.451 Y94.213 E5.43103
G1 X106.45 Y94.234 E5.43173
G1 X106.45 Y108.516 E5.90675
G1 X106.452 Y108.546 E5.90775
G1 X106.512 Y108.948 E5.92127
G1 X106.519 Y108.978 E5.92229
G1 X106.637 Y109.354 E5.9354
G1 X106.653 Y109.391 E5.93674
G1 X106.848 Y109.741 E5.95007
G1 X106.871 Y109.773 E5.95138
G1 X107.129 Y110.077 E5.96464
G1 X107.158 Y110.105 E5.96598
G1 X107.471 Y110.35 E5.9792
G1 X107.504 Y110.372 E5.98052
G1 X107.861 Y110.552 E5.99382
G1 X107.895 Y110.565 E5.99503
G1 X108.255 Y110.671 E6.00751
G1 X108.291 Y110.678 E6.00873
G1 X108.741 Y110.724 E6.02378
G1 X108.761 Y110.725 E6.02444
G1 X111.339 Y110.725 E6.11019
G1 X111.368 Y110.723 E6.11115
G1 X111.772 Y110.663 E6.12474
G1 X111.803 Y110.656 E6.12579
G1 X112.179 Y110.538 E6.1389
G1 X112.216 Y110.522 E6.14024
G1 X112.566 Y110.327 E6.15357
G1 X112.598 Y110.304 E6.15488
G1 X112.902 Y110.046 E6.16814
G1 X112.93 Y110.017 E6.16948
G1 X113.175 Y109.704 E6.1827
G1 X113.197 Y109.671 E6.18402
G1 X113.377 Y109.314 E6.19732
G1 X113.39 Y109.28 E6.19853
G1 X113.496 Y108.919 E6.21104
G1 X113.503 Y108.883 E6.21226
G1 X113.549 Y108.434 E6.22728
G1 X113.55 Y108.414 E6.22794
G1 X113.55 Y94.129 E6.70306
G1 X113.548 Y94.101 E6.704
G1 X113.494 Y93.724 E6.71666
G1 X113.487 Y93.693 E6.71772
G1 X113.37 Y93.316 E6.73085
G1 X113.355 Y93.28 E6.73215
G1 X113.164 Y92.926 E6.74552
G1 X113.141 Y92.893 E6.74686
G1 X112.882 Y92.584 E6.76027
G1 X112.854 Y92.556 E6.76159
G1 X112.544 Y92.309 E6.77477
G1 X112.51 Y92.287 E6.77612
G1 X112.153 Y92.105 E6.78945
G1 X112.119 Y92.091 E6.79067
G1 X111.749 Y91.98 E6.80352
G1 X111.713 Y91.973 E6.80474
G1 X111.26 Y91.926 E6.81989
G1 X111.239 Y91.925 E6.82059
G1 X108.661 Y91.925 E6.90633
G1 X108.632 Y91.927 E6.9073
G1 X108.228 Y91.987 E6.92088
G1 X108.197 Y91.994 E6.92194
G1 X107.821 Y92.112 E6.93505
G1 X107.784 Y92.128 E6.93639
G1 X107.434 Y92.323 E6.94971
G1 X107.402 Y92.346 E6.95102
G1 X107.098 Y92.604 E6.96428
G1 F2400 E6.16428
G0 F18000 X109.855 Y92.19
G0 X109.855 Y89.643
G1 F2400 E6.96428
G1 F6000 X109.814 Y89.554 E6.96754
G1 X109.814 Y89.503 E6.96924
G1 X109.857 Y89.401 E6.97292
G1 X109.875 Y89.38 E6.97384
G1 X109.887 Y89.367 E6.97443
G1 X109.908 Y89.356 E6.97522
G1 X109.997 Y89.332 E6.97828
G1 X110.013 Y89.333 E6.97882
G1 X110.13 Y89.385 E6.98308
G1 X110.149 Y89.406 E6.98402
G1 X110.179 Y89.477 E6.98658
G1 X110.175 Y89.594 E6.99048
G1 X110.158 Y89.629 E6.99177
G1 X110.076 Y89.694 E6.99525
G1 X110.001 Y89.713 E6.99782
G1 X109.966 Y89.708 E6.999
G1 X109.855 Y89.643 E7.00328
G1 F2400 E6.20328
G0 F18000 X109.855 Y92.19
G0 X112.955 Y92.19
G0 X112.955 Y92.125
G1 F2400 E7.00328
G1 F6000 X113.35 Y92.125 E7.01642
G1 X113.35 Y92.519 E7.02952
G1 X113.189 Y92.327 E7.03785
G1 X113.103 Y92.243 E7.04185
G1 X112.955 Y92.125 E7.04815
G1 F2400 E6.24815
G0 F18000 X112.955 Y92.19
G0 X113.285 Y110.13
G0 X113.35 Y110.13
G1 F2400 E7.04815
G1 F6000 X113.35 Y110.525 E7.06129
G1 X112.956 Y110.525 E7.07439
G1 X113.161 Y110.351 E7.08333
G1 X113.245 Y110.264 E7.08736
G1 X113.35 Y110.13 E7.09302
G1 F2400 E6.29302
G0 F18000 X113.285 Y110.13
G0 X110.123 Y110.46
G0 X110.123 Y112.988
G1 F2400 E7.09302
G1 F6000 X110.179 Y113.053 E7.09587
G1 X110.19 Y113.08 E7.09684
G1 X110.194 Y113.118 E7.09811
G1 X110.184 Y113.17 E7.09987
G1 X110.121 Y113.27 E7.1038
G1 X110.109 Y113.281 E7.10435
G1 X110.04 Y113.312 E7.10686
G1 X109.968 Y113.315 E7.10926
G1 X109.96 Y113.313 E7.10953
G1 X109.851 Y113.243 E7.11384
G1 X109.84 Y113.227 E7.11449
G1 X109.813 Y113.107 E7.11858
G1 X109.857 Y113.001 E7.1224
G1 X109.876 Y112.982 E7.12329
G1 X109.944 Y112.942 E7.12591
G1 X110.016 Y112.935 E7.12832
G1 X110.101 Y112.974 E7.13143
G1 X110.123 Y112.988 E7.1323
G1 F2400 E6.3323
G0 F18000 X110.123 Y110.46
G0 X107.045 Y110.46
G0 X107.045 Y110.525
G1 F2400 E7.1323
G1 F6000 X106.65 Y110.525 E7.14543
G1 X106.65 Y110.131 E7.15854
G1 X106.824 Y110.336 E7.16748
G1 X106.911 Y110.42 E7.1715
G1 X107.045 Y110.525 E7.17717
G0 F18000 X105.85 Y111.325
;TYPE:SUPPORT-INTERFACE
G1 F6000 X114.15 Y111.325 E7.45323
G1 X114.15 Y91.325 E8.11843
G1 X105.85 Y91.325 E8.39449
G1 X105.85 Y111.325 E9.05969
G1 F2400 E8.25969
G0 F18000 X104.765 Y114.525
G1 F2400 E9.05969
G1 F6000 X102.832 Y107.371 E9.30617
G1 X98.884 Y105.875 E9.44659
G1 X98.762 Y105.875 E9.45065
G1 X103.846 Y86.925 E10.10321
G1 X116.154 Y86.925 E10.51258
G1 X121.238 Y105.875 E11.16515
G1 X121.116 Y105.875 E11.16921
G1 X117.168 Y107.371 E11.30963
G1 X115.235 Y114.525 E11.5561
G1 X104.765 Y114.525 E11.90434
G1 F2400 E11.10434
G0 F18000 X109.453 Y113.371
G1 F2400 E11.90434
G1 F6000 X109.568 Y113.537 E11.91105
G1 X109.796 Y113.683 E11.92006
G1 X109.926 Y113.718 E11.92454
G1 X110.132 Y113.708 E11.9314
G1 X110.338 Y113.617 E11.93889
G1 X110.433 Y113.524 E11.94331
G1 X110.562 Y113.321 E11.95131
G1 X110.598 Y113.135 E11.95761
G1 X110.583 Y112.99 E11.96246
G1 X110.528 Y112.845 E11.96762
G1 X110.386 Y112.679 E11.97488
G1 X110.293 Y112.621 E11.97853
G1 X110.103 Y112.535 E11.98546
G1 X110.07 Y112.535 E11.98656
G1 X110.017 Y112.532 E11.98833
G1 X109.838 Y112.55 E11.99431
G1 X109.757 Y112.588 E11.99729
G1 X109.633 Y112.661 E12.00207
G1 X109.518 Y112.773 E12.00741
G1 X109.425 Y112.999 E12.01554
G1 X109.411 Y113.066 E12.01782
G1 X109.408 Y113.122 E12.01968
G1 X109.453 Y113.327 E12.02666
G1 X109.453 Y113.371 E12.02813
G1 F2400 E11.22813
G0 F18000 X109.453 Y110.46
G0 X110.017 Y92.19
G0 X110.017 Y90.121
G1 F2400 E12.02813
G1 F6000 X110.258 Y90.062 E12.03638
G1 X110.48 Y89.884 E12.04584
G1 X110.557 Y89.722 E12.05181
G1 X110.573 Y89.649 E12.05429
G1 X110.583 Y89.402 E12.06252
G1 X110.494 Y89.195 E12.07001
G1 X110.457 Y89.151 E12.07192
G1 X110.368 Y89.054 E12.0763
G1 X110.109 Y88.938 E12.08574
G1 X109.957 Y88.928 E12.09081
G1 X109.759 Y88.982 E12.09763
G1 X109.669 Y89.031 E12.10104
G1 X109.635 Y89.052 E12.10237
G1 X109.584 Y89.106 E12.10484
G1 X109.513 Y89.187 E12.10842
G1 X109.412 Y89.425 E12.11702
G1 X109.415 Y89.623 E12.12361
G1 X109.433 Y89.682 E12.12566
G1 X109.517 Y89.867 E12.13242
G1 X109.557 Y89.919 E12.1346
G1 X109.588 Y89.951 E12.13608
G1 X109.832 Y90.092 E12.14545
G1 X110.017 Y90.121 E12.15168
G0 F18000 X109.941 Y90.312
G1 F6000 X109.128 Y91.125 E12.18992
G0 F18000 X108.095 Y91.125
G1 F6000 X104.096 Y87.125 E12.37805
G1 F2400 E11.57805
G0 F18000 X106.34 Y87.125
G1 F2400 E12.37805
G1 F6000 X103.141 Y90.323 E12.52849
G0 F18000 X103.301 Y89.725
G1 F6000 X105.65 Y92.074 E12.63898
G0 F18000 X105.65 Y91.208
G1 F6000 X101.897 Y94.962 E12.81554
G1 X101.865 Y95.077
G1 X105.65 Y98.862 E12.99357
G0 F18000 X105.65 Y97.997
G1 F6000 X99.409 Y104.238 E13.28713
G0 F18000 X99.711 Y103.105
G1 F6000 X105.65 Y109.044 E13.56648
G0 F18000 X105.65 Y108.179
G1 F6000 X103.767 Y110.063 E13.65508
G0 F18000 X103.948 Y110.736
G1 F6000 X107.537 Y114.325 E13.82389
G0 F18000 X106.292 Y114.325
G1 F6000 X109.092 Y111.525 E13.9556
G0 F18000 X108.131 Y111.525
G1 F6000 X109.324 Y112.718 E14.01171
G0 F18000 X110.102 Y113.909
G1 F6000 X109.686 Y114.325 E14.03128
G0 F18000 X110.41 Y113.805
G1 F6000 X110.931 Y114.325 E14.05576
G0 F18000 X110.784 Y113.228
G1 F6000 X112.487 Y111.525 E14.13586
G0 F18000 X111.525 Y111.525
G1 F6000 X114.325 Y114.325 E14.26757
G0 F18000 X113.081 Y114.325
G1 F6000 X115.823 Y111.583 E14.39654
G0 F18000 X115.643 Y112.249
G1 F6000 X114.35 Y110.956 E14.45736
G0 F18000 X114.35 Y109.661
G1 F6000 X120.418 Y103.593 E14.74278
G0 F18000 X120.366 Y103.395
G1 F6000 X114.35 Y97.38 E15.02573
G0 F18000 X114.35 Y96.084
G1 F6000 X117.547 Y92.888 E15.17609
G0 F18000 X117.877 Y94.118
G1 F6000 X110.884 Y87.125 E15.50502
G0 F18000 X109.734 Y87.125
G1 F6000 X105.734 Y91.125 E15.69316
G1 F2400 E14.89316
G0 F18000 X102.584 Y92.401
G1 F2400 E15.69316
G1 F6000 X105.65 Y95.468 E15.8374
G0 F18000 X105.65 Y94.602
G1 F6000 X100.652 Y99.6 E16.07249
G0 F18000 X100.43 Y100.43
G1 F6000 X105.65 Y105.65 E16.31803
G0 F18000 X105.65 Y104.785
G1 F6000 X103.045 Y107.39 E16.44056
G1 F2400 E15.64056
G0 F18000 X100.694 Y106.347
G1 F2400 E16.44056
G1 F6000 X105.65 Y101.391 E16.67367
G0 F18000 X105.65 Y102.256
G1 F6000 X101.147 Y97.753 E16.88548
G1 F2400 E16.08548
G0 F18000 X100.12 Y97.478
G0 X103.19 Y86.069
G0 X109.39 Y86.06
G0 X109.39 Y89.025
G1 F2400 E16.88548
G1 F6000 X107.49 Y87.125 E16.97485
G1 F2400 E16.17485
G0 F18000 X110.78 Y89.472
G1 F2400 E16.97485
G1 F6000 X113.128 Y87.125 E17.08527
G0 F18000 X114.278 Y87.125
G1 F6000 X116.633 Y89.48 E17.19604
G0 F18000 X116.829 Y90.212
G1 F6000 X114.35 Y92.69 E17.31262
G0 F18000 X114.35 Y93.986
G1 F6000 X119.121 Y98.757 E17.53703
G0 F18000 X118.982 Y98.241
G1 F6000 X114.35 Y102.873 E17.75491
G0 F18000 X114.35 Y104.168
G1 F6000 X117.292 Y107.11 E17.89329
G1 F2400 E17.09329
G0 F18000 X119.753 Y106.177
G1 F2400 E17.89329
G1 F6000 X114.35 Y100.774 E18.14743
G0 F18000 X114.35 Y99.479
G1 F6000 X118.264 Y95.565 E18.33154
G1 F2400 E17.53154
G0 F18000 X119.292 Y95.289
G0 X120.728 Y100.641
G0 X119.7 Y100.917
G1 F2400 E18.33154
G1 F6000 X114.35 Y106.267 E18.58318
G0 F18000 X114.35 Y107.562
G1 F6000 X116.366 Y109.578 E18.67801
G1 F2400 E17.87801
G0 F18000 X113.285 Y109.578
G0 X106.703 Y110.472
G0 X105.698 Y111.525
G1 F2400 E18.67801
G1 F6000 X104.488 Y112.735 E18.73492
G1 F2400 E17.93492
G0 F18000 X106.703 Y110.472
G0 X111.49 Y92.19
G0 X111.49 Y91.125
G1 F2400 E18.73492
G1 F6000 X110.494 Y90.129 E18.78177
G1 F2400 E17.98177
G0 F18000 X112.522 Y91.125
G1 F2400 E18.78177
G1 F6000 X116.11 Y87.536 E18.95056
G1 F2400 E18.15056
;MESH:FrontCover_1x.stl
G0 F18000 X131.715 Y113.104
;TYPE:WALL-INNER
G1 F2400 E18.95056
G1 F6000 X131.283 Y113.013 E18.96525
G1 X130.825 Y112.795 E18.98212
G1 X130.472 Y112.53 E18.9968
G1 X130.162 Y112.176 E19.01245
G1 X129.826 Y111.555 E19.03593
G1 X129.728 Y110.863 E19.05918
G1 X129.816 Y110.322 E19.07741
G1 X129.995 Y109.811 E19.09542
G1 X130.344 Y109.341 E19.11489
G1 X130.777 Y108.96 E19.13407
G1 X131.286 Y108.734 E19.1526
G1 X131.777 Y108.631 E19.16928
G1 X132.321 Y108.641 E19.18738
G1 X132.727 Y108.74 E19.20128
G1 X133.172 Y108.946 E19.21759
G1 X133.532 Y109.217 E19.23258
G1 X133.912 Y109.654 E19.25184
G1 X134.168 Y110.252 E19.27347
G1 X134.251 Y110.755 E19.29043
G1 X134.224 Y111.209 E19.30555
G1 X134.135 Y111.594 E19.3187
G1 X133.924 Y112.047 E19.33532
G1 X133.654 Y112.399 E19.35007
G1 X133.312 Y112.707 E19.36538
G1 X132.694 Y113.042 E19.38876
G1 X132.11 Y113.127 E19.40839
G1 X131.715 Y113.104 E19.42155
G1 F2400 E18.62155
G0 F18000 X143.278 Y112.853
G1 F2400 E19.42155
G1 F6000 X142.815 Y112.621 E19.43878
G1 X142.638 Y112.487 E19.44616
G1 X142.338 Y112.155 E19.46104
G1 X142.126 Y111.829 E19.47398
G1 X141.944 Y111.362 E19.49065
G1 X141.904 Y111.144 E19.49802
G1 X141.904 Y110.658 E19.51418
G1 X142.019 Y110.16 E19.53118
G1 X142.25 Y109.693 E19.54851
G1 X142.383 Y109.516 E19.55587
G1 X142.795 Y109.14 E19.57443
G1 X142.978 Y109.026 E19.5816
G1 X143.423 Y108.849 E19.59753
G1 X143.801 Y108.778 E19.61032
G1 X144.289 Y108.795 E19.62656
G1 X144.719 Y108.901 E19.64129
G1 X145.266 Y109.168 E19.66153
G1 X145.705 Y109.646 E19.68312
G1 X145.911 Y109.997 E19.69666
G1 X146.091 Y110.508 E19.71468
G1 X146.089 Y111.242 E19.73909
G1 X145.871 Y111.837 E19.76016
G1 X145.565 Y112.272 E19.77785
G1 X145.1 Y112.688 E19.79861
G1 X144.384 Y112.967 E19.82416
G1 X143.784 Y112.968 E19.84412
G1 X143.278 Y112.853 E19.86138
G1 F2400 E19.06138
G0 F18000 X123.366 Y128.029
G1 F2400 E19.86138
G1 F4159.4 X123.06 Y128.415 E19.88501
G1 F4203.2 X122.749 Y128.731 E19.90606
G1 F2400 E19.10606
G0 F18000 X100.27 Y132.272
G1 F2400 E19.90606
G1 F6000 X119.73 Y132.271 E20.5533
G1 X122.361 Y129.312 E20.685
G1 F5263.2 X122.67 Y128.88 E20.70514
G1 F4332.1 X122.749 Y128.731 E20.71291
G1 F4395.6 X121.958 Y129.051 E20.75165
G1 F5084.7 X121.315 Y129.138 E20.77711
G1 F5660.4 X120.807 Y129.071 E20.79518
G1 F6000 X120.245 Y128.857 E20.81518
G1 X119.847 Y128.573 E20.83144
G1 X119.551 Y128.275 E20.84541
G1 X119.272 Y127.818 E20.86322
G1 X119.132 Y127.421 E20.87722
G1 X119.062 Y126.873 E20.89559
G1 X119.14 Y126.307 E20.9146
G1 X119.27 Y125.936 E20.92767
G1 X119.616 Y125.398 E20.94895
G1 X120.072 Y124.979 E20.96954
G1 X120.612 Y124.736 E20.98924
G1 X121.24 Y124.601 E21.0106
G1 X121.993 Y124.699 E21.03586
G1 X122.533 Y124.978 E21.05608
G1 X122.854 Y125.224 E21.06953
G1 X123.213 Y125.648 E21.08801
G1 X123.51 Y126.264 E21.11075
G1 X123.583 Y126.954 E21.13383
G1 X123.474 Y127.511 E21.15271
G1 F5970.1 X123.436 Y127.639 E21.15717
G1 F4743.1 X123.366 Y128.029 E21.17384
G1 X123.696 Y127.806 E21.1906
G1 F5970.1 X135.564 Y114.459 E21.78761
G1 F6000 X135.735 Y114.333 E21.79467
G1 X135.948 Y114.274 E21.80202
G1 X144.065 Y114.272 E22.07199
G1 X144.434 Y114.243 E22.0843
G1 X144.753 Y114.193 E22.09504
G1 X145.166 Y114.067 E22.10941
G1 X145.471 Y113.938 E22.12042
G1 X145.779 Y113.771 E22.13207
G1 X146.052 Y113.585 E22.14306
G1 X146.362 Y113.323 E22.15656
G1 X146.669 Y112.985 E22.17175
G1 X146.854 Y112.719 E22.18252
G1 X147.031 Y112.42 E22.19408
G1 X147.225 Y111.963 E22.21059
G1 X147.352 Y111.464 E22.22772
G1 X147.388 Y111.133 E22.23879
G1 X147.395 Y110.802 E22.2498
G1 X147.371 Y110.443 E22.26177
G1 X147.31 Y110.109 E22.27306
G1 X147.223 Y109.783 E22.28429
G1 X147.031 Y109.329 E22.30068
G1 X146.853 Y109.029 E22.31228
G1 X146.663 Y108.762 E22.32318
G1 X146.406 Y108.462 E22.33632
G1 X146.055 Y108.166 E22.35159
G1 X145.718 Y107.935 E22.36518
G1 X145.322 Y107.74 E22.37986
G1 X144.961 Y107.605 E22.39268
G1 X144.488 Y107.51 E22.40873
G1 X144.175 Y107.477 E22.4192
G1 X121.406 Y107.473 E23.1765
G1 X118.496 Y108.577 E23.28002
G1 X116.563 Y115.722 E23.5262
G1 X116.421 Y115.949 E23.53511
G1 X116.283 Y116.052 E23.54084
G1 X116.061 Y116.121 E23.54857
G1 X103.961 Y116.123 E23.95101
G1 X103.661 Y116.02 E23.96156
G1 X103.502 Y115.86 E23.96907
G1 X103.428 Y115.709 E23.97466
G1 X101.5 Y108.577 E24.22039
G1 X98.59 Y107.472 E24.32392
G1 X75.963 Y107.475 E25.07649
G1 X75.537 Y107.508 E25.0907
G1 X75.243 Y107.555 E25.10061
G1 X74.831 Y107.681 E25.11494
G1 X74.53 Y107.809 E25.12582
G1 X74.222 Y107.978 E25.1375
G1 X73.947 Y108.164 E25.14854
G1 X73.634 Y108.425 E25.1621
G1 X73.332 Y108.762 E25.17715
G1 X73.144 Y109.031 E25.18806
G1 X72.965 Y109.329 E25.19963
G1 X72.776 Y109.779 E25.21586
G1 X72.647 Y110.286 E25.23326
G1 X72.608 Y110.615 E25.24428
