;FLAVOR:Marlin
;TIME:995
;Filament used: 1.60619m
;Layer height: 0.2
;MINX:61.721
;MINY:77.101
;MINZ:0.2
;MAXX:158.285
;MAXY:155.3
;MAXZ:6.92
;TARGET_MACHINE.NAME:Creality Ender-3 V3 KE
;Generated with Cura_SteamEngine 5.9.1
M140 S60
M105
M190 S60
M82 ;absolute extrusion mode
M220 S100 ;Reset Feedrate
M221 S100 ;Reset Flowrate

G28 ;Home

G92 E0 ;Reset Extruder
G1 Z2.0 F3000 ;Move Z Axis up
G1 X-2.0 Y20 Z0.28 F5000.0 ;Move to start position
M109 S220.0
G1 X-2.0 Y145.0 Z0.28 F1500.0 E15 ;Draw the first line
G1 X-1.7 Y145.0 Z0.28 F5000.0 ;Move to side a little
G1 X-1.7 Y20 Z0.28 F1500.0 E30 ;Draw the second line
G92 E0 ;Reset Extruder
G1 E-1 F1800 ;Retract a bit
G1 Z2.0 F3000 ;Move Z Axis up
G1 E0 F1800
G92 E0
G92 E0
G1 F2400 E-0.8
;LAYER_COUNT:29
;LAYER:0
M107
M204 S500
G0 F18000 X96.558 Y111.813 Z0.2
;TYPE:SKIRT
G1 F2400 E0
G1 F6000 X96.748 Y111.577 E0.01008
G1 X97.098 Y111.212 E0.0269
G1 X96.045 Y111.341 E0.06218
G1 X96.558 Y111.813 E0.08537
G0 F18000 X96.578 Y112.428
G1 F6000 X97.037 Y111.854 E0.10981
G1 X97.477 Y111.395 E0.13096
G1 X98.649 Y110.403 E0.18203
G1 X97.931 Y110.707 E0.20796
G1 X95.991 Y110.945 E0.27297
G1 X95.021 Y110.942 E0.30523
G1 X96.373 Y112.187 E0.36636
G1 X96.578 Y112.428 E0.37689
G1 F2400 E-0.42311
G0 F18000 X100.073 Y109.539
G1 F2400 E0.37689
G1 F6000 X101.127 Y109.024 E0.4159
G1 X101.738 Y108.81 E0.43744
G1 X102.489 Y108.621 E0.46319
G1 X102.045 Y108.155 E0.4846
G1 X101.674 Y107.694 E0.50428
G1 X101.313 Y108.392 E0.53042
G1 X100.073 Y109.539 E0.5866
G0 F18000 X99.721 Y110.157
G1 F6000 X101.259 Y109.402 E0.64359
G1 X101.87 Y109.188 E0.66512
G1 X103.321 Y108.826 E0.71486
G1 X102.776 Y108.343 E0.73908
G1 X102.335 Y107.879 E0.76037
G1 X101.601 Y106.964 E0.79938
G1 X100.991 Y108.144 E0.84357
G1 X99.752 Y109.29 E0.8997
G1 X98.471 Y110.045 E0.94916
G1 X97.826 Y110.317 E0.97244
G1 X95.992 Y110.545 E1.03391
G1 X93.561 Y110.538 E1.11476
G1 X94.215 Y110.889 E1.13945
G1 X94.909 Y111.379 E1.1677
G1 X96.102 Y112.481 E1.22172
G1 X96.584 Y113.062 E1.24683
G1 X97.326 Y112.131 E1.28643
G1 X97.766 Y111.672 E1.30758
G1 X98.975 Y110.65 E1.36023
G1 X99.721 Y110.157 E1.38997
G0 F18000 X99.196 Y110.984
G1 F6000 X99.942 Y110.491 E1.41971
G1 X101.391 Y109.78 E1.47339
G1 X102.002 Y109.566 E1.49493
G1 X103.298 Y109.243 E1.53935
G1 X103.742 Y109.176 E1.55428
G1 X104.361 Y109.135 E1.57492
G1 X103.845 Y108.757 E1.59619
G1 X103.066 Y108.067 E1.6308
G1 X102.625 Y107.603 E1.65209
G1 X101.982 Y106.802 E1.68626
G1 X101.677 Y106.353 E1.70431
G1 X101.527 Y106.078 E1.71473
G1 X101.453 Y106.379 E1.72504
G1 X100.669 Y107.896 E1.78184
G1 X99.511 Y108.968 E1.83432
G1 X98.268 Y109.7 E1.8823
G1 X97.724 Y109.926 E1.90189
G1 X95.993 Y110.145 E1.95992
G1 X91.302 Y110.132 E2.11595
G1 X92.053 Y110.306 E2.14159
G1 X92.884 Y110.63 E2.17125
G1 X94.026 Y111.242 E2.21435
G1 X94.677 Y111.705 E2.24092
G1 X95.794 Y112.737 E2.2915
G1 X96.386 Y113.45 E2.32232
G1 X96.594 Y113.759 E2.33471
G1 X96.942 Y113.248 E2.35527
G1 X97.615 Y112.408 E2.39107
G1 X98.055 Y111.949 E2.41222
G1 X99.196 Y110.984 E2.46192
G1 F2400 E1.66192
G0 F18000 X79.732 Y113.654
G1 F2400 E2.46192
G1 F6000 X80.466 Y112.452 E2.50877
G1 X81.502 Y111.184 E2.56323
G1 X82.163 Y110.575 E2.59312
G1 X81.716 Y110.33 E2.61007
G1 X80.878 Y109.763 E2.64373
G1 X80.436 Y109.41 E2.66254
G1 X79.138 Y108.135 E2.72306
G1 X78.514 Y107.369 E2.75592
G1 X78.014 Y106.633 E2.78551
G1 X77.223 Y105.133 E2.84191
G1 X76.723 Y103.823 E2.88855
G1 X76.525 Y103.107 E2.91326
G1 X76.222 Y101.123 E2.98001
G1 X76.2 Y100.57 E2.99842
G1 X76.321 Y98.618 E3.06347
G1 X76.405 Y98.112 E3.08053
G1 X80.596 Y84.881 E3.54214
G1 X80.992 Y83.96 E3.57548
G1 X81.552 Y82.954 E3.61378
G1 X82.491 Y81.653 E3.66714
G1 X83.215 Y80.886 E3.70222
G1 X84.009 Y80.195 E3.73723
G1 X85.571 Y79.159 E3.79957
G1 X86.128 Y78.881 E3.82028
G1 X88.527 Y78.08 E3.9044
G1 X89.139 Y77.973 E3.92506
G1 X91.128 Y77.874 E3.9913
G1 X92.276 Y77.977 E4.02964
G1 X92.958 Y78.102 E4.0527
G1 X94.725 Y78.642 E4.11415
G1 X95.889 Y79.184 E4.15686
G1 X97.237 Y79.988 E4.20906
G1 X98.013 Y79.369 E4.24208
G1 X98.942 Y78.766 E4.27891
G1 X100.707 Y77.905 E4.34423
G1 X101.617 Y77.596 E4.37619
G1 X103.028 Y77.261 E4.42443
G1 X103.471 Y77.195 E4.43933
G1 X104.896 Y77.101 E4.48682
G1 X115.41 Y77.113 E4.83652
G1 X116.667 Y77.23 E4.87851
G1 X118.172 Y77.535 E4.92958
G1 X119.246 Y77.883 E4.96713
G1 X120.052 Y78.23 E4.99632
G1 X121.431 Y78.997 E5.0488
G1 X122.838 Y80.016 E5.10658
G1 X123.401 Y79.616 E5.12956
G1 X125.255 Y78.648 E5.19912
G1 X126.535 Y78.216 E5.24405
G1 X127.333 Y78.04 E5.27123
G1 X129.809 Y77.867 E5.35378
G1 X130.547 Y77.931 E5.37842
G1 X132.728 Y78.427 E5.45281
G1 X133.833 Y78.869 E5.4924
G1 X135.141 Y79.583 E5.54196
G1 X135.876 Y80.106 E5.57196
G1 X137.337 Y81.463 E5.63828
G1 X138.046 Y82.33 E5.67554
G1 X138.455 Y82.937 E5.69988
G1 X139.111 Y84.149 E5.74572
G1 X139.27 Y84.513 E5.75893
G1 X143.596 Y98.139 E6.23442
G1 X143.685 Y98.691 E6.25302
G1 X143.785 Y100.763 E6.32201
G1 X143.678 Y102.055 E6.36513
G1 X143.553 Y102.752 E6.38869
G1 X143.083 Y104.409 E6.44597
G1 X142.806 Y105.09 E6.47042
G1 X142.004 Y106.611 E6.52761
G1 X141.651 Y107.132 E6.54855
G1 X140.762 Y108.238 E6.59574
G1 X139.863 Y109.139 E6.63808
G1 X138.681 Y110.066 E6.68804
G1 X137.855 Y110.563 E6.7201
G1 X138.375 Y111.063 E6.74409
G1 X139.969 Y113.097 E6.83004
G1 X140.342 Y113.776 E6.85581
G1 X141.047 Y115.527 E6.91859
G1 X143.8 Y125.252 E7.25476
G1 X143.8 Y135.198 E7.58556
G1 X143.706 Y135.58 E7.59865
G1 X146.03 Y134.889 E7.67929
G1 X146.584 Y134.797 E7.69797
G1 X148.654 Y134.649 E7.76699
G1 X150.927 Y135.138 E7.84432
G1 X152.046 Y135.536 E7.88382
G1 X153.544 Y136.239 E7.93886
G1 X155.461 Y137.81 E8.0213
G1 X156.819 Y139.698 E8.09865
G1 X157.38 Y140.75 E8.1383
G1 X158.049 Y142.371 E8.19663
G1 X158.285 Y144.807 E8.27803
G1 X158.261 Y145.716 E8.30827
G1 X157.833 Y148.012 E8.38595
G1 X157.325 Y149.362 E8.43393
G1 X156.856 Y150.237 E8.46695
G1 X155.38 Y152.178 E8.54805
G1 X154.265 Y153.171 E8.59771
G1 X152.784 Y154.208 E8.65784
G1 X150.678 Y154.944 E8.73204
G1 X149.25 Y155.292 E8.78093
G1 X115.208 Y155.245 E9.91317
G1 X112.99 Y154.843 E9.98814
G1 X111.893 Y154.428 E10.02715
G1 X110.561 Y153.738 E10.07705
G1 X110.004 Y153.364 E10.09936
G1 X108.304 Y154.356 E10.16483
G1 X106.812 Y154.997 E10.21884
G1 X104.18 Y155.3 E10.30696
G1 X70.83 Y155.293 E11.41618
G1 X68.815 Y154.79 E11.48526
G1 X67.078 Y154.142 E11.54692
G1 X65.598 Y153.057 E11.60796
G1 X64.102 Y151.597 E11.67748
G1 X63.502 Y150.816 E11.71024
G1 X62.804 Y149.747 E11.7527
G1 X61.942 Y147.519 E11.83216
G1 X61.721 Y145.542 E11.89832
G1 X61.722 Y144.6 E11.92965
G1 X61.967 Y142.71 E11.99304
G1 X62.222 Y141.796 E12.0246
G1 X62.892 Y140.188 E12.08254
G1 X63.689 Y138.789 E12.13609
G1 X65.325 Y137.172 E12.2126
G1 X66.257 Y136.47 E12.25141
G1 X67.957 Y135.542 E12.31583
G1 X69.287 Y135.068 E12.36279
G1 X70.865 Y134.682 E12.41682
G1 X72.935 Y134.753 E12.48571
G1 X74.555 Y135.027 E12.54036
G1 X76.318 Y135.565 E12.60166
G1 X76.265 Y135.2 E12.61393
G1 X76.2 Y125.252 E12.94481
G1 X79.106 Y115.088 E13.29641
G1 X79.732 Y113.654 E13.34845
G0 F18000 X80.776 Y112.704
G1 F6000 X81.773 Y111.478 E13.40101
G1 X82.845 Y110.491 E13.44948
G1 X81.94 Y109.999 E13.48374
G1 X81.128 Y109.45 E13.51634
G1 X80.686 Y109.097 E13.53515
G1 X79.419 Y107.85 E13.59428
G1 X78.844 Y107.143 E13.62459
G1 X78.368 Y106.446 E13.65266
G1 X77.577 Y104.946 E13.70906
G1 X77.109 Y103.716 E13.75284
G1 X76.911 Y103 E13.77754
G1 X76.622 Y101.107 E13.84123
G1 X76.6 Y100.554 E13.85964
G1 X76.716 Y98.684 E13.92196
G1 X76.8 Y98.178 E13.93902
G1 X80.977 Y85.002 E14.39875
G1 X81.342 Y84.154 E14.42945
G1 X81.877 Y83.187 E14.46621
G1 X82.782 Y81.927 E14.51781
G1 X83.478 Y81.188 E14.55157
G1 X84.272 Y80.497 E14.58658
G1 X85.75 Y79.517 E14.64556
G1 X86.307 Y79.239 E14.66627
G1 X88.598 Y78.474 E14.7466
G1 X89.159 Y78.373 E14.76556
G1 X91.148 Y78.274 E14.8318
G1 X92.205 Y78.371 E14.8671
G1 X92.841 Y78.485 E14.88859
G1 X94.608 Y79.025 E14.95005
G1 X95.719 Y79.546 E14.99086
G1 X97.021 Y80.323 E15.04129
G1 X97.238 Y80.529 E15.05124
G1 X97.422 Y80.352 E15.05973
G1 X98.231 Y79.705 E15.09419
G1 X99.16 Y79.102 E15.13102
G1 X100.836 Y78.284 E15.19305
G1 X101.746 Y77.975 E15.22502
G1 X103.087 Y77.657 E15.27086
G1 X103.53 Y77.591 E15.28575
G1 X104.896 Y77.501 E15.33129
G1 X115.374 Y77.511 E15.67979
G1 X116.588 Y77.622 E15.72033
G1 X118.049 Y77.916 E15.7699
G1 X119.123 Y78.264 E15.80745
G1 X119.858 Y78.58 E15.83406
G1 X121.196 Y79.321 E15.88493
G1 X122.421 Y80.208 E15.93523
G1 X122.793 Y80.542 E15.95186
G1 X123.586 Y79.971 E15.98436
G1 X125.44 Y79.003 E16.05392
G1 X126.621 Y78.607 E16.09535
G1 X127.419 Y78.431 E16.12253
G1 X129.774 Y78.266 E16.20105
G1 X130.512 Y78.33 E16.22569
G1 X132.639 Y78.817 E16.29827
G1 X133.642 Y79.22 E16.33422
G1 X134.909 Y79.909 E16.38219
G1 X135.644 Y80.432 E16.41219
G1 X137.028 Y81.717 E16.475
G1 X137.714 Y82.554 E16.511
G1 X138.123 Y83.161 E16.53534
G1 X138.744 Y84.309 E16.57875
G1 X138.903 Y84.673 E16.59197
G1 X143.201 Y98.204 E17.06417
G1 X143.285 Y98.711 E17.08126
G1 X143.386 Y100.731 E17.14853
G1 X143.284 Y101.984 E17.19034
G1 X143.159 Y102.681 E17.21389
G1 X142.712 Y104.258 E17.26841
G1 X142.435 Y104.939 E17.29286
G1 X141.672 Y106.387 E17.3473
G1 X141.339 Y106.881 E17.36712
G1 X140.45 Y107.987 E17.41431
G1 X139.616 Y108.824 E17.45361
G1 X138.434 Y109.751 E17.50357
G1 X137.198 Y110.491 E17.55149
G1 X138.061 Y111.31 E17.59106
G1 X139.618 Y113.29 E17.67484
G1 X139.991 Y113.969 E17.7006
G1 X140.662 Y115.636 E17.76037
G1 X143.4 Y125.308 E18.0947
G1 X143.4 Y135.151 E18.42208
G1 X143.151 Y136.163 E18.45675
G1 X146.096 Y135.284 E18.55897
G1 X146.65 Y135.192 E18.57765
G1 X148.626 Y135.052 E18.64353
G1 X150.793 Y135.515 E18.71723
G1 X151.912 Y135.913 E18.75674
G1 X153.329 Y136.58 E18.80883
G1 X155.168 Y138.087 E18.88791
G1 X156.466 Y139.887 E18.96172
G1 X157.01 Y140.903 E19.00005
G1 X157.657 Y142.47 E19.05643
G1 X157.885 Y144.796 E19.13417
G1 X157.861 Y145.705 E19.16441
G1 X157.458 Y147.872 E19.23772
G1 X156.972 Y149.173 E19.28391
G1 X156.503 Y150.048 E19.31693
G1 X155.082 Y151.908 E19.39479
G1 X154.035 Y152.843 E19.44147
G1 X152.599 Y153.849 E19.49979
G1 X150.583 Y154.555 E19.57083
G1 X149.2 Y154.892 E19.61818
G1 X115.209 Y154.845 E20.74873
G1 X113.098 Y154.457 E20.82011
G1 X112.076 Y154.072 E20.85644
G1 X110.784 Y153.406 E20.90478
G1 X110.019 Y152.892 E20.93544
G1 X108.146 Y153.988 E21.00762
G1 X106.705 Y154.607 E21.05978
G1 X104.18 Y154.9 E21.14432
G1 X70.878 Y154.893 E22.25195
G1 X68.955 Y154.415 E22.31786
G1 X67.269 Y153.786 E22.37771
G1 X65.834 Y152.734 E22.43689
G1 X64.419 Y151.353 E22.50265
G1 X63.837 Y150.597 E22.53438
G1 X63.161 Y149.562 E22.5755
G1 X62.335 Y147.426 E22.65167
G1 X62.119 Y145.497 E22.71623
G1 X62.119 Y144.651 E22.74437
G1 X62.353 Y142.816 E22.8059
G1 X62.592 Y141.949 E22.83581
G1 X63.24 Y140.386 E22.89208
G1 X64.01 Y139.035 E22.9438
G1 X65.567 Y137.491 E23.01674
G1 X66.449 Y136.821 E23.05358
G1 X68.149 Y135.893 E23.11799
G1 X69.382 Y135.457 E23.16149
G1 X70.907 Y135.084 E23.21371
G1 X72.921 Y135.153 E23.28073
G1 X74.438 Y135.41 E23.33191
G1 X76.814 Y136.135 E23.41453
G1 X76.665 Y135.197 E23.44612
G1 X76.6 Y125.308 E23.77504
G1 X79.473 Y115.248 E24.12301
G1 X80.099 Y113.814 E24.17505
G1 X80.776 Y112.704 E24.2183
G0 F18000 X81.087 Y112.956
G1 F6000 X82.045 Y111.772 E24.26895
G1 X82.99 Y110.898 E24.31177
G1 X83.64 Y110.43 E24.33841
G1 X83.313 Y110.29 E24.35024
G1 X82.164 Y109.667 E24.39371
G1 X81.378 Y109.137 E24.42524
G1 X80.936 Y108.784 E24.44405
G1 X79.729 Y107.597 E24.50036
G1 X79.174 Y106.916 E24.52958
G1 X78.722 Y106.259 E24.5561
G1 X77.931 Y104.759 E24.6125
G1 X77.495 Y103.609 E24.65341
G1 X77.297 Y102.893 E24.67812
G1 X77.022 Y101.091 E24.73875
G1 X77 Y100.538 E24.75715
G1 X77.111 Y98.75 E24.81674
G1 X77.195 Y98.244 E24.8338
G1 X81.358 Y85.123 E25.29164
G1 X81.692 Y84.347 E25.31974
G1 X82.202 Y83.42 E25.35493
G1 X83.074 Y82.201 E25.40478
G1 X83.741 Y81.49 E25.43721
G1 X84.535 Y80.799 E25.47222
G1 X85.929 Y79.875 E25.52784
G1 X86.486 Y79.597 E25.54855
G1 X88.669 Y78.868 E25.62509
G1 X89.23 Y78.767 E25.64405
G1 X91.112 Y78.672 E25.70673
G1 X92.136 Y78.765 E25.74093
G1 X92.724 Y78.868 E25.76078
G1 X94.491 Y79.408 E25.82224
G1 X95.514 Y79.89 E25.85985
G1 X96.778 Y80.644 E25.9088
G1 X97.24 Y81.083 E25.93
G1 X97.672 Y80.664 E25.95001
G1 X98.449 Y80.041 E25.98314
G1 X99.378 Y79.438 E26.01998
G1 X100.965 Y78.663 E26.07872
G1 X101.875 Y78.354 E26.11068
G1 X103.146 Y78.053 E26.15412
G1 X103.589 Y77.987 E26.16902
G1 X104.896 Y77.901 E26.21259
G1 X115.338 Y77.909 E26.55989
G1 X116.51 Y78.014 E26.59903
G1 X117.926 Y78.297 E26.64705
G1 X119 Y78.645 E26.6846
G1 X119.699 Y78.947 E26.70993
G1 X120.962 Y79.645 E26.75792
G1 X122.158 Y80.51 E26.80702
G1 X122.443 Y80.758 E26.81958
G1 X122.776 Y81.091 E26.83525
G1 X123.027 Y80.867 E26.84644
G1 X123.82 Y80.296 E26.87894
G1 X125.568 Y79.382 E26.94454
G1 X126.707 Y78.998 E26.98452
G1 X127.505 Y78.822 E27.0117
G1 X129.739 Y78.665 E27.08619
G1 X130.477 Y78.729 E27.11083
G1 X132.491 Y79.189 E27.17954
G1 X133.452 Y79.572 E27.21394
G1 X134.677 Y80.235 E27.26027
G1 X135.412 Y80.758 E27.29028
G1 X136.719 Y81.971 E27.34958
G1 X137.382 Y82.778 E27.38432
G1 X137.791 Y83.385 E27.40867
G1 X138.377 Y84.469 E27.44965
G1 X138.536 Y84.833 E27.46286
G1 X142.806 Y98.269 E27.93177
G1 X142.89 Y98.776 E27.94886
G1 X142.987 Y100.699 E28.0129
G1 X142.89 Y101.913 E28.05341
G1 X142.765 Y102.61 E28.07696
G1 X142.341 Y104.107 E28.12871
G1 X142.064 Y104.788 E28.15316
G1 X141.34 Y106.163 E28.20485
G1 X141.007 Y106.657 E28.22466
G1 X140.166 Y107.705 E28.26936
G1 X139.369 Y108.509 E28.30701
G1 X138.187 Y109.436 E28.35697
G1 X137.121 Y110.074 E28.39829
G1 X136.387 Y110.41 E28.42514
G1 X136.774 Y110.639 E28.4401
G1 X137.786 Y111.6 E28.48651
G1 X139.267 Y113.483 E28.56619
G1 X139.64 Y114.162 E28.59196
G1 X140.277 Y115.745 E28.64871
G1 X143 Y125.364 E28.98121
G1 X143 Y135.104 E29.30517
G1 X142.596 Y136.747 E29.36144
G1 X146.162 Y135.679 E29.48525
G1 X146.716 Y135.587 E29.50393
G1 X148.599 Y135.455 E29.56671
G1 X150.66 Y135.892 E29.63679
G1 X151.742 Y136.275 E29.67496
G1 X153.116 Y136.922 E29.72548
G1 X154.874 Y138.362 E29.80106
G1 X156.114 Y140.076 E29.87142
G1 X156.64 Y141.056 E29.90841
G1 X157.265 Y142.569 E29.96286
G1 X157.485 Y144.785 E30.03693
G1 X157.461 Y145.694 E30.06717
G1 X157.083 Y147.733 E30.13614
G1 X156.619 Y148.984 E30.18052
G1 X156.15 Y149.859 E30.21354
G1 X154.787 Y151.635 E30.288
G1 X153.805 Y152.515 E30.33186
G1 X152.411 Y153.492 E30.38848
G1 X150.488 Y154.166 E30.45625
G1 X149.15 Y154.492 E30.50206
G1 X115.21 Y154.445 E31.63091
G1 X113.238 Y154.082 E31.6976
G1 X112.259 Y153.716 E31.73236
G1 X110.967 Y153.05 E31.78071
G1 X110.033 Y152.419 E31.8182
G1 X107.988 Y153.62 E31.89707
G1 X106.598 Y154.217 E31.94739
G1 X104.18 Y154.5 E32.02836
G1 X70.926 Y154.493 E33.13439
G1 X69.095 Y154.04 E33.19713
G1 X67.46 Y153.43 E33.25517
G1 X66.07 Y152.411 E33.3125
G1 X64.736 Y151.109 E33.3745
G1 X64.172 Y150.378 E33.4052
G1 X63.518 Y149.377 E33.44497
G1 X62.727 Y147.332 E33.5179
G1 X62.517 Y145.453 E33.58079
G1 X62.516 Y144.701 E33.6058
G1 X62.739 Y142.922 E33.66543
G1 X62.978 Y142.055 E33.69534
G1 X63.588 Y140.584 E33.74831
G1 X64.331 Y139.28 E33.79823
G1 X65.809 Y137.81 E33.86756
G1 X66.691 Y137.14 E33.9044
G1 X68.283 Y136.27 E33.96474
G1 X69.477 Y135.846 E34.00688
G1 X70.949 Y135.486 E34.05728
G1 X72.907 Y135.553 E34.12244
G1 X74.321 Y135.793 E34.17015
G1 X77.314 Y136.706 E34.27422
G1 X77.065 Y135.194 E34.32519
G1 X77 Y125.364 E34.65214
G1 X79.84 Y115.408 E34.99649
G1 X80.466 Y113.974 E35.04853
G1 X81.087 Y112.956 E35.08819
G0 F18000 X81.398 Y113.208
G1 F6000 X82.356 Y112.024 E35.13885
G1 X83.261 Y111.192 E35.17974
G1 X84.101 Y110.592 E35.21407
G1 X84.557 Y110.351 E35.23123
G1 X84.237 Y110.249 E35.2424
G1 X83.503 Y109.938 E35.26891
G1 X82.387 Y109.335 E35.3111
G1 X81.628 Y108.824 E35.34153
G1 X81.186 Y108.471 E35.36035
G1 X80.01 Y107.312 E35.41526
G1 X79.504 Y106.689 E35.44196
G1 X79.052 Y106.032 E35.46848
G1 X78.285 Y104.573 E35.52331
G1 X77.881 Y103.502 E35.56138
G1 X77.683 Y102.786 E35.58609
G1 X77.422 Y101.075 E35.64365
G1 X77.4 Y100.522 E35.66206
