;FLAVOR:Marlin
;TIME:2679
;Filament used: 3.30014m
;Layer height: 0.2
;MINX:83.04
;MINY:56.193
;MINZ:0.2
;MAXX:136.96
;MAXY:161.8
;MAXZ:21.88
;TARGET_MACHINE.NAME:Creality Ender-3 V3 KE
;Generated with Cura_SteamEngine 5.9.1
M140 S60
M105
M190 S60
M82 ;absolute extrusion mode
M220 S100 ;Reset Feedrate
M221 S100 ;Reset Flowrate

G28 ;Home

G92 E0 ;Reset Extruder
G1 Z2.0 F3000 ;Move Z Axis up
G1 X-2.0 Y20 Z0.28 F5000.0 ;Move to start position
M109 S220.0
G1 X-2.0 Y145.0 Z0.28 F1500.0 E15 ;Draw the first line
G1 X-1.7 Y145.0 Z0.28 F5000.0 ;Move to side a little
G1 X-1.7 Y20 Z0.28 F1500.0 E30 ;Draw the second line
G92 E0 ;Reset Extruder
G1 E-1 F1800 ;Retract a bit
G1 Z2.0 F3000 ;Move Z Axis up
G1 E0 F1800
G92 E0
G92 E0
G1 F2400 E-0.8
;LAYER_COUNT:121
;LAYER:0
M107
M204 S500
G0 F18000 X95.036 Y102.378 Z0.2
;TYPE:SKIRT
G1 F2400 E0
G1 F6000 X95 Y102.467 E0.00319
G1 X94.969 Y102.393 E0.00586
G1 X94.996 Y102.293 E0.00931
G1 X95.003 Y102.261 E0.0104
G1 X95.036 Y102.378 E0.01444
G0 F18000 X95.025 Y103.722
G1 F6000 X95.001 Y103.837 E0.01835
G1 X94.995 Y103.803 E0.0195
G1 X94.953 Y103.611 E0.02603
G1 X94.889 Y103.359 E0.03468
G1 X94.8 Y103.07 E0.04474
G1 X94.671 Y102.716 E0.05727
G1 X94.561 Y102.453 E0.06675
G1 X94.546 Y102.422 E0.0679
G1 X94.609 Y102.189 E0.07592
G1 X94.66 Y101.971 E0.08337
G1 X94.758 Y101.459 E0.10071
G1 X94.796 Y101.199 E0.10945
G1 X94.846 Y100.708 E0.12586
G1 X94.859 Y100.512 E0.1324
G1 X94.876 Y100.041 E0.14807
G1 X94.878 Y99.934 E0.15163
G1 X94.88 Y92.05 E0.41385
G1 X95.124 Y92.05 E0.42197
G1 X95.139 Y100.193 E0.69281
G1 X95.145 Y100.385 E0.6992
G1 X95.178 Y100.886 E0.7159
G1 X95.198 Y101.081 E0.72242
G1 X95.244 Y101.43 E0.73412
G1 X95.283 Y101.661 E0.74192
G1 X95.387 Y102.151 E0.75858
G1 X95.459 Y102.409 E0.76749
G1 X95.424 Y102.484 E0.77024
G1 X95.322 Y102.736 E0.77928
G1 X95.195 Y103.093 E0.79188
G1 X95.106 Y103.389 E0.80216
G1 X95.025 Y103.722 E0.81356
G0 F18000 X94.743 Y105.182
G1 F6000 X94.737 Y105.026 E0.81875
G1 X94.704 Y104.528 E0.83535
G1 X94.667 Y104.227 E0.84544
G1 X94.602 Y103.876 E0.85731
G1 X94.565 Y103.709 E0.863
G1 X94.501 Y103.457 E0.87165
G1 X94.424 Y103.207 E0.88035
G1 X94.295 Y102.853 E0.89288
G1 X94.199 Y102.625 E0.90111
G1 X94.119 Y102.457 E0.9073
G1 X94.123 Y102.445 E0.90772
G1 X94.155 Y102.336 E0.9115
G1 X94.223 Y102.084 E0.92018
G1 X94.267 Y101.896 E0.9266
G1 X94.365 Y101.384 E0.94394
G1 X94.398 Y101.158 E0.95154
G1 X94.448 Y100.667 E0.96795
G1 X94.459 Y100.498 E0.97359
G1 X94.476 Y100.027 E0.98926
G1 X94.478 Y99.934 E0.99235
G1 X94.48 Y91.65 E1.26788
G1 X95.524 Y91.65 E1.30261
G1 X95.539 Y100.193 E1.58675
G1 X95.545 Y100.359 E1.59227
G1 X95.578 Y100.86 E1.60897
G1 X95.594 Y101.029 E1.61462
G1 X95.64 Y101.378 E1.62633
G1 X95.675 Y101.578 E1.63308
G1 X95.779 Y102.068 E1.64974
G1 X95.861 Y102.367 E1.66005
G1 X95.885 Y102.439 E1.66258
G1 X95.787 Y102.652 E1.67037
G1 X95.698 Y102.87 E1.67821
G1 X95.571 Y103.227 E1.69081
G1 X95.495 Y103.483 E1.69969
G1 X95.414 Y103.816 E1.71109
G1 X95.374 Y104.011 E1.71771
G1 X95.294 Y104.5 E1.73419
G1 X95.261 Y104.839 E1.74552
G1 X95.246 Y105.321 E1.76156
G1 X95.245 Y105.4 E1.76419
G1 X95.244 Y106.55 E1.80243
G1 X94.75 Y106.55 E1.81886
G1 X94.751 Y106.52 E1.81986
G1 X94.743 Y105.182 E1.86437
G0 F18000 X94.351 Y106.523
G1 F6000 X94.343 Y105.185 E1.90887
G1 X94.338 Y105.053 E1.91326
G1 X94.305 Y104.555 E1.92986
G1 X94.273 Y104.299 E1.93844
G1 X94.208 Y103.948 E1.95032
G1 X94.177 Y103.807 E1.95512
G1 X94.113 Y103.555 E1.96377
G1 X94.048 Y103.344 E1.97111
G1 X93.919 Y102.99 E1.98364
G1 X93.838 Y102.797 E1.9906
G1 X93.69 Y102.487 E2.00203
G1 X93.742 Y102.324 E2.00772
G1 X93.769 Y102.232 E2.01091
G1 X93.837 Y101.98 E2.01959
G1 X93.874 Y101.821 E2.02502
G1 X93.972 Y101.309 E2.04236
G1 X94 Y101.118 E2.04878
G1 X94.05 Y100.627 E2.06519
G1 X94.06 Y100.483 E2.06999
G1 X94.077 Y100.012 E2.08567
G1 X94.078 Y99.934 E2.08826
G1 X94.08 Y91.25 E2.37709
G1 X95.923 Y91.25 E2.43839
G1 X95.939 Y100.192 E2.73581
G1 X95.944 Y100.333 E2.7405
G1 X95.977 Y100.834 E2.7572
G1 X95.991 Y100.976 E2.76194
G1 X96.037 Y101.325 E2.77365
G1 X96.066 Y101.495 E2.77939
G1 X96.17 Y101.985 E2.79605
G1 X96.24 Y102.238 E2.80478
G1 X96.317 Y102.465 E2.81275
G1 X96.281 Y102.536 E2.8154
G1 X96.15 Y102.82 E2.8258
G1 X96.075 Y103.004 E2.83241
G1 X95.948 Y103.361 E2.84501
G1 X95.883 Y103.578 E2.85255
G1 X95.802 Y103.911 E2.86395
G1 X95.769 Y104.076 E2.86954
G1 X95.689 Y104.565 E2.88602
G1 X95.661 Y104.852 E2.89561
G1 X95.646 Y105.334 E2.91165
G1 X95.645 Y105.4 E2.91385
G1 X95.644 Y106.809 E2.96071
G1 X95.654 Y106.95 E2.96541
G1 X94.334 Y106.95 E3.00932
G1 X94.349 Y106.64 E3.01964
G1 X94.351 Y106.523 E3.02353
G0 F18000 X93.883 Y107.35
G1 F6000 X93.918 Y107.105 E3.03176
G1 X93.934 Y106.938 E3.03734
G1 X93.949 Y106.621 E3.0479
G1 X93.951 Y106.525 E3.05109
G1 X93.943 Y105.187 E3.09559
G1 X93.939 Y105.079 E3.09919
G1 X93.906 Y104.581 E3.11579
G1 X93.88 Y104.372 E3.12279
G1 X93.815 Y104.021 E3.13467
G1 X93.79 Y103.906 E3.13858
G1 X93.726 Y103.654 E3.14723
G1 X93.672 Y103.481 E3.15326
G1 X93.543 Y103.127 E3.16579
G1 X93.477 Y102.969 E3.17148
G1 X93.327 Y102.654 E3.18309
G1 X93.277 Y102.556 E3.18675
G1 X93.259 Y102.524 E3.18797
G1 X93.361 Y102.203 E3.19917
G1 X93.383 Y102.128 E3.20177
G1 X93.451 Y101.876 E3.21045
G1 X93.481 Y101.745 E3.21492
G1 X93.579 Y101.233 E3.23226
G1 X93.602 Y101.077 E3.2375
G1 X93.652 Y100.586 E3.25392
G1 X93.66 Y100.469 E3.25782
G1 X93.677 Y99.998 E3.2735
G1 X93.678 Y99.933 E3.27566
G1 X93.681 Y90.85 E3.57776
G1 X96.322 Y90.85 E3.6656
G1 X96.339 Y100.191 E3.97628
G1 X96.343 Y100.306 E3.98011
G1 X96.376 Y100.807 E3.99681
G1 X96.387 Y100.924 E4.00072
G1 X96.433 Y101.273 E4.01243
G1 X96.457 Y101.412 E4.01712
G1 X96.561 Y101.902 E4.03378
G1 X96.618 Y102.109 E4.04092
G1 X96.752 Y102.501 E4.0547
G1 X96.711 Y102.573 E4.05745
G1 X96.645 Y102.703 E4.0623
G1 X96.514 Y102.987 E4.07271
G1 X96.452 Y103.138 E4.07813
G1 X96.325 Y103.495 E4.09074
G1 X96.272 Y103.673 E4.09691
G1 X96.191 Y104.006 E4.10831
G1 X96.164 Y104.14 E4.11286
G1 X96.084 Y104.629 E4.12934
G1 X96.061 Y104.864 E4.13719
G1 X96.046 Y105.346 E4.15323
G1 X96.045 Y105.401 E4.15506
G1 X96.044 Y106.81 E4.20193
G1 X96.063 Y107.074 E4.21073
G1 X96.104 Y107.35 E4.22001
G1 X93.883 Y107.35 E4.29388
G0 F18000 X93.438 Y107.567
G1 F6000 X93.473 Y107.396 E4.29969
G1 X93.522 Y107.049 E4.31134
G1 X93.534 Y106.919 E4.31568
G1 X93.549 Y106.602 E4.32624
G1 X93.551 Y106.528 E4.3287
G1 X93.543 Y105.19 E4.3732
G1 X93.54 Y105.105 E4.37603
G1 X93.507 Y104.607 E4.39263
G1 X93.487 Y104.445 E4.39806
G1 X93.422 Y104.094 E4.40993
G1 X93.402 Y104.004 E4.413
G1 X93.338 Y103.752 E4.42165
G1 X93.296 Y103.618 E4.42632
G1 X93.167 Y103.264 E4.43885
G1 X93.116 Y103.141 E4.44328
G1 X92.966 Y102.826 E4.45488
G1 X92.927 Y102.75 E4.45772
G1 X92.817 Y102.551 E4.46529
G1 X92.855 Y102.473 E4.46817
G1 X92.979 Y102.082 E4.48182
G1 X92.997 Y102.024 E4.48384
G1 X93.065 Y101.772 E4.49252
G1 X93.088 Y101.67 E4.496
G1 X93.186 Y101.158 E4.51333
G1 X93.204 Y101.037 E4.5174
G1 X93.254 Y100.546 E4.53382
G1 X93.26 Y100.454 E4.53688
G1 X93.277 Y99.983 E4.55256
G1 X93.278 Y99.933 E4.55422
G1 X93.281 Y90.45 E4.86963
G1 X96.722 Y90.45 E4.98408
G1 X96.739 Y100.191 E5.30806
G1 X96.742 Y100.28 E5.31103
G1 X96.775 Y100.781 E5.32773
G1 X96.784 Y100.872 E5.33077
G1 X96.83 Y101.221 E5.34248
G1 X96.849 Y101.329 E5.34612
G1 X96.953 Y101.819 E5.36278
G1 X96.997 Y101.98 E5.36833
G1 X97.175 Y102.502 E5.38668
G1 X97.191 Y102.536 E5.38793
G1 X97.059 Y102.77 E5.39686
G1 X97.008 Y102.871 E5.40063
G1 X96.877 Y103.155 E5.41103
G1 X96.829 Y103.272 E5.41524
G1 X96.702 Y103.629 E5.42784
G1 X96.661 Y103.767 E5.43263
G1 X96.58 Y104.1 E5.44402
G1 X96.558 Y104.205 E5.44759
G1 X96.478 Y104.694 E5.46407
G1 X96.461 Y104.876 E5.47015
G1 X96.446 Y105.358 E5.48619
G1 X96.445 Y105.401 E5.48762
G1 X96.444 Y106.81 E5.53449
G1 X96.459 Y107.016 E5.54136
G1 X96.533 Y107.517 E5.5582
G1 X96.591 Y107.75 E5.56619
G1 X93.388 Y107.75 E5.67272
G1 X93.438 Y107.567 E5.67903
G0 F18000 X92.904 Y107.952
G1 F6000 X92.962 Y107.793 E5.68466
G1 X93.052 Y107.462 E5.69607
G1 X93.077 Y107.34 E5.70021
G1 X93.126 Y106.993 E5.71186
G1 X93.135 Y106.9 E5.71497
G1 X93.15 Y106.583 E5.72553
G1 X93.151 Y106.53 E5.72729
G1 X93.143 Y105.192 E5.77179
G1 X93.141 Y105.132 E5.77379
G1 X93.108 Y104.634 E5.79039
G1 X93.093 Y104.518 E5.79428
G1 X93.028 Y104.167 E5.80615
G1 X93.014 Y104.103 E5.80833
G1 X92.95 Y103.851 E5.81698
G1 X92.921 Y103.755 E5.82031
G1 X92.792 Y103.401 E5.83285
G1 X92.755 Y103.313 E5.83602
G1 X92.605 Y102.998 E5.84763
G1 X92.577 Y102.943 E5.84968
G1 X92.423 Y102.665 E5.86025
G1 X92.383 Y102.612 E5.86246
G1 X92.383 Y102.514 E5.86572
G1 X92.474 Y102.352 E5.8719
G1 X92.598 Y101.961 E5.88554
G1 X92.61 Y101.92 E5.88696
G1 X92.678 Y101.668 E5.89564
G1 X92.695 Y101.595 E5.89813
G1 X92.793 Y101.083 E5.91547
G1 X92.806 Y100.996 E5.9184
G1 X92.856 Y100.505 E5.93481
G1 X92.86 Y100.44 E5.93698
G1 X92.877 Y99.969 E5.95266
G1 X92.878 Y99.933 E5.95385
G1 X92.881 Y90.05 E6.28256
G1 X97.121 Y90.05 E6.42359
G1 X97.139 Y100.19 E6.76084
G1 X97.141 Y100.254 E6.76297
G1 X97.174 Y100.755 E6.77967
G1 X97.181 Y100.82 E6.78185
G1 X97.227 Y101.169 E6.79356
G1 X97.24 Y101.246 E6.79615
G1 X97.344 Y101.736 E6.81281
G1 X97.376 Y101.851 E6.81678
G1 X97.554 Y102.373 E6.83513
G1 X97.617 Y102.498 E6.83978
G1 X97.617 Y102.608 E6.84344
G1 X97.581 Y102.659 E6.84552
G1 X97.408 Y102.966 E6.85724
G1 X97.371 Y103.038 E6.85993
G1 X97.24 Y103.322 E6.87033
G1 X97.206 Y103.406 E6.87335
G1 X97.079 Y103.763 E6.88595
G1 X97.049 Y103.862 E6.88939
G1 X96.968 Y104.195 E6.90079
G1 X96.953 Y104.27 E6.90333
G1 X96.873 Y104.759 E6.91981
G1 X96.86 Y104.889 E6.92416
G1 X96.845 Y105.371 E6.9402
G1 X96.845 Y105.401 E6.9412
G1 X96.844 Y106.81 E6.98806
G1 X96.855 Y106.957 E6.99296
G1 X96.929 Y107.458 E7.00981
G1 X96.976 Y107.648 E7.01632
G1 X97.129 Y108.077 E7.03147
G1 X97.164 Y108.15 E7.03416
G1 X92.812 Y108.15 E7.17891
G1 X92.904 Y107.952 E7.18617
G0 F18000 X92.368 Y108.156
G1 F6000 X92.541 Y107.783 E7.19984
G1 X92.576 Y107.688 E7.20321
G1 X92.666 Y107.357 E7.21462
G1 X92.681 Y107.284 E7.2171
G1 X92.73 Y106.937 E7.22875
G1 X92.735 Y106.881 E7.23062
G1 X92.75 Y106.564 E7.24118
G1 X92.751 Y106.532 E7.24224
G1 X92.743 Y105.194 E7.28675
G1 X92.742 Y105.158 E7.28794
G1 X92.709 Y104.66 E7.30454
G1 X92.7 Y104.591 E7.30686
G1 X92.635 Y104.24 E7.31873
G1 X92.627 Y104.201 E7.32006
G1 X92.563 Y103.949 E7.3287
G1 X92.545 Y103.892 E7.33069
G1 X92.416 Y103.538 E7.34322
G1 X92.394 Y103.485 E7.34513
G1 X92.244 Y103.17 E7.35674
G1 X92.227 Y103.137 E7.35797
G1 X92.073 Y102.859 E7.36854
G1 X91.983 Y102.75 E7.37324
G1 X91.983 Y102.402 E7.38482
G1 X92.093 Y102.231 E7.39158
G1 X92.217 Y101.84 E7.40522
G1 X92.224 Y101.815 E7.40609
G1 X92.292 Y101.563 E7.41477
G1 X92.302 Y101.52 E7.41624
G1 X92.4 Y101.008 E7.43357
G1 X92.408 Y100.956 E7.43532
G1 X92.458 Y100.465 E7.45174
G1 X92.461 Y100.426 E7.45304
G1 X92.478 Y99.955 E7.46872
G1 X92.478 Y99.933 E7.46945
G1 X92.481 Y89.65 E7.81146
G1 X97.52 Y89.65 E7.97906
G1 X97.539 Y100.189 E8.32959
G1 X97.54 Y100.227 E8.33085
G1 X97.573 Y100.728 E8.34755
G1 X97.577 Y100.767 E8.34886
G1 X97.623 Y101.116 E8.36056
G1 X97.631 Y101.163 E8.36215
G1 X97.735 Y101.653 E8.37881
G1 X97.754 Y101.722 E8.38119
G1 X97.932 Y102.244 E8.39953
G1 X98.017 Y102.395 E8.4053
G1 X98.017 Y102.745 E8.41694
G1 X97.929 Y102.855 E8.42162
G1 X97.756 Y103.162 E8.43334
G1 X97.734 Y103.206 E8.43498
G1 X97.603 Y103.49 E8.44538
G1 X97.583 Y103.54 E8.44717
G1 X97.456 Y103.897 E8.45978
G1 X97.438 Y103.956 E8.46183
G1 X97.357 Y104.289 E8.47323
G1 X97.348 Y104.334 E8.47475
G1 X97.268 Y104.823 E8.49123
G1 X97.26 Y104.901 E8.49384
G1 X97.245 Y105.383 E8.50988
G1 X97.245 Y105.402 E8.51051
G1 X97.244 Y106.811 E8.55738
G1 X97.25 Y106.899 E8.56031
G1 X97.324 Y107.4 E8.57715
G1 X97.353 Y107.514 E8.58107
G1 X97.506 Y107.943 E8.59622
G1 X97.557 Y108.051 E8.60019
G1 X97.766 Y108.397 E8.61363
G1 X97.838 Y108.493 E8.61762
G1 X98.103 Y108.781 E8.63064
G1 X98.173 Y108.846 E8.63382
G1 X98.374 Y109.005 E8.64234
G1 X98.457 Y109.06 E8.64565
G1 X98.879 Y109.292 E8.66167
G1 X98.982 Y109.336 E8.6654
G1 X99.331 Y109.45 E8.67761
G1 X99.411 Y109.471 E8.68036
G1 X99.801 Y109.541 E8.69354
G1 X99.873 Y109.547 E8.69594
G1 X100.049 Y109.677 E8.70322
G1 X100.722 Y109.993 E8.72795
G1 X100.758 Y110.001 E8.72917
G1 X100.758 Y111.922 E8.79307
G1 X100.526 Y112.024 E8.80149
G1 X100.47 Y112.052 E8.80358
G1 X100.129 Y112.247 E8.81664
G1 X100.039 Y112.31 E8.8203
G1 X99.824 Y112.492 E8.82967
G1 X99.711 Y112.579 E8.83441
G1 X99.404 Y112.97 E8.85094
G1 X99.348 Y113.056 E8.85436
G1 X99.209 Y113.313 E8.86407
G1 X99.175 Y113.389 E8.86684
G1 X99.03 Y113.779 E8.88068
G1 X99.001 Y113.882 E8.88424
G1 X98.932 Y114.266 E8.89722
G1 X98.924 Y114.336 E8.89956
G1 X98.904 Y114.67 E8.91069
G1 X98.903 Y114.707 E8.91192
G1 X98.909 Y120.159 E9.09326
G1 X98.917 Y120.253 E9.09639
G1 X98.995 Y120.738 E9.11273
G1 X99.021 Y120.841 E9.11627
G1 X99.161 Y121.241 E9.13036
G1 X99.211 Y121.35 E9.13435
G1 X99.449 Y121.75 E9.14983
G1 X99.518 Y121.843 E9.15368
G1 X99.806 Y122.165 E9.16805
G1 X99.882 Y122.237 E9.17153
G1 X100.223 Y122.505 E9.18596
G1 X100.289 Y122.55 E9.18861
G1 X100.708 Y122.797 E9.20479
G1 X100.708 Y130.35 E9.45601
G1 X89.292 Y130.35 E9.8357
G1 X89.292 Y122.794 E10.08702
G1 X89.697 Y122.573 E10.10236
G1 X89.76 Y122.533 E10.10484
G1 X90.047 Y122.327 E10.11659
G1 X90.121 Y122.264 E10.11983
G1 X90.398 Y121.987 E10.13286
G1 X90.478 Y121.889 E10.13706
G1 X90.724 Y121.509 E10.15212
G1 X90.777 Y121.407 E10.15594
G1 X90.924 Y121.041 E10.16906
G1 X90.952 Y120.949 E10.17226
G1 X91.037 Y120.571 E10.18515
G1 X91.049 Y120.499 E10.18757
G1 X91.076 Y120.231 E10.19653
G1 X91.079 Y120.195 E10.19773
G1 X91.09 Y119.915 E10.20705
G1 X91.09 Y119.892 E10.20782
G1 X91.098 Y114.668 E10.38157
G1 X91.094 Y114.596 E10.38397
G1 X91.05 Y114.229 E10.39626
G1 X91.037 Y114.159 E10.39863
G1 X90.95 Y113.8 E10.41092
G1 X90.915 Y113.697 E10.41453
G1 X90.73 Y113.282 E10.42965
G1 X90.657 Y113.159 E10.4344
G1 X90.339 Y112.748 E10.45169
G1 X90.241 Y112.648 E10.45634
G1 X89.843 Y112.327 E10.47335
G1 X89.74 Y112.26 E10.47744
G1 X89.368 Y112.069 E10.49135
G1 X89.27 Y112.029 E10.49487
G1 X88.795 Y111.883 E10.5114
G1 X88.795 Y110.032 E10.57296
G1 X89.106 Y109.966 E10.58353
G1 X89.162 Y109.952 E10.58545
G1 X89.465 Y109.857 E10.59602
G1 X89.533 Y109.83 E10.59845
G1 X89.943 Y109.644 E10.61342
G1 X90.09 Y109.542 E10.61937
G1 X90.147 Y109.541 E10.62127
G1 X90.256 Y109.529 E10.62492
G1 X90.651 Y109.45 E10.63832
G1 X90.722 Y109.431 E10.64076
G1 X91.044 Y109.324 E10.65205
G1 X91.14 Y109.283 E10.65552
G1 X91.497 Y109.09 E10.66902
G1 X91.595 Y109.024 E10.67295
G1 X91.902 Y108.769 E10.68622
G1 X91.997 Y108.669 E10.69081
G1 X92.302 Y108.266 E10.70762
G1 X92.368 Y108.156 E10.71188
G0 F18000 X92.005 Y107.988
G1 F6000 X92.178 Y107.615 E10.72556
G1 X92.19 Y107.583 E10.7267
G1 X92.28 Y107.252 E10.7381
G1 X92.285 Y107.228 E10.73892
G1 X92.334 Y106.881 E10.75058
G1 X92.336 Y106.862 E10.75121
G1 X92.351 Y106.545 E10.76177
G1 X92.351 Y106.535 E10.7621
G1 X92.343 Y105.197 E10.8066
G1 X92.343 Y105.185 E10.807
G1 X92.31 Y104.687 E10.8236
G1 X92.307 Y104.664 E10.82437
G1 X92.242 Y104.313 E10.83624
G1 X92.239 Y104.3 E10.83669
G1 X92.175 Y104.048 E10.84534
G1 X92.169 Y104.029 E10.846
G1 X92.04 Y103.675 E10.85853
G1 X92.033 Y103.657 E10.85917
G1 X91.883 Y103.342 E10.87078
G1 X91.877 Y103.331 E10.87119
G1 X91.723 Y103.053 E10.88176
G1 X91.631 Y102.968 E10.88593
G1 X91.583 Y102.958 E10.88756
G1 X91.583 Y102.23 E10.91177
G1 X91.64 Y102.211 E10.91377
G1 X91.712 Y102.11 E10.9179
G1 X91.836 Y101.719 E10.93154
G1 X91.838 Y101.711 E10.93181
G1 X91.906 Y101.459 E10.9405
G1 X91.909 Y101.445 E10.94097
G1 X92.007 Y100.933 E10.95831
G1 X92.01 Y100.915 E10.95892
G1 X92.06 Y100.424 E10.97533
G1 X92.061 Y100.411 E10.97577
G1 X92.078 Y99.94 E10.99144
G1 X92.078 Y99.933 E10.99168
G1 X92.081 Y89.25 E11.34699
G1 X97.919 Y89.25 E11.54117
G1 X97.939 Y100.188 E11.90497
G1 X97.939 Y100.201 E11.9054
G1 X97.972 Y100.702 E11.9221
G1 X97.974 Y100.715 E11.92254
G1 X98.02 Y101.064 E11.93424
G1 X98.022 Y101.08 E11.93478
G1 X98.126 Y101.57 E11.95144
