;FLAVOR:Marlin
;TIME:437
;Filament used: 0.590663m
;Layer height: 0.2
;MINX:94.9
;MINY:85.9
;MINZ:0.2
;MAXX:125.1
;MAXY:134.1
;MAXZ:6.92
;TARGET_MACHINE.NAME:Creality Ender-3 V3 KE
;Generated with Cura_SteamEngine 5.10.1
M140 S60
M105
M190 S60
M220 S100 ;Reset Feedrate
M221 S100 ;Reset Flowrate

G28 ;Home

G92 E0 ;Reset Extruder
G1 Z2.0 F3000 ;Move Z Axis up
G1 X-2.0 Y20 Z0.28 F5000.0 ;Move to start position
M109 S220.0
G1 X-2.0 Y145.0 Z0.28 F1500.0 E15 ;Draw the first line
G1 X-1.7 Y145.0 Z0.28 F5000.0 ;Move to side a little
G1 X-1.7 Y20 Z0.28 F1500.0 E30 ;Draw the second line
G92 E0 ;Reset Extruder
G1 E-1 F1800 ;Retract a bit
G1 Z2.0 F3000 ;Move Z Axis up
G1 E0 F1800
M82 ;absolute extrusion mode
G92 E0
G92 E0
G1 F2400 E-0.8
;LAYER_COUNT:29
;LAYER:0
M107
M204 S500
G0 F18000 X96.419 Y88.923 Z0.2
;TYPE:SKIRT
G1 F2400 E0
G1 F6000 X97.98 Y87.464 E0.07107
G1 X100.003 Y86.257 E0.14942
G1 X101.721 Y85.975 E0.20732
G1 X118.148 Y85.9 E0.75369
G1 X120.05 Y86.367 E0.81883
G1 X122.077 Y87.419 E0.89479
G1 X123.536 Y88.98 E0.96586
G1 X124.704 Y90.939 E1.04171
G1 X124.755 Y91.08 E1.0467
G1 X125.035 Y92.845 E1.10614
G1 X125.1 Y103.17 E1.44956
G1 X124.901 Y103.999 E1.47791
G1 X125.03 Y104.774 E1.50405
G1 X125.1 Y115.17 E1.84983
G1 X124.901 Y115.999 E1.87818
G1 X125.03 Y116.774 E1.90431
G1 X125.1 Y127.142 E2.24916
G1 X124.632 Y129.051 E2.31454
G1 X123.581 Y131.077 E2.39045
G1 X122.02 Y132.536 E2.46151
G1 X119.997 Y133.743 E2.53987
G1 X118.279 Y134.025 E2.59777
G1 X101.852 Y134.1 E3.14414
G1 X99.95 Y133.633 E3.20928
G1 X97.923 Y132.581 E3.28524
G1 X96.464 Y131.02 E3.3563
G1 X95.296 Y129.061 E3.43216
G1 X95.245 Y128.92 E3.43715
G1 X94.965 Y127.155 E3.49659
G1 X94.9 Y116.83 E3.84001
G1 X95.099 Y116 E3.86839
G1 X94.97 Y115.226 E3.89449
G1 X94.9 Y104.83 E4.24027
G1 X95.099 Y104 E4.26866
G1 X94.97 Y103.226 E4.29476
G1 X94.9 Y92.858 E4.63961
G1 X95.368 Y90.949 E4.70498
G1 X96.419 Y88.923 E4.78089
G0 F18000 X96.742 Y89.168
G1 F6000 X98.219 Y87.788 E4.84813
G1 X100.143 Y86.64 E4.92264
G1 X101.786 Y86.37 E4.97802
G1 X118.103 Y86.3 E5.52073
G1 X119.907 Y86.743 E5.58252
G1 X121.832 Y87.742 E5.65465
G1 X123.212 Y89.219 E5.72188
G1 X124.36 Y91.144 E5.79643
G1 X124.635 Y92.848 E5.85384
G1 X124.7 Y103.124 E6.19563
G1 X124.493 Y103.986 E6.22511
G1 X124.635 Y104.84 E6.25391
G1 X124.7 Y115.124 E6.59596
G1 X124.493 Y115.986 E6.62544
G1 X124.635 Y116.84 E6.65424
G1 X124.7 Y127.097 E6.99539
G1 X124.256 Y128.908 E7.05741
G1 X123.258 Y130.832 E7.1295
G1 X121.781 Y132.212 E7.19673
G1 X119.857 Y133.36 E7.27125
G1 X118.214 Y133.63 E7.32663
G1 X101.897 Y133.7 E7.86934
G1 X100.093 Y133.257 E7.93112
G1 X98.168 Y132.258 E8.00326
G1 X96.788 Y130.781 E8.07049
G1 X95.64 Y128.856 E8.14504
G1 X95.365 Y127.152 E8.20245
G1 X95.3 Y116.876 E8.54423
G1 X95.507 Y116.013 E8.57375
G1 X95.365 Y115.16 E8.60251
G1 X95.3 Y104.876 E8.94457
G1 X95.507 Y104.013 E8.97408
G1 X95.365 Y103.16 E9.00285
G1 X95.3 Y92.903 E9.344
G1 X95.744 Y91.092 E9.40602
G1 X96.742 Y89.168 E9.47811
G0 F18000 X97.065 Y89.413
G1 F6000 X98.461 Y88.109 E9.54165
G1 X100.281 Y87.023 E9.61214
G1 X101.851 Y86.765 E9.66505
G1 X118.058 Y86.7 E10.20411
G1 X119.764 Y87.119 E10.26253
G1 X121.587 Y88.065 E10.33085
G1 X122.891 Y89.461 E10.39438
G1 X123.977 Y91.281 E10.46487
G1 X124.235 Y92.851 E10.51779
G1 X124.3 Y103.078 E10.85795
G1 X124.085 Y103.973 E10.88856
G1 X124.24 Y104.906 E10.92002
G1 X124.3 Y115.078 E11.25835
G1 X124.085 Y115.973 E11.28896
G1 X124.24 Y116.906 E11.32042
G1 X124.3 Y127.052 E11.65788
G1 X123.88 Y128.765 E11.71655
G1 X122.935 Y130.587 E11.78481
G1 X121.539 Y131.891 E11.84835
G1 X119.719 Y132.977 E11.91884
G1 X118.149 Y133.235 E11.97176
G1 X101.942 Y133.3 E12.51081
G1 X100.236 Y132.881 E12.56924
G1 X98.413 Y131.935 E12.63755
G1 X97.109 Y130.539 E12.70109
G1 X96.023 Y128.719 E12.77158
G1 X95.765 Y127.149 E12.8245
G1 X95.7 Y116.922 E13.16465
G1 X95.915 Y116.026 E13.1953
G1 X95.76 Y115.094 E13.22673
G1 X95.7 Y104.922 E13.56505
G1 X95.915 Y104.026 E13.5957
G1 X95.76 Y103.094 E13.62713
G1 X95.7 Y92.948 E13.96459
G1 X96.12 Y91.235 E14.02325
G1 X97.065 Y89.413 E14.09152
G0 F18000 X97.388 Y89.658
G1 F6000 X98.703 Y88.43 E14.15136
G1 X100.419 Y87.406 E14.21782
G1 X101.916 Y87.16 E14.26828
G1 X118.013 Y87.1 E14.80367
G1 X119.621 Y87.495 E14.85875
G1 X121.342 Y88.388 E14.92323
G1 X122.57 Y89.703 E14.98308
G1 X123.594 Y91.419 E15.04954
G1 X123.84 Y92.916 E15.1
G1 X123.9 Y103.032 E15.43646
G1 X123.677 Y103.96 E15.46821
G1 X123.845 Y104.972 E15.50233
G1 X123.9 Y115.032 E15.83693
G1 X123.677 Y115.96 E15.86867
G1 X123.845 Y116.972 E15.90279
G1 X123.9 Y127.007 E16.23656
G1 X123.504 Y128.622 E16.29187
G1 X122.612 Y130.342 E16.35631
G1 X121.297 Y131.57 E16.41616
G1 X119.581 Y132.594 E16.48262
G1 X118.084 Y132.84 E16.53308
G1 X101.987 Y132.9 E17.06847
G1 X100.379 Y132.505 E17.12354
G1 X98.658 Y131.612 E17.18803
G1 X97.43 Y130.297 E17.24787
G1 X96.406 Y128.581 E17.31434
G1 X96.16 Y127.084 E17.36479
G1 X96.1 Y116.968 E17.70126
G1 X96.323 Y116.039 E17.73304
G1 X96.155 Y115.028 E17.76712
G1 X96.1 Y104.968 E18.10173
G1 X96.323 Y104.039 E18.1335
G1 X96.155 Y103.028 E18.16759
G1 X96.1 Y92.993 E18.50136
G1 X96.496 Y91.378 E18.55667
G1 X97.388 Y89.658 E18.62111
G0 F18000 X97.711 Y89.903
G1 F6000 X98.945 Y88.751 E18.67726
G1 X100.557 Y87.789 E18.73969
G1 X101.981 Y87.555 E18.78769
G1 X117.968 Y87.5 E19.31942
G1 X119.478 Y87.871 E19.37114
G1 X121.097 Y88.711 E19.4318
G1 X122.249 Y89.945 E19.48795
G1 X123.211 Y91.557 E19.55039
G1 X123.445 Y92.981 E19.59839
G1 X123.5 Y102.985 E19.93113
G1 X123.269 Y103.945 E19.96397
G1 X123.445 Y104.974 E19.99869
G1 X123.5 Y114.985 E20.33166
G1 X123.269 Y115.945 E20.3645
G1 X123.445 Y116.974 E20.39922
G1 X123.5 Y126.962 E20.73143
G1 X123.128 Y128.479 E20.78338
G1 X122.289 Y130.097 E20.844
G1 X121.055 Y131.249 E20.90015
G1 X119.443 Y132.211 E20.96259
G1 X118.019 Y132.445 E21.01059
G1 X102.032 Y132.5 E21.54232
G1 X100.522 Y132.129 E21.59403
G1 X98.903 Y131.289 E21.6547
G1 X97.751 Y130.055 E21.71085
G1 X96.789 Y128.443 E21.77328
G1 X96.555 Y127.019 E21.82128
G1 X96.5 Y117.015 E22.15402
G1 X96.731 Y116.055 E22.18686
G1 X96.555 Y115.026 E22.22158
G1 X96.5 Y105.015 E22.55456
G1 X96.731 Y104.055 E22.5874
G1 X96.555 Y103.026 E22.62212
G1 X96.5 Y93.038 E22.95433
G1 X96.872 Y91.521 E23.00628
G1 X97.711 Y89.903 E23.0669
G0 F18000 X98.034 Y90.148
G1 F6000 X99.187 Y89.072 E23.11935
G1 X100.695 Y88.172 E23.17776
G1 X102.046 Y87.95 E23.2233
G1 X117.921 Y87.9 E23.7513
G1 X119.336 Y88.248 E23.79977
G1 X120.852 Y89.034 E23.85657
G1 X121.928 Y90.187 E23.90902
G1 X122.828 Y91.695 E23.96743
G1 X123.05 Y93.046 E24.01297
G1 X123.1 Y102.938 E24.34198
G1 X122.855 Y103.953 E24.37671
G1 X122.888 Y104.067 E24.38066
G1 X123.05 Y105.04 E24.41346
G1 X123.1 Y114.938 E24.74268
G1 X122.855 Y115.953 E24.77741
G1 X122.888 Y116.067 E24.78135
G1 X123.05 Y117.04 E24.81416
G1 X123.1 Y126.917 E25.14268
G1 X122.752 Y128.336 E25.19127
G1 X121.966 Y129.852 E25.24807
G1 X120.813 Y130.928 E25.30052
G1 X119.305 Y131.828 E25.35893
G1 X117.954 Y132.05 E25.40447
G1 X102.079 Y132.1 E25.93247
G1 X100.664 Y131.752 E25.98094
G1 X99.148 Y130.966 E26.03774
G1 X98.072 Y129.813 E26.09019
G1 X97.172 Y128.305 E26.1486
G1 X96.95 Y126.954 E26.19414
G1 X96.9 Y117.062 E26.52315
G1 X97.145 Y116.047 E26.55788
G1 X97.112 Y115.933 E26.56183
G1 X96.95 Y114.96 E26.59463
G1 X96.9 Y105.062 E26.92385
G1 X97.145 Y104.047 E26.95858
G1 X97.112 Y103.933 E26.96252
G1 X96.95 Y102.96 E26.99533
G1 X96.9 Y93.083 E27.32385
G1 X97.248 Y91.664 E27.37244
G1 X98.034 Y90.148 E27.42924
G0 F18000 X98.357 Y90.393
G1 F6000 X99.429 Y89.393 E27.478
G1 X100.833 Y88.555 E27.53238
G1 X102.111 Y88.345 E27.57546
G1 X117.875 Y88.3 E28.09977
G1 X119.193 Y88.624 E28.14491
G1 X120.607 Y89.357 E28.19789
G1 X121.607 Y90.429 E28.24665
G1 X122.445 Y91.833 E28.30103
G1 X122.655 Y93.111 E28.3441
G1 X122.7 Y102.891 E28.66939
G1 X122.439 Y103.968 E28.70625
G1 X122.493 Y104.133 E28.71202
G1 X122.655 Y105.106 E28.74483
G1 X122.7 Y114.891 E29.07029
G1 X122.439 Y115.968 E29.10714
G1 X122.493 Y116.133 E29.11292
G1 X122.655 Y117.106 E29.14573
G1 X122.7 Y126.872 E29.47055
G1 X122.376 Y128.193 E29.51579
G1 X121.643 Y129.607 E29.56876
G1 X120.571 Y130.607 E29.61752
G1 X119.167 Y131.445 E29.6719
G1 X117.889 Y131.655 E29.71498
G1 X102.125 Y131.7 E30.23929
G1 X100.807 Y131.376 E30.28444
G1 X99.393 Y130.643 E30.33741
G1 X98.393 Y129.571 E30.38617
G1 X97.555 Y128.167 E30.44055
G1 X97.345 Y126.889 E30.48363
G1 X97.3 Y117.109 E30.80892
G1 X97.561 Y116.032 E30.84577
G1 X97.507 Y115.867 E30.85155
G1 X97.345 Y114.894 E30.88436
G1 X97.3 Y105.109 E31.20981
G1 X97.561 Y104.032 E31.24667
G1 X97.507 Y103.867 E31.25244
G1 X97.345 Y102.894 E31.28525
G1 X97.3 Y93.128 E31.61007
G1 X97.624 Y91.807 E31.65531
G1 X98.357 Y90.393 E31.70828
G0 F18000 X98.679 Y90.64
G1 F6000 X99.674 Y89.712 E31.75354
G1 X100.971 Y88.938 E31.80377
G1 X102.176 Y88.74 E31.84439
G1 X117.829 Y88.7 E32.36501
G1 X119.05 Y89 E32.40683
G1 X120.36 Y89.679 E32.45591
G1 X121.288 Y90.674 E32.50116
G1 X122.062 Y91.971 E32.55139
G1 X122.26 Y93.176 E32.59201
G1 X122.3 Y102.843 E32.91354
G1 X122.021 Y103.992 E32.95287
G1 X122.098 Y104.199 E32.96021
G1 X122.26 Y105.172 E32.99302
G1 X122.3 Y114.843 E33.31468
G1 X122.021 Y115.992 E33.35401
G1 X122.098 Y116.199 E33.36135
G1 X122.26 Y117.172 E33.39416
G1 X122.3 Y126.827 E33.71529
G1 X122 Y128.05 E33.75717
G1 X121.321 Y129.36 E33.80625
G1 X120.326 Y130.288 E33.8515
G1 X119.029 Y131.062 E33.90174
G1 X117.824 Y131.26 E33.94235
G1 X102.171 Y131.3 E34.46298
G1 X100.95 Y131 E34.50479
G1 X99.64 Y130.321 E34.55387
G1 X98.712 Y129.326 E34.59912
G1 X97.938 Y128.029 E34.64936
G1 X97.74 Y126.824 E34.68998
G1 X97.7 Y117.157 E35.0115
G1 X97.979 Y116.008 E35.05083
G1 X97.902 Y115.801 E35.05818
G1 X97.74 Y114.828 E35.09098
G1 X97.7 Y105.157 E35.41265
G1 X97.979 Y104.008 E35.45197
G1 X97.902 Y103.801 E35.45932
G1 X97.74 Y102.828 E35.49213
G1 X97.7 Y93.173 E35.81325
G1 X98 Y91.95 E35.85514
G1 X98.679 Y90.64 E35.90421
G0 F18000 X99.001 Y90.887
G1 F6000 X99.916 Y90.034 E35.94582
G1 X101.111 Y89.321 E35.9921
G1 X102.241 Y89.135 E36.03019
G1 X117.783 Y89.1 E36.54712
G1 X118.907 Y89.376 E36.58562
G1 X120.113 Y90.001 E36.6308
G1 X120.966 Y90.916 E36.6724
G1 X121.679 Y92.111 E36.71868
G1 X121.865 Y93.241 E36.75677
G1 X121.9 Y102.795 E37.07454
G1 X121.653 Y103.811 E37.10932
G1 X121.58 Y103.982 E37.1155
G1 X121.703 Y104.265 E37.12577
G1 X121.865 Y105.238 E37.15858
G1 X121.9 Y114.795 E37.47644
G1 X121.653 Y115.811 E37.51122
G1 X121.58 Y115.982 E37.51741
G1 X121.703 Y116.265 E37.52767
G1 X121.865 Y117.238 E37.56048
G1 X121.9 Y126.782 E37.87791
G1 X121.624 Y127.907 E37.91644
G1 X120.999 Y129.113 E37.96162
G1 X120.084 Y129.966 E38.00322
G1 X118.889 Y130.679 E38.04951
G1 X117.759 Y130.865 E38.0876
G1 X102.217 Y130.9 E38.60453
G1 X101.093 Y130.624 E38.64302
G1 X99.887 Y129.999 E38.6882
G1 X99.034 Y129.084 E38.72981
G1 X98.321 Y127.889 E38.77609
G1 X98.135 Y126.759 E38.81418
G1 X98.1 Y117.205 E39.13195
G1 X98.347 Y116.189 E39.16673
G1 X98.42 Y116.018 E39.17291
G1 X98.297 Y115.735 E39.18317
G1 X98.135 Y114.762 E39.21598
G1 X98.1 Y105.205 E39.53385
G1 X98.347 Y104.189 E39.56863
G1 X98.42 Y104.018 E39.57481
G1 X98.297 Y103.735 E39.58507
G1 X98.135 Y102.762 E39.61788
G1 X98.1 Y93.218 E39.93532
G1 X98.376 Y92.093 E39.97385
G1 X99.001 Y90.887 E40.01902
G0 F18000 X99.323 Y91.134
G1 F6000 X100.158 Y90.356 E40.05698
G1 X101.251 Y89.704 E40.09931
G1 X102.306 Y89.53 E40.13488
G1 X117.736 Y89.5 E40.64808
G1 X118.765 Y89.753 E40.68332
G1 X119.866 Y90.323 E40.72456
G1 X120.644 Y91.158 E40.76252
G1 X121.296 Y92.251 E40.80485
G1 X121.47 Y93.306 E40.84041
G1 X121.5 Y102.746 E41.15439
G1 X121.264 Y103.716 E41.18759
G1 X121.134 Y103.988 E41.19762
G1 X121.308 Y104.331 E41.21041
G1 X121.47 Y105.304 E41.24322
G1 X121.5 Y114.746 E41.55726
G1 X121.264 Y115.716 E41.59047
G1 X121.134 Y115.988 E41.60049
G1 X121.308 Y116.331 E41.61329
G1 X121.47 Y117.304 E41.64609
G1 X121.5 Y126.736 E41.95981
G1 X121.247 Y127.765 E41.99505
G1 X120.677 Y128.866 E42.03629
G1 X119.842 Y129.644 E42.07424
G1 X118.749 Y130.296 E42.11657
G1 X117.694 Y130.47 E42.15214
G1 X102.264 Y130.5 E42.66534
G1 X101.235 Y130.247 E42.70059
G1 X100.134 Y129.677 E42.74182
G1 X99.356 Y128.842 E42.77978
G1 X98.704 Y127.749 E42.82211
G1 X98.53 Y126.694 E42.85768
G1 X98.5 Y117.254 E43.17165
G1 X98.736 Y116.284 E43.20486
G1 X98.866 Y116.012 E43.21488
G1 X98.692 Y115.669 E43.22768
G1 X98.53 Y114.696 E43.26048
G1 X98.5 Y105.254 E43.57453
G1 X98.736 Y104.284 E43.60773
G1 X98.866 Y104.012 E43.61776
G1 X98.692 Y103.669 E43.63055
G1 X98.53 Y102.696 E43.66336
G1 X98.5 Y93.264 E43.97707
G1 X98.753 Y92.235 E44.01231
G1 X99.323 Y91.134 E44.05355
G0 F18000 X99.645 Y91.381
G1 F6000 X100.4 Y90.678 E44.08786
G1 X101.391 Y90.087 E44.12624
G1 X102.371 Y89.925 E44.15927
G1 X117.69 Y89.9 E44.66879
G1 X118.622 Y90.129 E44.70071
G1 X119.619 Y90.645 E44.73805
G1 X120.322 Y91.4 E44.77236
G1 X120.913 Y92.391 E44.81073
G1 X121.075 Y93.371 E44.84377
G1 X121.1 Y102.697 E45.15396
G1 X120.875 Y103.621 E45.18559
G1 X120.676 Y104.001 E45.19985
G1 X120.913 Y104.397 E45.2152
G1 X121.075 Y105.37 E45.24801
G1 X121.1 Y114.697 E45.55823
G1 X120.875 Y115.621 E45.58986
G1 X120.676 Y116.001 E45.60413
G1 X120.913 Y116.397 E45.61948
G1 X121.075 Y117.37 E45.65228
G1 X121.1 Y126.69 E45.96227
G1 X120.871 Y127.622 E45.99419
G1 X120.355 Y128.619 E46.03153
G1 X119.6 Y129.322 E46.06584
G1 X118.609 Y129.913 E46.10422
G1 X117.629 Y130.075 E46.13725
G1 X102.31 Y130.1 E46.64677
G1 X101.378 Y129.871 E46.67869
G1 X100.381 Y129.355 E46.71603
G1 X99.678 Y128.6 E46.75034
G1 X99.087 Y127.609 E46.78872
G1 X98.925 Y126.629 E46.82175
G1 X98.9 Y117.303 E47.13194
G1 X99.125 Y116.379 E47.16357
G1 X99.324 Y115.999 E47.17784
G1 X99.087 Y115.603 E47.19318
G1 X98.925 Y114.63 E47.22599
G1 X98.9 Y105.303 E47.53621
G1 X99.125 Y104.379 E47.56784
G1 X99.324 Y103.999 E47.58211
G1 X99.087 Y103.603 E47.59746
G1 X98.925 Y102.63 E47.63027
G1 X98.9 Y93.31 E47.94025
G1 X99.129 Y92.378 E47.97217
G1 X99.645 Y91.381 E48.00951
G0 F18000 X99.968 Y91.626
G1 F6000 X100.639 Y91.002 E48.03999
G1 X101.531 Y90.47 E48.07453
G1 X102.436 Y90.32 E48.10504
G1 X117.644 Y90.3 E48.61086
G1 X118.479 Y90.505 E48.63946
G1 X119.374 Y90.968 E48.67297
G1 X119.998 Y91.639 E48.70345
G1 X120.53 Y92.531 E48.73799
G1 X120.68 Y93.436 E48.76851
G1 X120.7 Y102.648 E49.0749
G1 X120.497 Y103.479 E49.10335
G1 X120.218 Y104.013 E49.12339
G1 X120.53 Y104.535 E49.14362
G1 X120.68 Y105.436 E49.174
G1 X120.7 Y114.648 E49.48039
G1 X120.497 Y115.479 E49.50884
G1 X120.218 Y116.013 E49.52888
G1 X120.53 Y116.535 E49.54911
G1 X120.68 Y117.436 E49.57949
G1 X120.7 Y126.644 E49.88575
G1 X120.495 Y127.479 E49.91434
G1 X120.032 Y128.374 E49.94786
G1 X119.361 Y128.998 E49.97833
G1 X118.469 Y129.53 E50.01288
G1 X117.564 Y129.68 E50.04339
G1 X102.356 Y129.7 E50.54921
G1 X101.521 Y129.495 E50.57781
G1 X100.626 Y129.032 E50.61132
G1 X100.002 Y128.361 E50.6418
G1 X99.47 Y127.469 E50.67634
G1 X99.32 Y126.564 E50.70685
G1 X99.3 Y117.352 E51.01325
G1 X99.503 Y116.521 E51.0417
G1 X99.782 Y115.987 E51.06174
G1 X99.47 Y115.465 E51.08196
G1 X99.32 Y114.564 E51.11234
G1 X99.3 Y105.352 E51.41874
G1 X99.503 Y104.521 E51.44719
G1 X99.782 Y103.987 E51.46723
G1 X99.47 Y103.465 E51.48746
G1 X99.32 Y102.564 E51.51783
G1 X99.3 Y93.356 E51.8241
G1 X99.505 Y92.521 E51.85269
G1 X99.968 Y91.626 E51.88621
G0 F18000 X100.291 Y91.871
G1 F6000 X100.878 Y91.326 E51.91285
G1 X101.671 Y90.853 E51.94356
G1 X102.502 Y90.715 E51.97158
G1 X117.598 Y90.7 E52.47367
G1 X118.336 Y90.881 E52.49895
G1 X119.129 Y91.291 E52.52864
G1 X119.674 Y91.878 E52.55528
G1 X120.147 Y92.671 E52.58599
G1 X120.285 Y93.502 E52.61401
G1 X120.3 Y102.598 E52.91654
G1 X120.119 Y103.337 E52.94185
G1 X119.76 Y104.025 E52.96766
G1 X120.147 Y104.673 E52.99276
G1 X120.285 Y105.502 E53.02071
G1 X120.3 Y114.598 E53.32325
G1 X120.119 Y115.337 E53.34855
G1 X119.76 Y116.025 E53.37437
G1 X120.147 Y116.673 E53.39947
G1 X120.285 Y117.502 E53.42742
G1 X120.3 Y126.598 E53.72996
G1 X120.119 Y127.336 E53.75523
G1 X119.709 Y128.129 E53.78492
G1 X119.122 Y128.674 E53.81156
G1 X118.329 Y129.147 E53.84227
