;FLAVOR:Marlin
;TIME:1678
;Filament used: 2.66983m
;Layer height: 0.2
;MINX:72.193
;MINY:86.325
;MINZ:0.2
;MAXX:147.807
;MAXY:132.672
;MAXZ:38.8
;TARGET_MACHINE.NAME:Creality Ender-3 V3 KE
;Generated with Cura_SteamEngine 5.9.1
M140 S60
M105
M190 S60
M82 ;absolute extrusion mode
M220 S100 ;Reset Feedrate
M221 S100 ;Reset Flowrate

G28 ;Home

G92 E0 ;Reset Extruder
G1 Z2.0 F3000 ;Move Z Axis up
G1 X-2.0 Y20 Z0.28 F5000.0 ;Move to start position
M109 S220.0
G1 X-2.0 Y145.0 Z0.28 F1500.0 E15 ;Draw the first line
G1 X-1.7 Y145.0 Z0.28 F5000.0 ;Move to side a little
G1 X-1.7 Y20 Z0.28 F1500.0 E30 ;Draw the second line
G92 E0 ;Reset Extruder
G1 E-1 F1800 ;Retract a bit
G1 Z2.0 F3000 ;Move Z Axis up
G1 E0 F1800
G92 E0
G92 E0
G1 F2400 E-0.8
;LAYER_COUNT:166
;LAYER:0
M107
M204 S500
G0 F18000 X106.755 Y92.386 Z0.2
;TYPE:SKIRT
G1 F2400 E0
G1 F6000 X106.65 Y92.52 E0.00566
G1 X106.65 Y92.125 E0.0188
G1 X107.044 Y92.125 E0.0319
G1 X106.839 Y92.299 E0.04085
G1 X106.755 Y92.386 E0.04487
G0 F18000 X106.25 Y91.725
G1 F6000 X113.75 Y91.725 E0.29432
G1 X113.75 Y110.925 E0.93292
G1 X106.25 Y110.925 E1.18237
G1 X106.25 Y91.725 E1.82096
G0 F18000 X106.622 Y93.34
G1 F6000 X106.608 Y93.377 E1.82228
G1 X106.5 Y93.769 E1.8358
G1 X106.494 Y93.801 E1.83688
G1 X106.451 Y94.213 E1.85066
G1 X106.45 Y94.234 E1.85136
G1 X106.45 Y108.516 E2.32638
G1 X106.452 Y108.546 E2.32738
G1 X106.512 Y108.948 E2.3409
G1 X106.519 Y108.978 E2.34192
G1 X106.637 Y109.354 E2.35503
G1 X106.653 Y109.391 E2.35637
G1 X106.848 Y109.741 E2.3697
G1 X106.871 Y109.773 E2.37101
G1 X107.129 Y110.077 E2.38427
G1 X107.158 Y110.105 E2.38561
G1 X107.471 Y110.35 E2.39883
G1 X107.504 Y110.372 E2.40015
G1 X107.861 Y110.552 E2.41345
G1 X107.895 Y110.565 E2.41466
G1 X108.255 Y110.671 E2.42714
G1 X108.291 Y110.678 E2.42836
G1 X108.741 Y110.724 E2.44341
G1 X108.761 Y110.725 E2.44407
G1 X111.339 Y110.725 E2.52982
G1 X111.368 Y110.723 E2.53078
G1 X111.772 Y110.663 E2.54437
G1 X111.803 Y110.656 E2.54543
G1 X112.179 Y110.538 E2.55853
G1 X112.216 Y110.522 E2.55987
G1 X112.566 Y110.327 E2.5732
G1 X112.598 Y110.304 E2.57451
G1 X112.902 Y110.046 E2.58777
G1 X112.93 Y110.017 E2.58911
G1 X113.175 Y109.704 E2.60233
G1 X113.197 Y109.671 E2.60365
G1 X113.377 Y109.314 E2.61695
G1 X113.39 Y109.28 E2.61816
G1 X113.496 Y108.919 E2.63067
G1 X113.503 Y108.883 E2.63189
G1 X113.549 Y108.434 E2.64691
G1 X113.55 Y108.414 E2.64757
G1 X113.55 Y94.129 E3.12269
G1 X113.548 Y94.101 E3.12363
G1 X113.494 Y93.724 E3.13629
G1 X113.487 Y93.693 E3.13735
G1 X113.37 Y93.316 E3.15048
G1 X113.355 Y93.28 E3.15178
G1 X113.164 Y92.926 E3.16516
G1 X113.141 Y92.893 E3.16649
G1 X112.882 Y92.584 E3.1799
G1 X112.854 Y92.556 E3.18122
G1 X112.544 Y92.309 E3.1944
G1 X112.51 Y92.287 E3.19575
G1 X112.153 Y92.105 E3.20908
G1 X112.119 Y92.091 E3.2103
G1 X111.749 Y91.98 E3.22315
G1 X111.713 Y91.973 E3.22437
G1 X111.26 Y91.926 E3.23952
G1 X111.239 Y91.925 E3.24022
G1 X108.661 Y91.925 E3.32596
G1 X108.632 Y91.927 E3.32693
G1 X108.228 Y91.987 E3.34051
G1 X108.197 Y91.994 E3.34157
G1 X107.821 Y92.112 E3.35468
G1 X107.784 Y92.128 E3.35602
G1 X107.434 Y92.323 E3.36934
G1 X107.402 Y92.346 E3.37065
G1 X107.098 Y92.604 E3.38392
G1 X107.07 Y92.633 E3.38526
G1 X106.825 Y92.946 E3.39848
G1 X106.803 Y92.979 E3.3998
G1 X106.622 Y93.34 E3.41323
G1 F2400 E2.61323
G0 F18000 X110.175 Y89.594
G1 F2400 E3.41323
G1 F6000 X110.158 Y89.629 E3.41452
G1 X110.076 Y89.694 E3.418
G1 X110.001 Y89.713 E3.42058
G1 X109.966 Y89.708 E3.42175
G1 X109.855 Y89.643 E3.42603
G1 X109.814 Y89.554 E3.42929
G1 X109.814 Y89.503 E3.43098
G1 X109.857 Y89.401 E3.43467
G1 X109.875 Y89.38 E3.43559
G1 X109.887 Y89.367 E3.43617
G1 X109.908 Y89.356 E3.43696
G1 X109.997 Y89.332 E3.44003
G1 X110.013 Y89.333 E3.44056
G1 X110.13 Y89.385 E3.44482
G1 X110.149 Y89.406 E3.44576
G1 X110.179 Y89.477 E3.44833
G1 X110.175 Y89.594 E3.45222
G1 F2400 E2.65222
G0 F18000 X113.35 Y92.519
G1 F2400 E3.45222
G1 F6000 X113.189 Y92.327 E3.46055
G1 X113.103 Y92.243 E3.46455
G1 X112.955 Y92.125 E3.47085
G1 X113.35 Y92.125 E3.48399
G1 X113.35 Y92.519 E3.49709
G1 F2400 E2.69709
G0 F18000 X116.612 Y86.325
G1 F2400 E3.49709
G1 F6000 X121.812 Y105.691 E4.16402
G1 X121.741 Y105.714 E4.1665
G1 X121.669 Y105.816 E4.17066
G1 X121.668 Y105.875 E4.17262
G1 X121.652 Y105.875 E4.17315
G1 X116.5 Y86.673 E4.8344
G1 X116.432 Y86.569 E4.83853
G1 X116.307 Y86.525 E4.84294
G1 X103.693 Y86.525 E5.26248
G1 X103.574 Y86.564 E5.26665
G1 X103.5 Y86.673 E5.27103
G1 X98.348 Y105.875 E5.93228
G1 X98.33 Y105.875 E5.93288
G1 X98.326 Y105.802 E5.93531
G1 X98.247 Y105.706 E5.93945
G1 X98.189 Y105.689 E5.94146
G1 X103.388 Y86.325 E6.60832
G1 X116.612 Y86.325 E7.04815
G1 F2400 E6.24815
G0 F18000 X113.35 Y110.525
G1 F2400 E7.04815
G1 F6000 X112.956 Y110.525 E7.06125
G1 X113.161 Y110.351 E7.0702
G1 X113.245 Y110.264 E7.07422
G1 X113.35 Y110.13 E7.07988
G1 X113.35 Y110.525 E7.09302
G1 F2400 E6.29302
G0 F18000 X110.194 Y113.118
G1 F2400 E7.09302
G1 F6000 X110.184 Y113.17 E7.09478
G1 X110.121 Y113.27 E7.09871
G1 X110.109 Y113.281 E7.09925
G1 X110.04 Y113.312 E7.10177
G1 X109.968 Y113.315 E7.10416
G1 X109.96 Y113.313 E7.10444
G1 X109.851 Y113.243 E7.10875
G1 X109.84 Y113.227 E7.10939
G1 X109.813 Y113.107 E7.11348
G1 X109.857 Y113.001 E7.1173
G1 X109.876 Y112.982 E7.11819
G1 X109.944 Y112.942 E7.12082
G1 X110.016 Y112.935 E7.12322
G1 X110.101 Y112.974 E7.12634
G1 X110.123 Y112.988 E7.1272
G1 X110.179 Y113.053 E7.13006
G1 X110.19 Y113.08 E7.13103
G1 X110.194 Y113.118 E7.1323
G1 F2400 E6.3323
G0 F18000 X107.045 Y110.525
G1 F2400 E7.1323
G1 F6000 X106.65 Y110.525 E7.14543
G1 X106.65 Y110.131 E7.15854
G1 X106.824 Y110.336 E7.16748
G1 X106.911 Y110.42 E7.1715
G1 X107.045 Y110.525 E7.17717
G0 F18000 X105.85 Y111.325
;TYPE:SUPPORT-INTERFACE
G1 F6000 X114.15 Y111.325 E7.45323
G1 X114.15 Y91.325 E8.11843
G1 X105.85 Y91.325 E8.39449
G1 X105.85 Y111.325 E9.05969
G1 F2400 E8.25969
G0 F18000 X104.765 Y114.525
G1 F2400 E9.05969
G1 F6000 X102.832 Y107.371 E9.30617
G1 X98.884 Y105.875 E9.44659
G1 X98.762 Y105.875 E9.45065
G1 X103.846 Y86.925 E10.10321
G1 X116.154 Y86.925 E10.51258
G1 X121.238 Y105.875 E11.16515
G1 X121.116 Y105.875 E11.16921
G1 X117.168 Y107.371 E11.30963
G1 X115.235 Y114.525 E11.5561
G1 X104.765 Y114.525 E11.90434
G1 F2400 E11.10434
G0 F18000 X110.433 Y113.524
G1 F2400 E11.90434
G1 F6000 X110.562 Y113.321 E11.91234
G1 X110.598 Y113.135 E11.91864
G1 X110.583 Y112.99 E11.92349
G1 X110.528 Y112.845 E11.92864
G1 X110.386 Y112.679 E11.93591
G1 X110.293 Y112.621 E11.93956
G1 X110.103 Y112.535 E11.94649
G1 X110.07 Y112.535 E11.94759
G1 X110.017 Y112.532 E11.94936
G1 X109.838 Y112.55 E11.95534
G1 X109.757 Y112.588 E11.95831
G1 X109.633 Y112.661 E11.9631
G1 X109.518 Y112.773 E11.96844
G1 X109.425 Y112.999 E11.97657
G1 X109.411 Y113.066 E11.97884
G1 X109.408 Y113.122 E11.98071
G1 X109.453 Y113.327 E11.98769
G1 X109.453 Y113.371 E11.98915
G1 X109.568 Y113.537 E11.99587
G1 X109.796 Y113.683 E12.00488
G1 X109.926 Y113.718 E12.00935
G1 X110.132 Y113.708 E12.01621
G1 X110.338 Y113.617 E12.0237
G1 X110.433 Y113.524 E12.02813
G1 F2400 E11.22813
G0 F18000 X110.258 Y90.062
G1 F2400 E12.02813
G1 F6000 X110.48 Y89.884 E12.03759
G1 X110.557 Y89.722 E12.04356
G1 X110.573 Y89.649 E12.04604
G1 X110.583 Y89.402 E12.05426
G1 X110.494 Y89.195 E12.06176
G1 X110.457 Y89.151 E12.06367
G1 X110.368 Y89.054 E12.06805
G1 X110.109 Y88.938 E12.07749
G1 X109.957 Y88.928 E12.08255
G1 X109.759 Y88.982 E12.08938
G1 X109.669 Y89.031 E12.09279
G1 X109.635 Y89.052 E12.09412
G1 X109.584 Y89.106 E12.09659
G1 X109.513 Y89.187 E12.10017
G1 X109.412 Y89.425 E12.10877
G1 X109.415 Y89.623 E12.11535
G1 X109.433 Y89.682 E12.11741
G1 X109.517 Y89.867 E12.12416
G1 X109.557 Y89.919 E12.12635
G1 X109.588 Y89.951 E12.12783
G1 X109.832 Y90.092 E12.1372
G1 X110.017 Y90.121 E12.14343
G1 X110.258 Y90.062 E12.15168
G0 F18000 X110.494 Y90.129
G1 F6000 X111.49 Y91.125 E12.19853
G0 F18000 X112.522 Y91.125
G1 F6000 X116.11 Y87.536 E12.36732
G0 F18000 X114.278 Y87.125
G1 F6000 X116.633 Y89.48 E12.47809
G0 F18000 X116.829 Y90.212
G1 F6000 X114.35 Y92.69 E12.59468
G0 F18000 X114.35 Y93.986
G1 F6000 X119.121 Y98.757 E12.81909
G0 F18000 X118.982 Y98.241
G1 F6000 X114.35 Y102.873 E13.03696
G0 F18000 X114.35 Y104.168
G1 F6000 X117.292 Y107.11 E13.17535
G1 F2400 E12.37535
G0 F18000 X119.753 Y106.177
G1 F2400 E13.17535
G1 F6000 X114.35 Y100.774 E13.42949
G0 F18000 X114.35 Y99.479
G1 F6000 X118.264 Y95.565 E13.61359
G0 F18000 X117.877 Y94.118
G1 F6000 X110.884 Y87.125 E13.94252
G0 F18000 X109.734 Y87.125
G1 F6000 X105.734 Y91.125 E14.13067
G1 X105.65 Y91.208
G1 X101.897 Y94.962 E14.30722
G1 X101.865 Y95.077
G1 X105.65 Y98.862 E14.48525
G0 F18000 X105.65 Y97.997
G1 F6000 X99.409 Y104.238 E14.77881
G0 F18000 X99.711 Y103.105
G1 F6000 X105.65 Y109.044 E15.05816
G0 F18000 X105.65 Y108.179
G1 F6000 X103.767 Y110.063 E15.14676
G0 F18000 X103.948 Y110.736
G1 F6000 X107.537 Y114.325 E15.31557
G0 F18000 X106.292 Y114.325
G1 F6000 X109.092 Y111.525 E15.44728
G0 F18000 X108.131 Y111.525
G1 F6000 X109.324 Y112.718 E15.50339
G0 F18000 X110.102 Y113.909
G1 F6000 X109.686 Y114.325 E15.52296
G0 F18000 X110.41 Y113.805
G1 F6000 X110.931 Y114.325 E15.54744
G0 F18000 X110.784 Y113.228
G1 F6000 X112.487 Y111.525 E15.62755
G0 F18000 X111.525 Y111.525
G1 F6000 X114.325 Y114.325 E15.75925
G0 F18000 X113.081 Y114.325
G1 F6000 X115.823 Y111.583 E15.88823
G0 F18000 X115.643 Y112.249
G1 F6000 X114.35 Y110.956 E15.94904
G0 F18000 X114.35 Y109.661
G1 F6000 X120.418 Y103.593 E16.23446
G0 F18000 X120.366 Y103.395
G1 F6000 X114.35 Y97.38 E16.51741
G0 F18000 X114.35 Y96.084
G1 F6000 X117.547 Y92.888 E16.66777
G1 F2400 E15.86777
G0 F18000 X113.128 Y87.125
G1 F2400 E16.66777
G1 F6000 X110.78 Y89.472 E16.77819
G0 F18000 X109.941 Y90.312
G1 F6000 X109.128 Y91.125 E16.81643
G0 F18000 X108.095 Y91.125
G1 F6000 X104.096 Y87.125 E17.00455
G1 F2400 E16.20455
G0 F18000 X106.34 Y87.125
G1 F2400 E17.00455
G1 F6000 X103.141 Y90.323 E17.155
G0 F18000 X103.301 Y89.725
G1 F6000 X105.65 Y92.074 E17.26549
G1 F2400 E16.46549
G0 F18000 X105.65 Y94.602
G1 F2400 E17.26549
G1 F6000 X100.652 Y99.6 E17.50058
G0 F18000 X100.43 Y100.43
G1 F6000 X105.65 Y105.65 E17.74611
G0 F18000 X105.65 Y104.785
G1 F6000 X103.045 Y107.39 E17.86864
G1 F2400 E17.06864
G0 F18000 X100.694 Y106.347
G1 F2400 E17.86864
G1 F6000 X105.65 Y101.391 E18.10176
G0 F18000 X105.65 Y102.256
G1 F6000 X101.147 Y97.753 E18.31357
G1 F2400 E17.51357
G0 F18000 X105.65 Y95.468
G1 F2400 E18.31357
G1 F6000 X102.584 Y92.401 E18.45781
G1 F2400 E17.65781
G0 F18000 X107.49 Y87.125
G1 F2400 E18.45781
G1 F6000 X109.39 Y89.025 E18.54718
G1 F2400 E17.74718
G0 F18000 X119.7 Y100.917
G1 F2400 E18.54718
G1 F6000 X114.35 Y106.267 E18.79882
G0 F18000 X114.35 Y107.562
G1 F6000 X116.366 Y109.578 E18.89365
G1 F2400 E18.09365
G0 F18000 X105.698 Y111.525
G1 F2400 E18.89365
G1 F6000 X104.488 Y112.735 E18.95056
G1 F2400 E18.15056
;MESH:FrontCover_1x.stl
G0 F18000 X88.111 Y113.127
;TYPE:WALL-INNER
G1 F2400 E18.95056
G1 F6000 X87.715 Y113.104 E18.96376
G1 X87.281 Y113.013 E18.97851
G1 X86.822 Y112.794 E18.99542
G1 X86.466 Y112.52 E19.01036
G1 X86.168 Y112.185 E19.02528
G1 X85.824 Y111.548 E19.04935
G1 X85.732 Y110.839 E19.07313
G1 X85.816 Y110.322 E19.09056
G1 X85.995 Y109.81 E19.1086
G1 X86.345 Y109.341 E19.12806
G1 X86.78 Y108.958 E19.14734
G1 X87.286 Y108.734 E19.16574
G1 X87.775 Y108.631 E19.18236
G1 X88.321 Y108.641 E19.20052
G1 X88.727 Y108.74 E19.21442
G1 X89.172 Y108.946 E19.23073
G1 X89.528 Y109.215 E19.24557
G1 X89.911 Y109.653 E19.26493
G1 X90.168 Y110.252 E19.28661
G1 X90.251 Y110.756 E19.30359
G1 X90.225 Y111.208 E19.31865
G1 X90.123 Y111.616 E19.33264
G1 X89.928 Y112.033 E19.34795
G1 X89.656 Y112.397 E19.36307
G1 X89.312 Y112.707 E19.37847
G1 X88.694 Y113.042 E19.40185
G1 X88.111 Y113.127 E19.42144
G1 F2400 E18.62144
G0 F18000 X76.383 Y112.968
G1 F2400 E19.42144
G1 F6000 X75.788 Y112.965 E19.44123
G1 X75.275 Y112.851 E19.45871
G1 X74.711 Y112.57 E19.47967
G1 X74.288 Y112.091 E19.50092
G1 X74.135 Y111.84 E19.5107
G1 X73.904 Y111.25 E19.53178
G1 X73.904 Y110.657 E19.5515
G1 X74.015 Y110.182 E19.56772
G1 X74.295 Y109.601 E19.58917
G1 X74.874 Y109.067 E19.61537
G1 X75.416 Y108.854 E19.63474
G1 X75.802 Y108.781 E19.64781
G1 X76.307 Y108.794 E19.66461
G1 X76.717 Y108.897 E19.67867
G1 X77.179 Y109.126 E19.69582
G1 X77.355 Y109.258 E19.70314
G1 X77.703 Y109.638 E19.72027
G1 X77.911 Y109.998 E19.7341
G1 X78.092 Y110.505 E19.75201
G1 X78.092 Y111.136 E19.773
G1 X78.054 Y111.347 E19.78013
G1 X77.872 Y111.833 E19.79739
G1 X77.576 Y112.265 E19.8148
G1 X77.194 Y112.61 E19.83192
G1 X77.01 Y112.723 E19.83911
G1 X76.383 Y112.968 E19.8615
G1 F2400 E19.0615
G0 F18000 X96.625 Y128.016
G1 F2400 E19.8615
G1 F4181.2 X96.917 Y128.397 E19.88441
G1 F4411.8 X97.085 Y128.578 E19.89558
G1 F2400 E19.09558
G0 F18000 X110 Y132.272
G1 F2400 E19.89558
G1 F6000 X119.73 Y132.271 E20.2192
G1 X122.361 Y129.312 E20.35089
G1 F5263.2 X122.67 Y128.88 E20.37103
G1 F4332.1 X122.749 Y128.731 E20.3788
G1 F4395.6 X121.958 Y129.051 E20.41754
G1 F5084.7 X121.315 Y129.138 E20.443
G1 F5660.4 X120.807 Y129.071 E20.46107
G1 F6000 X120.245 Y128.857 E20.48107
G1 X119.847 Y128.573 E20.49733
G1 X119.551 Y128.275 E20.5113
G1 X119.272 Y127.818 E20.52911
G1 X119.132 Y127.421 E20.54311
G1 X119.062 Y126.873 E20.56149
G1 X119.14 Y126.307 E20.58049
G1 X119.27 Y125.936 E20.59357
G1 X119.616 Y125.398 E20.61484
G1 X120.072 Y124.979 E20.63544
G1 X120.612 Y124.736 E20.65513
G1 X121.24 Y124.601 E20.6765
G1 X121.993 Y124.699 E20.70175
G1 X122.533 Y124.978 E20.72197
G1 X122.854 Y125.224 E20.73542
G1 X123.213 Y125.648 E20.7539
G1 X123.51 Y126.264 E20.77665
G1 X123.583 Y126.954 E20.79972
G1 X123.474 Y127.511 E20.8186
G1 F5970.1 X123.436 Y127.639 E20.82306
G1 F4743.1 X123.366 Y128.029 E20.83973
G1 X123.696 Y127.806 E20.85649
G1 F5970.1 X135.564 Y114.459 E21.4535
G1 F6000 X135.735 Y114.333 E21.46056
G1 X135.948 Y114.274 E21.46792
G1 X144.065 Y114.272 E21.73789
G1 X144.434 Y114.243 E21.7502
G1 X144.753 Y114.193 E21.76094
G1 X145.166 Y114.067 E21.7753
G1 X145.471 Y113.938 E21.78631
G1 X145.779 Y113.771 E21.79797
G1 X146.052 Y113.585 E21.80895
G1 X146.362 Y113.323 E21.82245
G1 X146.669 Y112.985 E21.83764
G1 X146.854 Y112.719 E21.84842
G1 X147.031 Y112.42 E21.85997
G1 X147.225 Y111.963 E21.87649
G1 X147.352 Y111.464 E21.89361
G1 X147.388 Y111.133 E21.90469
G1 X147.395 Y110.802 E21.9157
G1 X147.371 Y110.443 E21.92767
G1 X147.31 Y110.109 E21.93896
G1 X147.223 Y109.783 E21.95018
G1 X147.031 Y109.329 E21.96658
G1 X146.853 Y109.029 E21.97818
G1 X146.663 Y108.762 E21.98908
G1 X146.406 Y108.462 E22.00222
G1 X146.055 Y108.166 E22.01749
G1 X145.718 Y107.935 E22.03108
G1 X145.322 Y107.74 E22.04576
G1 X144.961 Y107.605 E22.05858
G1 X144.488 Y107.51 E22.07462
G1 X144.175 Y107.477 E22.08509
G1 X121.406 Y107.473 E22.84239
G1 X118.496 Y108.577 E22.94591
G1 X116.563 Y115.722 E23.1921
G1 X116.421 Y115.949 E23.201
G1 X116.283 Y116.052 E23.20673
G1 X116.061 Y116.121 E23.21446
G1 X103.961 Y116.123 E23.61691
G1 X103.661 Y116.02 E23.62746
G1 X103.502 Y115.86 E23.63496
G1 X103.428 Y115.709 E23.64055
G1 X101.5 Y108.577 E23.88628
G1 X98.59 Y107.472 E23.98981
G1 X75.963 Y107.475 E24.74239
G1 X75.537 Y107.508 E24.7566
G1 X75.243 Y107.555 E24.7665
G1 X74.831 Y107.681 E24.78083
G1 X74.53 Y107.809 E24.79171
G1 X74.222 Y107.978 E24.80339
G1 X73.947 Y108.164 E24.81444
G1 X73.634 Y108.425 E24.82799
G1 X73.332 Y108.762 E24.84304
G1 X73.144 Y109.031 E24.85396
G1 X72.965 Y109.329 E24.86552
G1 X72.776 Y109.779 E24.88175
G1 X72.647 Y110.286 E24.89915
G1 X72.608 Y110.615 E24.91017
G1 X72.6 Y110.947 E24.92122
G1 X72.618 Y111.219 E24.93028
G1 X72.679 Y111.62 E24.94378
G1 X72.805 Y112.042 E24.95842
G1 X72.933 Y112.339 E24.96918
G1 X73.09 Y112.632 E24.98024
G1 X73.296 Y112.933 E24.99237
G1 X73.593 Y113.289 E25.00779
G1 X73.942 Y113.579 E25.02288
G1 X74.15 Y113.726 E25.03135
G1 X74.368 Y113.854 E25.03976
G1 X74.685 Y114.009 E25.0515
G1 X75.144 Y114.164 E25.06761
G1 X75.508 Y114.237 E25.07996
G1 X75.824 Y114.272 E25.09053
G1 X84.08 Y114.277 E25.36513
G1 X84.216 Y114.312 E25.3698
G1 X84.417 Y114.439 E25.37771
