;FLAVOR:Marlin
;TIME:734
;Filament used: 0.722628m
;Layer height: 0.2
;MINX:95.849
;MINY:96.607
;MINZ:0.2
;MAXX:123.408
;MAXY:123.393
;MAXZ:14.56
;TARGET_MACHINE.NAME:Creality Ender-3 V3 KE
;Generated with Cura_SteamEngine 5.10.1
M140 S60
M105
M190 S60
M220 S100 ;Reset Feedrate
M221 S100 ;Reset Flowrate

G28 ;Home

G92 E0 ;Reset Extruder
G1 Z2.0 F3000 ;Move Z Axis up
G1 X-2.0 Y20 Z0.28 F5000.0 ;Move to start position
M109 S220.0
G1 X-2.0 Y145.0 Z0.28 F1500.0 E15 ;Draw the first line
G1 X-1.7 Y145.0 Z0.28 F5000.0 ;Move to side a little
G1 X-1.7 Y20 Z0.28 F1500.0 E30 ;Draw the second line
G92 E0 ;Reset Extruder
G1 E-1 F1800 ;Retract a bit
G1 Z2.0 F3000 ;Move Z Axis up
G1 E0 F1800
M82 ;absolute extrusion mode
G92 E0
G92 E0
G1 F2400 E-0.8
;LAYER_COUNT:62
;LAYER:0
M107
M204 S500
G0 F18000 X100.362 Y100.378 Z0.2
;TYPE:SKIRT
G1 F2400 E0
G1 F6000 X100.829 Y100.246 E0.01614
G1 X101.383 Y100.401 E0.03527
G1 X101.508 Y100.395 E0.03944
G1 X101.582 Y100.346 E0.04239
G1 X101.723 Y100.198 E0.04919
G1 X102.38 Y100.013 E0.07189
G1 X102.484 Y99.943 E0.07606
G1 X102.519 Y99.872 E0.07869
G1 X102.525 Y99.851 E0.07942
G1 X102.767 Y99.594 E0.09116
G1 X102.813 Y99.513 E0.09426
G1 X102.851 Y99.385 E0.0987
G1 X102.908 Y99.325 E0.10145
G1 X102.962 Y99.213 E0.10559
G1 X102.954 Y99.126 E0.10849
G1 X102.952 Y99.12 E0.1087
G1 X103.024 Y98.876 E0.11716
G1 X103.214 Y98.675 E0.12636
G1 X103.475 Y98.602 E0.13538
G1 X103.736 Y98.675 E0.14439
G1 X103.926 Y98.876 E0.15359
G1 X103.999 Y99.124 E0.16219
G1 X103.972 Y99.222 E0.16557
G1 X103.973 Y99.334 E0.1693
G1 X104.101 Y99.759 E0.18406
G1 X104.15 Y99.841 E0.18724
G1 X104.159 Y99.85 E0.18766
G1 X104.286 Y100.297 E0.20311
G1 X104.155 Y100.768 E0.21937
G1 X103.814 Y101.109 E0.23541
G1 X103.423 Y101.218 E0.24891
G1 X103.32 Y101.288 E0.25306
G1 X103.284 Y101.357 E0.25565
G1 X103.196 Y101.669 E0.26643
G1 X102.804 Y102.062 E0.28489
G1 X102.263 Y102.213 E0.30357
G1 X102.032 Y102.145 E0.31158
G1 X101.908 Y102.149 E0.31571
G1 X101.805 Y102.234 E0.32015
G1 X101.674 Y102.451 E0.32858
G1 X101.646 Y102.572 E0.33271
G1 X101.701 Y102.693 E0.33713
G1 X101.795 Y102.791 E0.34165
G1 X101.905 Y103.173 E0.35487
G1 X101.823 Y103.466 E0.36499
G1 X101.523 Y103.858 E0.38141
G1 X101.101 Y103.975 E0.39597
G1 X101.095 Y103.973 E0.39618
G1 X100.985 Y103.972 E0.39984
G1 X100.401 Y104.136 E0.42002
G1 X99.955 Y104.004 E0.43549
G1 X99.772 Y103.822 E0.44407
G1 X99.66 Y103.766 E0.44824
G1 X99.49 Y103.822 E0.45419
G1 X99.382 Y103.929 E0.45924
G1 X99.121 Y104.001 E0.46825
G1 X98.876 Y103.929 E0.47674
G1 X98.671 Y103.724 E0.48639
G1 X98.598 Y103.476 E0.49498
G1 X98.668 Y103.232 E0.50343
G1 X98.863 Y103.028 E0.51281
G1 X99.122 Y102.955 E0.52176
G1 X99.305 Y103.006 E0.52808
G1 X99.43 Y103 E0.53224
G1 X99.551 Y102.868 E0.5382
G1 X99.587 Y102.742 E0.54256
G1 X99.934 Y102.378 E0.55928
G1 X100.248 Y102.291 E0.57012
G1 X100.351 Y102.221 E0.57426
G1 X100.394 Y102.104 E0.57841
G1 X100.336 Y101.957 E0.58367
G1 X100.017 Y101.637 E0.59869
G1 X99.885 Y101.19 E0.6142
G1 X100.015 Y100.742 E0.62971
G1 X100.362 Y100.378 E0.64644
G0 F18000 X100.577 Y100.733
G1 F6000 X100.83 Y100.661 E0.65519
G1 X101.275 Y100.786 E0.67056
G1 X101.492 Y100.805 E0.67781
G1 X101.702 Y100.746 E0.68506
G1 X101.872 Y100.622 E0.69206
G1 X101.937 Y100.553 E0.69521
G1 X102.489 Y100.398 E0.71428
G1 X102.684 Y100.301 E0.72153
G1 X102.833 Y100.141 E0.7288
G1 X102.861 Y100.077 E0.73112
G1 X103.058 Y99.868 E0.74067
G1 X103.197 Y99.626 E0.74996
G1 X103.21 Y99.583 E0.75145
G1 X103.317 Y99.42 E0.75793
G1 X103.364 Y99.207 E0.76519
G1 X103.357 Y99.16 E0.76677
G1 X103.38 Y99.082 E0.76947
G1 X103.429 Y99.03 E0.77185
G1 X103.475 Y99.017 E0.77344
G1 X103.521 Y99.03 E0.77503
G1 X103.571 Y99.083 E0.77745
G1 X103.585 Y99.132 E0.77915
G1 X103.568 Y99.331 E0.78579
G1 X103.59 Y99.449 E0.78978
G1 X103.718 Y99.874 E0.80455
G1 X103.779 Y99.977 E0.80853
G1 X103.871 Y100.299 E0.81967
G1 X103.798 Y100.559 E0.82865
G1 X103.604 Y100.753 E0.83777
G1 X103.316 Y100.833 E0.84772
G1 X103.12 Y100.929 E0.85497
G1 X102.971 Y101.088 E0.86222
G1 X102.899 Y101.248 E0.86806
G1 X102.839 Y101.46 E0.87539
G1 X102.594 Y101.706 E0.88693
G1 X102.267 Y101.797 E0.89822
G1 X102.145 Y101.761 E0.90245
G1 X101.928 Y101.739 E0.90971
G1 X101.717 Y101.796 E0.91698
G1 X101.541 Y101.924 E0.92422
G1 X101.462 Y102.027 E0.92853
G1 X101.331 Y102.244 E0.93696
G1 X101.254 Y102.448 E0.94422
G1 X101.256 Y102.666 E0.95147
G1 X101.335 Y102.87 E0.95874
G1 X101.413 Y102.97 E0.96296
G1 X101.437 Y102.995 E0.96411
G1 X101.489 Y103.176 E0.97038
G1 X101.459 Y103.285 E0.97414
G1 X101.287 Y103.509 E0.98353
G1 X101.053 Y103.574 E0.99161
G1 X100.989 Y103.567 E0.99375
G1 X100.877 Y103.587 E0.99753
G1 X100.405 Y103.719 E1.01384
G1 X100.164 Y103.648 E1.02219
G1 X100.054 Y103.539 E1.02734
G1 X99.874 Y103.416 E1.03459
G1 X99.662 Y103.365 E1.04185
G1 X99.501 Y103.386 E1.04725
G1 X99.625 Y103.351 E1.05153
G1 X99.8 Y103.22 E1.0588
G1 X99.936 Y102.979 E1.06801
G1 X99.945 Y102.947 E1.06911
G1 X100.148 Y102.733 E1.07892
G1 X100.355 Y102.676 E1.08606
G1 X100.551 Y102.58 E1.09332
G1 X100.7 Y102.421 E1.10057
G1 X100.782 Y102.219 E1.10782
G1 X100.786 Y102.001 E1.11507
G1 X100.712 Y101.795 E1.12235
G1 X100.619 Y101.674 E1.12743
G1 X100.372 Y101.426 E1.13907
G1 X100.302 Y101.188 E1.14732
G1 X100.372 Y100.948 E1.15564
G1 X100.577 Y100.733 E1.16552
G0 F18000 X100.79 Y101.088
G1 F6000 X100.831 Y101.077 E1.16693
G1 X101.167 Y101.171 E1.17853
G1 X101.447 Y101.208 E1.18793
G1 X101.725 Y101.165 E1.19728
G1 X101.981 Y101.047 E1.20666
G1 X102.147 Y100.91 E1.21382
G1 X102.597 Y100.783 E1.22937
G1 X102.784 Y100.7 E1.23617
G1 X102.734 Y100.741 E1.23832
G1 X102.577 Y100.976 E1.24772
G1 X102.514 Y101.14 E1.25357
G1 X102.482 Y101.252 E1.25744
G1 X102.386 Y101.349 E1.26198
G1 X102.269 Y101.381 E1.26602
G1 X102.258 Y101.378 E1.26639
G1 X101.979 Y101.337 E1.27577
G1 X101.699 Y101.376 E1.28518
G1 X101.442 Y101.492 E1.29456
G1 X101.227 Y101.674 E1.30392
G1 X101.138 Y101.795 E1.30892
G1 X101.116 Y101.71 E1.31184
G1 X100.902 Y101.392 E1.32459
G1 X100.728 Y101.217 E1.3328
G1 X100.719 Y101.187 E1.33384
G1 X100.729 Y101.153 E1.33502
G1 X100.79 Y101.088 E1.33798
G0 F18000 X100.884 Y102.812
G1 F6000 X100.891 Y102.855 E1.33943
G1 X101.014 Y103.11 E1.34885
G1 X101.052 Y103.157 E1.35086
G1 X101.017 Y103.168 E1.35208
G1 X100.769 Y103.202 E1.3604
G1 X100.406 Y103.304 E1.37294
G1 X100.376 Y103.294 E1.374
G1 X100.336 Y103.255 E1.37585
G1 X100.275 Y103.21 E1.37838
G1 X100.294 Y103.16 E1.38016
G1 X100.362 Y103.089 E1.38342
G1 X100.462 Y103.061 E1.38688
G1 X100.72 Y102.948 E1.39625
G1 X100.884 Y102.812 E1.40333
G0 F18000 X99.421 Y103.408
G1 F6000 X99.208 Y103.538 E1.41163
G1 X99.174 Y103.572 E1.41323
G1 X99.126 Y103.585 E1.41489
G1 X99.087 Y103.574 E1.41623
G1 X99.026 Y103.513 E1.4191
G1 X99.015 Y103.475 E1.42042
G1 X99.027 Y103.435 E1.42181
G1 X99.076 Y103.384 E1.42416
G1 X99.124 Y103.37 E1.42582
G1 X99.198 Y103.391 E1.42838
G1 X99.415 Y103.41 E1.43563
G1 X99.421 Y103.408 E1.43584
G0 F18000 X99.727 Y104.974
G1 F6000 X100.122 Y105.093 E1.44956
G1 X100.368 Y105.32 E1.46069
G1 X100.468 Y105.59 E1.47027
G1 X100.348 Y105.873 E1.48049
G1 X100.193 Y106.008 E1.48733
G1 X99.883 Y106.072 E1.49786
G1 X99.463 Y105.943 E1.51247
G1 X99.338 Y105.945 E1.51663
G1 X99.239 Y106.021 E1.52078
G1 X99.211 Y106.081 E1.52298
G1 X98.993 Y106.868 E1.55014
G1 X98.861 Y106.999 E1.55633
G1 X98.804 Y107.11 E1.56048
G1 X98.809 Y107.193 E1.56324
G1 X98.859 Y107.378 E1.56962
G1 X98.928 Y107.483 E1.5738
G1 X99.002 Y107.52 E1.57655
G1 X99.395 Y107.621 E1.59004
G1 X99.632 Y107.833 E1.60062
G1 X99.681 Y107.967 E1.60537
G1 X99.598 Y108.444 E1.62147
G1 X99.603 Y108.534 E1.62447
G1 X99.626 Y108.612 E1.62717
G1 X99.57 Y109.107 E1.64374
G1 X99.342 Y109.336 E1.65449
G1 X99.286 Y109.447 E1.65862
G1 X99.293 Y109.537 E1.66163
G1 X99.381 Y109.817 E1.67139
G1 X99.305 Y110.076 E1.68037
G1 X99.107 Y110.264 E1.68945
G1 X98.814 Y110.341 E1.69952
G1 X98.557 Y110.265 E1.70844
G1 X98.444 Y110.265 E1.7122
G1 X98.296 Y110.308 E1.71732
G1 X98.193 Y110.378 E1.72146
G1 X98.16 Y110.445 E1.72395
G1 X98.044 Y110.85 E1.73796
G1 X98.046 Y110.902 E1.73969
G1 X97.971 Y110.885 E1.74225
G1 X97.85 Y110.943 E1.74671
G1 X97.744 Y111.049 E1.7517
G1 X97.271 Y111.181 E1.76803
G1 X96.824 Y111.05 E1.78352
G1 X96.459 Y110.685 E1.80069
G1 X96.327 Y110.236 E1.81626
G1 X96.456 Y109.789 E1.83173
G1 X96.804 Y109.424 E1.8485
G1 X97.039 Y109.359 E1.85661
G1 X97.142 Y109.289 E1.86076
G1 X97.177 Y109.222 E1.86327
G1 X97.324 Y108.715 E1.88083
G1 X97.417 Y108.617 E1.88532
G1 X97.47 Y108.504 E1.88947
G1 X97.463 Y108.424 E1.89214
G1 X97.418 Y108.272 E1.89742
G1 X97.549 Y107.821 E1.91304
G1 X97.686 Y107.676 E1.91967
G1 X97.74 Y107.563 E1.92384
G1 X97.683 Y107.398 E1.92964
G1 X97.126 Y106.841 E1.95584
G1 X96.975 Y106.326 E1.97369
G1 X97.125 Y105.812 E1.9915
G1 X97.521 Y105.396 E2.0106
G1 X98.06 Y105.244 E2.02923
G1 X98.599 Y105.396 E2.04786
G1 X98.713 Y105.515 E2.05334
G1 X98.824 Y105.574 E2.05752
G1 X98.905 Y105.571 E2.06021
G1 X99.091 Y105.526 E2.06658
G1 X99.197 Y105.461 E2.07071
G1 X99.236 Y105.387 E2.0735
G1 X99.274 Y105.252 E2.07816
G1 X99.47 Y105.047 E2.08759
G1 X99.727 Y104.974 E2.09648
G0 F18000 X99.724 Y105.391
G1 F6000 X99.919 Y105.449 E2.10325
G1 X100.026 Y105.549 E2.10812
G1 X100.038 Y105.581 E2.10926
G1 X100.017 Y105.631 E2.11106
G1 X100.009 Y105.638 E2.11141
G1 X99.903 Y105.659 E2.11501
G1 X99.589 Y105.563 E2.12593
G1 X99.621 Y105.496 E2.1284
G1 X99.633 Y105.455 E2.12982
G1 X99.683 Y105.402 E2.13224
G1 X99.724 Y105.391 E2.13365
G0 F18000 X98.826 Y105.974
G1 F6000 X98.637 Y106.658 E2.15726
G1 X98.579 Y106.715 E2.15996
G1 X98.455 Y106.895 E2.16723
G1 X98.403 Y107.107 E2.17449
G1 X98.423 Y107.298 E2.18088
G1 X98.473 Y107.483 E2.18725
G1 X98.567 Y107.679 E2.19448
G1 X98.725 Y107.829 E2.20173
G1 X98.902 Y107.907 E2.20816
G1 X99.2 Y107.984 E2.2184
G1 X99.262 Y108.039 E2.22115
G1 X99.204 Y108.375 E2.2325
G1 X99.219 Y108.645 E2.24149
G1 X99.188 Y108.924 E2.25083
G1 X99.059 Y109.054 E2.25692
G1 X98.936 Y109.233 E2.26414
G1 X98.885 Y109.446 E2.27143
G1 X98.912 Y109.657 E2.2785
G1 X98.963 Y109.82 E2.28418
G1 X98.951 Y109.861 E2.2856
G1 X98.907 Y109.903 E2.28763
G1 X98.82 Y109.926 E2.29062
G1 X98.671 Y109.882 E2.29579
G1 X98.454 Y109.859 E2.30304
G1 X98.333 Y109.881 E2.30713
G1 X98.185 Y109.924 E2.31226
G1 X97.99 Y110.022 E2.31952
G1 X97.843 Y110.183 E2.32677
G1 X97.775 Y110.335 E2.33231
G1 X97.71 Y110.561 E2.34013
G1 X97.671 Y110.577 E2.34153
G1 X97.567 Y110.66 E2.34596
G1 X97.535 Y110.692 E2.34746
G1 X97.274 Y110.765 E2.35648
G1 X97.035 Y110.695 E2.36476
G1 X96.814 Y110.474 E2.37516
G1 X96.744 Y110.234 E2.38347
G1 X96.813 Y109.995 E2.39174
G1 X97.018 Y109.779 E2.40165
G1 X97.146 Y109.744 E2.40606
G1 X97.342 Y109.648 E2.41332
G1 X97.491 Y109.489 E2.42057
G1 X97.561 Y109.334 E2.42623
G1 X97.682 Y108.919 E2.4406
G1 X97.708 Y108.891 E2.44187
G1 X97.826 Y108.707 E2.44914
G1 X97.871 Y108.494 E2.45639
G1 X97.847 Y108.311 E2.46252
G1 X97.835 Y108.27 E2.46394
G1 X97.906 Y108.027 E2.47236
G1 X97.977 Y107.951 E2.47582
G1 X98.096 Y107.768 E2.48308
G1 X98.141 Y107.554 E2.49036
G1 X98.107 Y107.339 E2.4976
G1 X97.966 Y107.115 E2.5064
G1 X97.482 Y106.63 E2.52919
G1 X97.392 Y106.325 E2.53977
G1 X97.482 Y106.018 E2.55041
G1 X97.735 Y105.751 E2.56264
G1 X98.06 Y105.66 E2.57387
G1 X98.385 Y105.752 E2.5851
G1 X98.424 Y105.792 E2.58696
G1 X98.601 Y105.919 E2.59421
G1 X98.812 Y105.975 E2.60147
G1 X98.826 Y105.974 E2.60193
G0 F18000 X98.34 Y106.229
G1 F6000 X98.276 Y106.46 E2.60991
G1 X98.127 Y106.657 E2.61812
G1 X98.113 Y106.695 E2.61947
G1 X97.837 Y106.42 E2.63243
G1 X97.809 Y106.324 E2.63575
G1 X97.839 Y106.223 E2.63926
G1 X97.949 Y106.107 E2.64457
G1 X98.06 Y106.075 E2.64842
G1 X98.192 Y106.112 E2.65298
G1 X98.34 Y106.229 E2.65925
G0 F18000 X98.381 Y108.066
G1 F6000 X98.61 Y108.223 E2.66848
G1 X98.803 Y108.294 E2.67532
G1 X98.812 Y108.296 E2.67563
G1 X98.81 Y108.307 E2.676
G1 X98.801 Y108.589 E2.68539
G1 X98.815 Y108.659 E2.68776
G1 X98.806 Y108.741 E2.69051
G1 X98.776 Y108.771 E2.69192
G1 X98.607 Y108.997 E2.7013
G1 X98.508 Y109.261 E2.71068
G1 X98.493 Y109.459 E2.71728
G1 X98.221 Y109.497 E2.72642
G1 X98.073 Y109.54 E2.73155
G1 X97.863 Y109.635 E2.73921
G1 X97.885 Y109.602 E2.74053
G1 X97.945 Y109.446 E2.74609
G1 X98.046 Y109.1 E2.75808
G1 X98.162 Y108.934 E2.76481
G1 X98.253 Y108.667 E2.7742
G1 X98.267 Y108.385 E2.78359
G1 X98.247 Y108.283 E2.78704
G1 X98.262 Y108.232 E2.78881
G1 X98.268 Y108.226 E2.78909
G1 X98.381 Y108.066 E2.79561
G1 F2400 E1.99561
G0 F18000 X97.475 Y110.032
G1 F2400 E2.79561
G1 F6000 X97.447 Y110.075 E2.79732
G1 X97.391 Y110.225 E2.80264
G1 X97.367 Y110.308 E2.80551
G1 X97.339 Y110.332 E2.80674
G1 X97.277 Y110.349 E2.80888
G1 X97.246 Y110.34 E2.80995
G1 X97.17 Y110.264 E2.81353
G1 X97.161 Y110.234 E2.81457
G1 X97.171 Y110.198 E2.81581
G1 X97.23 Y110.136 E2.81866
G1 X97.253 Y110.13 E2.81945
G1 X97.475 Y110.032 E2.82752
G0 F18000 X98.402 Y111.236
G1 F6000 X98.426 Y111.235 E2.82832
G1 X98.928 Y111.095 E2.84565
G1 X99.254 Y111.187 E2.85692
G1 X99.5 Y111.445 E2.86878
G1 X99.59 Y111.756 E2.87954
G1 X99.497 Y112.089 E2.89104
G1 X99.178 Y112.408 E2.90605
G1 X99.121 Y112.519 E2.9102
G1 X99.127 Y112.605 E2.91307
G1 X99.182 Y112.792 E2.91955
G1 X99.253 Y112.895 E2.92371
G1 X99.33 Y112.931 E2.92654
G1 X99.746 Y113.025 E2.94072
G1 X99.942 Y113.221 E2.94994
G1 X100.008 Y113.468 E2.95845
G1 X99.915 Y113.741 E2.96804
G1 X99.664 Y113.979 E2.97954
G1 X99.358 Y114.064 E2.99011
G1 X99.113 Y113.992 E2.9986
G1 X98.908 Y113.787 E3.00824
G1 X98.821 Y113.492 E3.01847
G1 X98.75 Y113.389 E3.02263
G1 X98.632 Y113.348 E3.02679
G1 X98.488 Y113.406 E3.03195
G1 X98.174 Y113.718 E3.04667
G1 X97.7 Y113.851 E3.06305
G1 X97.254 Y113.72 E3.07851
G1 X96.889 Y113.355 E3.09568
G1 X96.757 Y112.907 E3.11121
G1 X96.887 Y112.459 E3.12672
G1 X97.234 Y112.095 E3.14345
G1 X97.701 Y111.963 E3.15959
G1 X97.974 Y112.039 E3.16902
G1 X98.099 Y112.033 E3.17318
G1 X98.22 Y111.902 E3.17911
G1 X98.403 Y111.27 E3.201
G1 X98.402 Y111.236 E3.20213
G0 F18000 X98.734 Y111.564
G1 F6000 X98.927 Y111.51 E3.20879
G1 X99.039 Y111.542 E3.21267
G1 X99.143 Y111.651 E3.21768
G1 X99.174 Y111.758 E3.22138
G1 X99.14 Y111.88 E3.22559
G1 X98.895 Y112.125 E3.23712
G1 X98.771 Y112.304 E3.24436
G1 X98.72 Y112.517 E3.25165
G1 X98.743 Y112.718 E3.25837
G1 X98.798 Y112.905 E3.26486
G1 X98.846 Y112.999 E3.26837
G1 X98.741 Y112.959 E3.27211
G1 X98.523 Y112.958 E3.27936
G1 X98.319 Y113.035 E3.28661
G1 X98.206 Y113.123 E3.29137
G1 X97.967 Y113.361 E3.30259
G1 X97.704 Y113.435 E3.31168
G1 X97.465 Y113.365 E3.31996
G1 X97.244 Y113.144 E3.33036
G1 X97.174 Y112.905 E3.33864
G1 X97.244 Y112.665 E3.34695
G1 X97.449 Y112.45 E3.35683
G1 X97.702 Y112.378 E3.36558
G1 X97.866 Y112.424 E3.37125
G1 X98.084 Y112.443 E3.37853
G1 X98.293 Y112.384 E3.38575
G1 X98.468 Y112.254 E3.393
G1 X98.604 Y112.013 E3.4022
G1 X98.734 Y111.564 E3.41775
G0 F18000 X97.934 Y112.832
G1 F6000 X97.924 Y112.839 E3.41816
G1 X97.758 Y113.004 E3.42594
G1 X97.706 Y113.019 E3.42774
G1 X97.676 Y113.01 E3.42878
G1 X97.6 Y112.934 E3.43236
G1 X97.591 Y112.904 E3.4334
G1 X97.601 Y112.87 E3.43458
G1 X97.662 Y112.805 E3.43754
G1 X97.703 Y112.794 E3.43896
G1 X97.758 Y112.809 E3.44085
G1 X97.934 Y112.832 E3.44676
G0 F18000 X99.158 Y113.287
G1 F6000 X99.241 Y113.321 E3.44974
G1 X99.545 Y113.39 E3.46011
G1 X99.584 Y113.429 E3.46194
G1 X99.59 Y113.453 E3.46276
G1 X99.568 Y113.52 E3.46511
G1 X99.461 Y113.621 E3.47
G1 X99.363 Y113.648 E3.47339
G1 X99.324 Y113.637 E3.47473
G1 X99.263 Y113.576 E3.4776
G1 X99.205 Y113.379 E3.48443
G1 X99.158 Y113.287 E3.48787
G1 F2400 E2.68787
G0 F18000 X99.637 Y115.44
G1 F2400 E3.48787
G1 F6000 X99.896 Y115.367 E3.49682
G1 X100.155 Y115.44 E3.50577
G1 X100.348 Y115.643 E3.51508
G1 X100.468 Y116.056 E3.52939
G1 X100.539 Y116.159 E3.53355
G1 X100.713 Y116.193 E3.53945
G1 X101.057 Y116.098 E3.55132
G1 X101.38 Y116.19 E3.56249
G1 X101.678 Y116.502 E3.57684
G1 X101.781 Y116.56 E3.58077
G1 X101.806 Y116.565 E3.58162
G1 X101.992 Y116.799 E3.59156
G1 X102.042 Y117.009 E3.59874
G1 X101.959 Y117.238 E3.60684
G1 X101.955 Y117.362 E3.61097
G1 X102.026 Y117.465 E3.61513
